(.../pcb-gcode-3.6.0.4/pcb-gcode.ulp)
(Copyright 2005 - 2012 by John Johnson)
(See readme.txt for licensing terms.)
(This file generated from the board:)
(.../HF PreAmp/40M_100mWattWSPRamp.brd)
(Current profile is .../pcb-gcode-3.6.0.4/profiles/mach.pp  )
(This file generated 4/24/2017 11:53 AM)
(Settings from pcb-machine.h)
(  Tool Size)
(0.1000  )
(Z Axis Settings)
(  High     Up        Down     Drill)
(12.7000 	2.5400  	-0.1778 	-1.7200 )
(spindle on time = 3.0000)
(milling depth = -0.2500)
(text depth = -0.1270)
(tool change at 0.0000  0.0000  25.4000 )
(feed rate xy = F80    )
(feed rate z  = F100   )
(Settings from pcb-defaults.h)
(isolate min = 0.1000)
(isolate max = 0.5080)
(isolate step = 0.0800)
(Generated bottom outlines, bottom drill, )
(Unit of measure: mm)
(Metric Mode)
G21
(Absolute Coordinates)
G90
G00 X0.0000  Y0.0000  
M03
G04 P3.000000
G00 Z2.5400  
G00 X-17.2806 Y41.0502 
G01 Z-0.1778 F100   
G01 X-17.2030 Y40.9159 F80    
G01 X-17.0999 Y40.6670 
G01 X-17.0302 Y40.4068 
G01 X-16.9950 Y40.1397 
G01 X-16.9950 Y39.8703 
G01 X-17.0302 Y39.6032 
G01 X-17.0999 Y39.3430 
G01 X-17.2030 Y39.0941 
G01 X-17.3377 Y38.8609 
G01 X-17.5017 Y38.6471 
G01 X-17.6921 Y38.4567 
G01 X-17.9059 Y38.2927 
G01 X-18.1391 Y38.1580 
G01 X-18.3880 Y38.0549 
G01 X-18.6482 Y37.9852 
G01 X-18.9153 Y37.9500 
G01 X-27.1550 Y37.9500 
G01 X-27.1550 Y8.1002  
G01 X-21.4352 Y8.1002  
G01 X-21.4352 Y13.4228 
G01 X-21.4077 Y13.5961 
G01 X-21.3535 Y13.7631 
G01 X-21.2738 Y13.9195 
G01 X-21.1706 Y14.0615 
G01 X-19.8538 Y15.3783 
G01 X-19.8293 Y15.5018 
G01 X-19.7682 Y15.6493 
G01 X-19.6795 Y15.7820 
G01 X-19.5666 Y15.8949 
G01 X-19.4339 Y15.9836 
G01 X-19.2864 Y16.0447 
G01 X-19.1298 Y16.0758 
G01 X-18.9702 Y16.0758 
G01 X-18.8136 Y16.0447 
G01 X-18.6661 Y15.9836 
G01 X-18.5334 Y15.8949 
G01 X-18.4205 Y15.7820 
G01 X-18.3318 Y15.6493 
G01 X-18.2707 Y15.5018 
G01 X-18.2462 Y15.3783 
G01 X-18.1994 Y15.3315 
G01 X-18.0962 Y15.1895 
G01 X-18.0165 Y15.0331 
G01 X-17.9623 Y14.8661 
G01 X-17.9348 Y14.6928 
G01 X-17.9348 Y14.5172 
G01 X-17.9623 Y14.3439 
G01 X-18.0165 Y14.1769 
G01 X-18.0962 Y14.0205 
G01 X-18.1994 Y13.8785 
G01 X-18.2462 Y13.8317 
G01 X-18.2707 Y13.7082 
G01 X-18.3318 Y13.5607 
G01 X-18.4205 Y13.4280 
G01 X-18.5334 Y13.3151 
G01 X-18.6661 Y13.2264 
G01 X-18.8136 Y13.1653 
G01 X-18.9371 Y13.1408 
G01 X-19.2048 Y12.8731 
G01 X-19.2048 Y7.4469  
G01 X-18.1994 Y6.4415  
G01 X-18.0962 Y6.2995  
G01 X-18.0165 Y6.1431  
G01 X-17.9623 Y5.9761  
G01 X-17.9348 Y5.8028  
G01 X-17.9348 Y5.5602  
G01 X-15.7019 Y5.5602  
G01 X-15.3315 Y5.9306  
G01 X-15.1895 Y6.0338  
G01 X-15.0331 Y6.1135  
G01 X-14.8661 Y6.1677  
G01 X-14.6928 Y6.1952  
G01 X-11.8919 Y6.1952  
G01 X-11.5215 Y6.5656  
G01 X-11.3795 Y6.6688  
G01 X-11.2231 Y6.7485  
G01 X-11.0561 Y6.8027  
G01 X-10.8828 Y6.8302  
G01 X-10.6219 Y6.8302  
G01 X-10.0052 Y7.4469  
G01 X-10.0052 Y21.7631 
G01 X-10.9959 Y22.7538 
G01 X-11.0282 Y22.7452 
G01 X-11.2953 Y22.7100 
G01 X-11.5647 Y22.7100 
G01 X-11.8318 Y22.7452 
G01 X-12.0920 Y22.8149 
G01 X-12.3409 Y22.9180 
G01 X-12.5741 Y23.0527 
G01 X-12.7879 Y23.2167 
G01 X-12.9783 Y23.4071 
G01 X-13.1423 Y23.6209 
G01 X-13.2770 Y23.8541 
G01 X-13.3801 Y24.1030 
G01 X-13.4498 Y24.3632 
G01 X-13.4850 Y24.6303 
G01 X-13.4850 Y39.6439 
G01 X-13.5104 Y39.6693 
G01 X-13.5104 Y40.3407 
G01 X-13.4507 Y40.4004 
G01 X-13.4498 Y40.4068 
G01 X-13.3801 Y40.6670 
G01 X-13.2770 Y40.9159 
G01 X-13.1423 Y41.1491 
G01 X-12.9783 Y41.3629 
G01 X-12.9114 Y41.4298 
G01 X-17.0908 Y41.4298 
G01 X-17.2806 Y41.0502 
G00 Z2.5400  
G00 X-17.8730 Y29.8395 
G01 Z-0.1778 F100   
G01 X-17.7601 Y29.7266 F80    
G01 X-17.6714 Y29.5939 
G01 X-17.6103 Y29.4464 
G01 X-17.5792 Y29.2898 
G01 X-17.5792 Y29.1302 
G01 X-17.6103 Y28.9736 
G01 X-17.6714 Y28.8261 
G01 X-17.7601 Y28.6934 
G01 X-17.8730 Y28.5805 
G01 X-18.0057 Y28.4918 
G01 X-18.1532 Y28.4307 
G01 X-18.2767 Y28.4062 
G01 X-18.3235 Y28.3594 
G01 X-18.4655 Y28.2562 
G01 X-18.6219 Y28.1765 
G01 X-18.7889 Y28.1223 
G01 X-18.9622 Y28.0948 
G01 X-19.1378 Y28.0948 
G01 X-19.3111 Y28.1223 
G01 X-19.4781 Y28.1765 
G01 X-19.6345 Y28.2562 
G01 X-19.7765 Y28.3594 
G01 X-19.8233 Y28.4062 
G01 X-19.9468 Y28.4307 
G01 X-20.0943 Y28.4918 
G01 X-20.2270 Y28.5805 
G01 X-20.3399 Y28.6934 
G01 X-20.4286 Y28.8261 
G01 X-20.4897 Y28.9736 
G01 X-20.5208 Y29.1302 
G01 X-20.5208 Y29.2898 
G01 X-20.5059 Y29.3648 
G01 X-21.6778 Y29.3648 
G01 X-21.8511 Y29.3923 
G01 X-22.0181 Y29.4465 
G01 X-22.1745 Y29.5262 
G01 X-22.3165 Y29.6294 
G01 X-22.4406 Y29.7535 
G01 X-22.5438 Y29.8955 
G01 X-22.6235 Y30.0519 
G01 X-22.6777 Y30.2189 
G01 X-22.7052 Y30.3922 
G01 X-22.7052 Y30.5678 
G01 X-22.6777 Y30.7411 
G01 X-22.6235 Y30.9081 
G01 X-22.5438 Y31.0645 
G01 X-22.4406 Y31.2065 
G01 X-22.3165 Y31.3306 
G01 X-22.1745 Y31.4338 
G01 X-22.0181 Y31.5135 
G01 X-21.8511 Y31.5677 
G01 X-21.6778 Y31.5952 
G01 X-20.3642 Y31.5952 
G01 X-20.3399 Y31.6316 
G01 X-20.2270 Y31.7445 
G01 X-20.0943 Y31.8332 
G01 X-19.9468 Y31.8943 
G01 X-19.8233 Y31.9188 
G01 X-19.7765 Y31.9656 
G01 X-19.6345 Y32.0688 
G01 X-19.4781 Y32.1485 
G01 X-19.3111 Y32.2027 
G01 X-19.1378 Y32.2302 
G01 X-18.9622 Y32.2302 
G01 X-18.7889 Y32.2027 
G01 X-18.6219 Y32.1485 
G01 X-18.4655 Y32.0688 
G01 X-18.3235 Y31.9656 
G01 X-18.2767 Y31.9188 
G01 X-18.1532 Y31.8943 
G01 X-18.0057 Y31.8332 
G01 X-17.8730 Y31.7445 
G01 X-17.7601 Y31.6316 
G01 X-17.6714 Y31.4989 
G01 X-17.6103 Y31.3514 
G01 X-17.6055 Y31.3271 
G01 X-17.5977 Y31.3761 
G01 X-17.5435 Y31.5431 
G01 X-17.4638 Y31.6995 
G01 X-17.3606 Y31.8415 
G01 X-17.2365 Y31.9656 
G01 X-17.0945 Y32.0688 
G01 X-16.9381 Y32.1485 
G01 X-16.7711 Y32.2027 
G01 X-16.5978 Y32.2302 
G01 X-16.4222 Y32.2302 
G01 X-16.2489 Y32.2027 
G01 X-16.0819 Y32.1485 
G01 X-15.9255 Y32.0688 
G01 X-15.7835 Y31.9656 
G01 X-14.3894 Y30.5715 
G01 X-14.2862 Y30.4295 
G01 X-14.2065 Y30.2731 
G01 X-14.1523 Y30.1061 
G01 X-14.1248 Y29.9328 
G01 X-14.1248 Y28.4872 
G01 X-14.1523 Y28.3139 
G01 X-14.2065 Y28.1469 
G01 X-14.2862 Y27.9905 
G01 X-14.3894 Y27.8485 
G01 X-14.5135 Y27.7244 
G01 X-16.4185 Y25.8194 
G01 X-16.5605 Y25.7162 
G01 X-16.7169 Y25.6365 
G01 X-16.8839 Y25.5823 
G01 X-17.0572 Y25.5548 
G01 X-19.1378 Y25.5548 
G01 X-19.3111 Y25.5823 
G01 X-19.4781 Y25.6365 
G01 X-19.6345 Y25.7162 
G01 X-19.7765 Y25.8194 
G01 X-19.8233 Y25.8662 
G01 X-19.9468 Y25.8907 
G01 X-20.0943 Y25.9518 
G01 X-20.2270 Y26.0405 
G01 X-20.3399 Y26.1534 
G01 X-20.4286 Y26.2861 
G01 X-20.4897 Y26.4336 
G01 X-20.5208 Y26.5902 
G01 X-20.5208 Y26.7498 
G01 X-20.4897 Y26.9064 
G01 X-20.4286 Y27.0539 
G01 X-20.3399 Y27.1866 
G01 X-20.2270 Y27.2995 
G01 X-20.0943 Y27.3882 
G01 X-19.9468 Y27.4493 
G01 X-19.8233 Y27.4738 
G01 X-19.7765 Y27.5206 
G01 X-19.6345 Y27.6238 
G01 X-19.4781 Y27.7035 
G01 X-19.3111 Y27.7577 
G01 X-19.1378 Y27.7852 
G01 X-17.6069 Y27.7852 
G01 X-16.3552 Y29.0369 
G01 X-16.3552 Y29.3831 
G01 X-17.3606 Y30.3885 
G01 X-17.4638 Y30.5305 
G01 X-17.5435 Y30.6869 
G01 X-17.5977 Y30.8539 
G01 X-17.6055 Y30.9029 
G01 X-17.6103 Y30.8786 
G01 X-17.6714 Y30.7311 
G01 X-17.7601 Y30.5984 
G01 X-17.8730 Y30.4855 
G01 X-17.9348 Y30.4442 
G01 X-17.9348 Y29.8808 
G01 X-17.8730 Y29.8395 
G00 Z2.5400  
G00 X-18.1532 Y36.9743 
G01 Z-0.1778 F100   
G01 X-18.0057 Y36.9132 F80    
G01 X-17.8730 Y36.8245 
G01 X-17.7601 Y36.7116 
G01 X-17.6714 Y36.5789 
G01 X-17.6103 Y36.4314 
G01 X-17.5792 Y36.2748 
G01 X-17.5792 Y36.1152 
G01 X-17.6103 Y35.9586 
G01 X-17.6714 Y35.8111 
G01 X-17.7601 Y35.6784 
G01 X-17.8730 Y35.5655 
G01 X-18.0057 Y35.4768 
G01 X-18.1532 Y35.4157 
G01 X-18.2767 Y35.3912 
G01 X-18.3235 Y35.3444 
G01 X-18.4655 Y35.2412 
G01 X-18.6219 Y35.1615 
G01 X-18.7889 Y35.1073 
G01 X-18.9622 Y35.0798 
G01 X-21.6778 Y35.0798 
G01 X-21.8511 Y35.1073 
G01 X-22.0181 Y35.1615 
G01 X-22.1745 Y35.2412 
G01 X-22.3165 Y35.3444 
G01 X-22.4406 Y35.4685 
G01 X-22.5438 Y35.6105 
G01 X-22.6235 Y35.7669 
G01 X-22.6777 Y35.9339 
G01 X-22.7052 Y36.1072 
G01 X-22.7052 Y36.2828 
G01 X-22.6777 Y36.4561 
G01 X-22.6235 Y36.6231 
G01 X-22.5438 Y36.7795 
G01 X-22.4406 Y36.9215 
G01 X-22.3165 Y37.0456 
G01 X-22.1745 Y37.1488 
G01 X-22.0181 Y37.2285 
G01 X-21.8511 Y37.2827 
G01 X-21.6778 Y37.3102 
G01 X-18.9622 Y37.3102 
G01 X-18.7889 Y37.2827 
G01 X-18.6219 Y37.2285 
G01 X-18.4655 Y37.1488 
G01 X-18.3235 Y37.0456 
G01 X-18.2767 Y36.9988 
G01 X-18.1532 Y36.9743 
G00 Z2.5400  
G00 X-19.9468 Y32.8757 
G01 Z-0.1778 F100   
G01 X-20.0943 Y32.9368 F80    
G01 X-20.2270 Y33.0255 
G01 X-20.3399 Y33.1384 
G01 X-20.4286 Y33.2711 
G01 X-20.4897 Y33.4186 
G01 X-20.5208 Y33.5752 
G01 X-20.5208 Y33.7348 
G01 X-20.4897 Y33.8914 
G01 X-20.4286 Y34.0389 
G01 X-20.3399 Y34.1716 
G01 X-20.2270 Y34.2845 
G01 X-20.0943 Y34.3732 
G01 X-19.9468 Y34.4343 
G01 X-19.8233 Y34.4588 
G01 X-19.7765 Y34.5056 
G01 X-19.6345 Y34.6088 
G01 X-19.4781 Y34.6885 
G01 X-19.3111 Y34.7427 
G01 X-19.1378 Y34.7702 
G01 X-16.3552 Y34.7702 
G01 X-16.3552 Y35.4302 
G01 X-16.3591 Y35.4318 
G01 X-16.5002 Y35.5261 
G01 X-16.6201 Y35.6460 
G01 X-16.7144 Y35.7871 
G01 X-16.7793 Y35.9438 
G01 X-16.8124 Y36.1102 
G01 X-16.8124 Y36.2798 
G01 X-16.7793 Y36.4462 
G01 X-16.7144 Y36.6029 
G01 X-16.6201 Y36.7440 
G01 X-16.5002 Y36.8639 
G01 X-16.3591 Y36.9582 
G01 X-16.3552 Y36.9598 
G01 X-16.3552 Y40.0928 
G01 X-16.3277 Y40.2661 
G01 X-16.2735 Y40.4331 
G01 X-16.1938 Y40.5895 
G01 X-16.0906 Y40.7315 
G01 X-15.9665 Y40.8556 
G01 X-15.8245 Y40.9588 
G01 X-15.6681 Y41.0385 
G01 X-15.5011 Y41.0927 
G01 X-15.3278 Y41.1202 
G01 X-15.1522 Y41.1202 
G01 X-14.9789 Y41.0927 
G01 X-14.8119 Y41.0385 
G01 X-14.6555 Y40.9588 
G01 X-14.5135 Y40.8556 
G01 X-14.3894 Y40.7315 
G01 X-14.2862 Y40.5895 
G01 X-14.2065 Y40.4331 
G01 X-14.1523 Y40.2661 
G01 X-14.1248 Y40.0928 
G01 X-14.1248 Y36.9598 
G01 X-14.1209 Y36.9582 
G01 X-13.9798 Y36.8639 
G01 X-13.8599 Y36.7440 
G01 X-13.7656 Y36.6029 
G01 X-13.7007 Y36.4462 
G01 X-13.6676 Y36.2798 
G01 X-13.6676 Y36.1102 
G01 X-13.7007 Y35.9438 
G01 X-13.7656 Y35.7871 
G01 X-13.8599 Y35.6460 
G01 X-13.9798 Y35.5261 
G01 X-14.1209 Y35.4318 
G01 X-14.1248 Y35.4302 
G01 X-14.1248 Y33.5672 
G01 X-14.1523 Y33.3939 
G01 X-14.2065 Y33.2269 
G01 X-14.2862 Y33.0705 
G01 X-14.3894 Y32.9285 
G01 X-14.5135 Y32.8044 
G01 X-14.6555 Y32.7012 
G01 X-14.8119 Y32.6215 
G01 X-14.9789 Y32.5673 
G01 X-15.1522 Y32.5398 
G01 X-19.1378 Y32.5398 
G01 X-19.3111 Y32.5673 
G01 X-19.4781 Y32.6215 
G01 X-19.6345 Y32.7012 
G01 X-19.7765 Y32.8044 
G01 X-19.8233 Y32.8512 
G01 X-19.9468 Y32.8757 
G00 Z2.5400  
G00 X-15.6996 Y21.6952 
G01 Z-0.1778 F100   
G01 X-15.6996 Y21.5209 F80    
G01 X-15.6343 Y21.4231 
G01 X-15.5598 Y21.2432 
G01 X-15.5218 Y21.0523 
G01 X-15.5218 Y18.1332 
G01 X-13.8727 Y18.1332 
G01 X-13.6818 Y18.0952 
G01 X-13.5019 Y18.0207 
G01 X-13.3401 Y17.9126 
G01 X-13.2024 Y17.7749 
G01 X-13.0943 Y17.6131 
G01 X-13.0198 Y17.4332 
G01 X-12.9818 Y17.2423 
G01 X-12.9818 Y15.7202 
G01 X-11.3422 Y15.7202 
G01 X-11.1689 Y15.6927 
G01 X-11.0019 Y15.6385 
G01 X-10.8455 Y15.5588 
G01 X-10.7035 Y15.4556 
G01 X-10.5794 Y15.3315 
G01 X-10.4762 Y15.1895 
G01 X-10.3965 Y15.0331 
G01 X-10.3423 Y14.8661 
G01 X-10.3148 Y14.6928 
G01 X-10.3148 Y14.5172 
G01 X-10.3423 Y14.3439 
G01 X-10.3965 Y14.1769 
G01 X-10.4762 Y14.0205 
G01 X-10.5794 Y13.8785 
G01 X-10.7035 Y13.7544 
G01 X-10.8455 Y13.6512 
G01 X-11.0019 Y13.5715 
G01 X-11.1689 Y13.5173 
G01 X-11.3422 Y13.4898 
G01 X-13.2992 Y13.4898 
G01 X-13.3405 Y13.4280 
G01 X-13.4534 Y13.3151 
G01 X-13.5861 Y13.2264 
G01 X-13.7336 Y13.1653 
G01 X-13.8902 Y13.1342 
G01 X-14.0498 Y13.1342 
G01 X-14.2064 Y13.1653 
G01 X-14.3539 Y13.2264 
G01 X-14.4866 Y13.3151 
G01 X-14.5995 Y13.4280 
G01 X-14.6882 Y13.5607 
G01 X-14.7493 Y13.7082 
G01 X-14.7738 Y13.8317 
G01 X-14.8206 Y13.8785 
G01 X-14.9238 Y14.0205 
G01 X-15.0035 Y14.1769 
G01 X-15.0577 Y14.3439 
G01 X-15.0852 Y14.5172 
G01 X-15.0852 Y14.6928 
G01 X-15.0577 Y14.8661 
G01 X-15.0035 Y15.0331 
G01 X-14.9582 Y15.1220 
G01 X-14.9582 Y16.1568 
G01 X-16.6073 Y16.1568 
G01 X-16.7982 Y16.1948 
G01 X-16.9781 Y16.2693 
G01 X-17.1399 Y16.3774 
G01 X-17.2776 Y16.5151 
G01 X-17.3857 Y16.6769 
G01 X-17.4602 Y16.8568 
G01 X-17.4982 Y17.0477 
G01 X-17.4982 Y21.0523 
G01 X-17.4602 Y21.2432 
G01 X-17.3857 Y21.4231 
G01 X-17.3204 Y21.5209 
G01 X-17.3204 Y21.6952 
G01 X-17.2893 Y21.8518 
G01 X-17.2282 Y21.9993 
G01 X-17.1395 Y22.1320 
G01 X-17.0266 Y22.2449 
G01 X-16.8939 Y22.3336 
G01 X-16.7464 Y22.3947 
G01 X-16.5898 Y22.4258 
G01 X-16.4302 Y22.4258 
G01 X-16.2736 Y22.3947 
G01 X-16.1261 Y22.3336 
G01 X-15.9934 Y22.2449 
G01 X-15.8805 Y22.1320 
G01 X-15.7918 Y21.9993 
G01 X-15.7307 Y21.8518 
G01 X-15.6996 Y21.6952 
G00 Z2.5400  
G00 X-13.3405 Y19.7780 
G01 Z-0.1778 F100   
G01 X-13.4534 Y19.6651 F80    
G01 X-13.5861 Y19.5764 
G01 X-13.7336 Y19.5153 
G01 X-13.8902 Y19.4842 
G01 X-14.0498 Y19.4842 
G01 X-14.2064 Y19.5153 
G01 X-14.3539 Y19.5764 
G01 X-14.4866 Y19.6651 
G01 X-14.5995 Y19.7780 
G01 X-14.6882 Y19.9107 
G01 X-14.7493 Y20.0582 
G01 X-14.7738 Y20.1817 
G01 X-14.8206 Y20.2285 
G01 X-14.9238 Y20.3705 
G01 X-15.0035 Y20.5269 
G01 X-15.0577 Y20.6939 
G01 X-15.0852 Y20.8672 
G01 X-15.0852 Y21.0428 
G01 X-15.0577 Y21.2161 
G01 X-15.0035 Y21.3831 
G01 X-14.9238 Y21.5395 
G01 X-14.8206 Y21.6815 
G01 X-14.7738 Y21.7283 
G01 X-14.7493 Y21.8518 
G01 X-14.6882 Y21.9993 
G01 X-14.5995 Y22.1320 
G01 X-14.4866 Y22.2449 
G01 X-14.3539 Y22.3336 
G01 X-14.2064 Y22.3947 
G01 X-14.0498 Y22.4258 
G01 X-13.8902 Y22.4258 
G01 X-13.7336 Y22.3947 
G01 X-13.5861 Y22.3336 
G01 X-13.4534 Y22.2449 
G01 X-13.3405 Y22.1320 
G01 X-13.2992 Y22.0702 
G01 X-11.3422 Y22.0702 
G01 X-11.1689 Y22.0427 
G01 X-11.0019 Y21.9885 
G01 X-10.8455 Y21.9088 
G01 X-10.7035 Y21.8056 
G01 X-10.5794 Y21.6815 
G01 X-10.4762 Y21.5395 
G01 X-10.3965 Y21.3831 
G01 X-10.3423 Y21.2161 
G01 X-10.3148 Y21.0428 
G01 X-10.3148 Y20.8672 
G01 X-10.3423 Y20.6939 
G01 X-10.3965 Y20.5269 
G01 X-10.4762 Y20.3705 
G01 X-10.5794 Y20.2285 
G01 X-10.7035 Y20.1044 
G01 X-10.8455 Y20.0012 
G01 X-11.0019 Y19.9215 
G01 X-11.1689 Y19.8673 
G01 X-11.3422 Y19.8398 
G01 X-13.2992 Y19.8398 
G01 X-13.3405 Y19.7780 
G00 Z2.5400  
G00 X-17.9342 Y20.8757 
G01 Z-0.1778 F100   
G01 X-17.9348 Y20.8715 F80    
G01 X-17.9348 Y20.8672 
G01 X-17.9479 Y20.7847 
G01 X-17.9603 Y20.7021 
G01 X-17.9616 Y20.6981 
G01 X-17.9623 Y20.6939 
G01 X-17.9881 Y20.6142 
G01 X-18.0133 Y20.5348 
G01 X-18.0152 Y20.5310 
G01 X-18.0165 Y20.5269 
G01 X-18.0546 Y20.4522 
G01 X-20.6318 Y15.2978 
G01 X-20.7339 Y15.1550 
G01 X-20.8571 Y15.0299 
G01 X-20.9983 Y14.9257 
G01 X-21.1541 Y14.8448 
G01 X-21.3206 Y14.7893 
G01 X-21.4938 Y14.7605 
G01 X-21.6693 Y14.7592 
G01 X-21.8429 Y14.7853 
G01 X-22.0102 Y14.8383 
G01 X-22.1672 Y14.9168 
G01 X-22.3100 Y15.0189 
G01 X-22.4351 Y15.1421 
G01 X-22.5393 Y15.2833 
G01 X-22.6202 Y15.4391 
G01 X-22.6757 Y15.6056 
G01 X-22.7045 Y15.7788 
G01 X-22.7058 Y15.9543 
G01 X-22.6797 Y16.1279 
G01 X-22.6267 Y16.2952 
G01 X-20.1652 Y21.2183 
G01 X-20.1652 Y23.0148 
G01 X-22.3128 Y23.0148 
G01 X-22.4861 Y23.0423 
G01 X-22.6531 Y23.0965 
G01 X-22.8095 Y23.1762 
G01 X-22.9515 Y23.2794 
G01 X-24.9806 Y25.3085 
G01 X-25.0838 Y25.4505 
G01 X-25.1635 Y25.6069 
G01 X-25.2177 Y25.7739 
G01 X-25.2452 Y25.9472 
G01 X-25.2452 Y26.1228 
G01 X-25.2177 Y26.2961 
G01 X-25.1635 Y26.4631 
G01 X-25.0838 Y26.6195 
G01 X-24.9806 Y26.7615 
G01 X-24.8565 Y26.8856 
G01 X-24.7145 Y26.9888 
G01 X-24.5581 Y27.0685 
G01 X-24.3911 Y27.1227 
G01 X-24.2178 Y27.1502 
G01 X-24.0422 Y27.1502 
G01 X-23.8689 Y27.1227 
G01 X-23.7019 Y27.0685 
G01 X-23.5455 Y26.9888 
G01 X-23.4035 Y26.8856 
G01 X-21.7631 Y25.2452 
G01 X-18.9622 Y25.2452 
G01 X-18.7889 Y25.2177 
G01 X-18.6219 Y25.1635 
G01 X-18.4655 Y25.0838 
G01 X-18.3235 Y24.9806 
G01 X-18.2767 Y24.9338 
G01 X-18.1532 Y24.9093 
G01 X-18.0057 Y24.8482 
G01 X-17.8730 Y24.7595 
G01 X-17.7601 Y24.6466 
G01 X-17.6714 Y24.5139 
G01 X-17.6103 Y24.3664 
G01 X-17.5792 Y24.2098 
G01 X-17.5792 Y24.0502 
G01 X-17.6103 Y23.8936 
G01 X-17.6714 Y23.7461 
G01 X-17.7601 Y23.6134 
G01 X-17.8730 Y23.5005 
G01 X-17.9348 Y23.4592 
G01 X-17.9348 Y20.9593 
G01 X-17.9342 Y20.8757 
G00 Z2.5400  
G00 X-11.3422 Y8.4098  
G01 Z-0.1778 F100   
G01 X-15.3948 Y8.4098  F80    
G01 X-15.3948 Y6.8972  
G01 X-15.4223 Y6.7239  
G01 X-15.4765 Y6.5569  
G01 X-15.5562 Y6.4005  
G01 X-15.6594 Y6.2585  
G01 X-15.7835 Y6.1344  
G01 X-15.9255 Y6.0312  
G01 X-16.0819 Y5.9515  
G01 X-16.2489 Y5.8973  
G01 X-16.4222 Y5.8698  
G01 X-16.5978 Y5.8698  
G01 X-16.7711 Y5.8973  
G01 X-16.9381 Y5.9515  
G01 X-17.0945 Y6.0312  
G01 X-17.2365 Y6.1344  
G01 X-17.3606 Y6.2585  
G01 X-17.4638 Y6.4005  
G01 X-17.5435 Y6.5569  
G01 X-17.5977 Y6.7239  
G01 X-17.6252 Y6.8972  
G01 X-17.6252 Y14.6928 
G01 X-17.5977 Y14.8661 
G01 X-17.5435 Y15.0331 
G01 X-17.4638 Y15.1895 
G01 X-17.3606 Y15.3315 
G01 X-17.3138 Y15.3783 
G01 X-17.2893 Y15.5018 
G01 X-17.2282 Y15.6493 
G01 X-17.1395 Y15.7820 
G01 X-17.0266 Y15.8949 
G01 X-16.8939 Y15.9836 
G01 X-16.7464 Y16.0447 
G01 X-16.5898 Y16.0758 
G01 X-16.4302 Y16.0758 
G01 X-16.2736 Y16.0447 
G01 X-16.1261 Y15.9836 
G01 X-15.9934 Y15.8949 
G01 X-15.8805 Y15.7820 
G01 X-15.7918 Y15.6493 
G01 X-15.7307 Y15.5018 
G01 X-15.7062 Y15.3783 
G01 X-15.6594 Y15.3315 
G01 X-15.5562 Y15.1895 
G01 X-15.4765 Y15.0331 
G01 X-15.4223 Y14.8661 
G01 X-15.3948 Y14.6928 
G01 X-15.3948 Y10.6402 
G01 X-11.3422 Y10.6402 
G01 X-11.1689 Y10.6127 
G01 X-11.0019 Y10.5585 
G01 X-10.8455 Y10.4788 
G01 X-10.7035 Y10.3756 
G01 X-10.5794 Y10.2515 
G01 X-10.4762 Y10.1095 
G01 X-10.3965 Y9.9531  
G01 X-10.3423 Y9.7861  
G01 X-10.3148 Y9.6128  
G01 X-10.3148 Y9.4372  
G01 X-10.3423 Y9.2639  
G01 X-10.3965 Y9.0969  
G01 X-10.4762 Y8.9405  
G01 X-10.5794 Y8.7985  
G01 X-10.7035 Y8.6744  
G01 X-10.8455 Y8.5712  
G01 X-11.0019 Y8.4915  
G01 X-11.1689 Y8.4373  
G01 X-11.3422 Y8.4098  
G00 Z2.5400  
G00 X-23.0148 Y9.4372  
G01 Z-0.1778 F100   
G01 X-23.0423 Y9.2639  F80    
G01 X-23.0965 Y9.0969  
G01 X-23.1762 Y8.9405  
G01 X-23.2794 Y8.7985  
G01 X-23.4035 Y8.6744  
G01 X-23.5455 Y8.5712  
G01 X-23.7019 Y8.4915  
G01 X-23.8689 Y8.4373  
G01 X-24.0422 Y8.4098  
G01 X-24.2178 Y8.4098  
G01 X-24.3911 Y8.4373  
G01 X-24.5581 Y8.4915  
G01 X-24.7145 Y8.5712  
G01 X-24.8565 Y8.6744  
G01 X-24.9806 Y8.7985  
G01 X-25.0838 Y8.9405  
G01 X-25.1635 Y9.0969  
G01 X-25.2177 Y9.2639  
G01 X-25.2452 Y9.4372  
G01 X-25.2452 Y18.5028 
G01 X-25.2177 Y18.6761 
G01 X-25.1635 Y18.8431 
G01 X-25.0838 Y18.9995 
G01 X-24.9806 Y19.1415 
G01 X-24.8565 Y19.2656 
G01 X-24.7145 Y19.3688 
G01 X-24.5581 Y19.4485 
G01 X-24.3911 Y19.5027 
G01 X-24.2178 Y19.5302 
G01 X-24.0422 Y19.5302 
G01 X-23.8689 Y19.5027 
G01 X-23.7019 Y19.4485 
G01 X-23.5455 Y19.3688 
G01 X-23.4035 Y19.2656 
G01 X-23.2794 Y19.1415 
G01 X-23.1762 Y18.9995 
G01 X-23.0965 Y18.8431 
G01 X-23.0423 Y18.6761 
G01 X-23.0148 Y18.5028 
G01 X-23.0148 Y11.9772 
G01 X-23.0148 Y9.4372  
G00 Z2.5400  
G00 X-25.1738 Y72.1791 
G01 Z-0.1778 F100   
G01 X-25.2090 Y71.9120 F80    
G01 X-25.2787 Y71.6518 
G01 X-25.3818 Y71.4029 
G01 X-25.5165 Y71.1697 
G01 X-25.6805 Y70.9559 
G01 X-25.8709 Y70.7655 
G01 X-26.0847 Y70.6015 
G01 X-26.3179 Y70.4668 
G01 X-26.3477 Y70.4545 
G01 X-26.3917 Y70.3971 
G01 X-27.1550 Y69.6338 
G01 X-27.1550 Y67.5262 
G01 X-27.1029 Y67.4741 
G01 X-26.9979 Y67.3373 
G01 X-26.9379 Y67.3278 
G01 X-26.7520 Y67.2674 
G01 X-26.5777 Y67.1786 
G01 X-26.4196 Y67.0637 
G01 X-26.2813 Y66.9254 
G01 X-26.1664 Y66.7673 
G01 X-26.0776 Y66.5930 
G01 X-26.0172 Y66.4071 
G01 X-25.9866 Y66.2140 
G01 X-25.9866 Y66.0184 
G01 X-26.0172 Y65.8253 
G01 X-26.0776 Y65.6394 
G01 X-26.1664 Y65.4651 
G01 X-26.2813 Y65.3070 
G01 X-26.4196 Y65.1687 
G01 X-26.5777 Y65.0538 
G01 X-26.7520 Y64.9650 
G01 X-26.9379 Y64.9046 
G01 X-26.9979 Y64.8951 
G01 X-27.1029 Y64.7583 
G01 X-27.1550 Y64.7062 
G01 X-27.1550 Y42.0600 
G01 X-19.2693 Y42.0600 
G01 X-18.8148 Y42.9690 
G01 X-18.8135 Y42.9731 
G01 X-18.7756 Y43.0475 
G01 X-18.7382 Y43.1222 
G01 X-18.7357 Y43.1257 
G01 X-18.7338 Y43.1295 
G01 X-18.6847 Y43.1971 
G01 X-18.6361 Y43.2650 
G01 X-18.6331 Y43.2681 
G01 X-18.6306 Y43.2715 
G01 X-18.5714 Y43.3307 
G01 X-18.5129 Y43.3901 
G01 X-18.5095 Y43.3926 
G01 X-18.5065 Y43.3956 
G01 X-18.4388 Y43.4448 
G01 X-18.3717 Y43.4943 
G01 X-18.3679 Y43.4963 
G01 X-18.3645 Y43.4988 
G01 X-18.2899 Y43.5368 
G01 X-18.2159 Y43.5752 
G01 X-18.2119 Y43.5766 
G01 X-18.2081 Y43.5785 
G01 X-18.1284 Y43.6044 
G01 X-18.0494 Y43.6307 
G01 X-18.0452 Y43.6314 
G01 X-18.0411 Y43.6327 
G01 X-17.9586 Y43.6458 
G01 X-17.8762 Y43.6595 
G01 X-17.8720 Y43.6595 
G01 X-17.8678 Y43.6602 
G01 X-17.7843 Y43.6602 
G01 X-17.7007 Y43.6608 
G01 X-17.6965 Y43.6602 
G01 X-10.6810 Y43.6602 
G01 X-8.4050 Y45.9362 
G01 X-8.4050 Y56.9338 
G01 X-13.5512 Y62.0800 
G01 X-19.1847 Y62.0800 
G01 X-19.4518 Y62.1152 
G01 X-19.7120 Y62.1849 
G01 X-19.9609 Y62.2880 
G01 X-20.1941 Y62.4227 
G01 X-20.4079 Y62.5867 
G01 X-21.6779 Y63.8567 
G01 X-21.8683 Y64.0471 
G01 X-22.0323 Y64.2609 
G01 X-22.1670 Y64.4941 
G01 X-22.2701 Y64.7430 
G01 X-22.3398 Y65.0032 
G01 X-22.3750 Y65.2703 
G01 X-22.3750 Y70.7514 
G01 X-22.3891 Y70.7655 
G01 X-23.8636 Y72.2400 
G01 X-25.1738 Y72.2400 
G01 X-25.1738 Y72.1791 
G00 Z2.5400  
G00 X-14.1704 Y46.3014 
G01 Z-0.1778 F100   
G01 X-14.0434 Y46.4284 F80    
G01 X-13.8940 Y46.5282 
G01 X-13.7280 Y46.5969 
G01 X-13.5518 Y46.6320 
G01 X-13.3420 Y46.6320 
G01 X-13.2845 Y46.6738 
G01 X-13.1281 Y46.7535 
G01 X-12.9611 Y46.8077 
G01 X-12.7878 Y46.8352 
G01 X-12.6122 Y46.8352 
G01 X-12.4389 Y46.8077 
G01 X-12.2719 Y46.7535 
G01 X-12.1155 Y46.6738 
G01 X-12.0580 Y46.6320 
G01 X-11.8482 Y46.6320 
G01 X-11.6720 Y46.5969 
G01 X-11.5060 Y46.5282 
G01 X-11.3566 Y46.4284 
G01 X-11.2296 Y46.3014 
G01 X-11.1298 Y46.1520 
G01 X-11.0610 Y45.9860 
G01 X-11.0260 Y45.8098 
G01 X-11.0260 Y45.6302 
G01 X-11.0610 Y45.4540 
G01 X-11.1298 Y45.2880 
G01 X-11.2296 Y45.1386 
G01 X-11.3566 Y45.0116 
G01 X-11.5060 Y44.9118 
G01 X-11.6048 Y44.8709 
G01 X-11.6123 Y44.8239 
G01 X-11.6665 Y44.6569 
G01 X-11.7462 Y44.5005 
G01 X-11.8494 Y44.3585 
G01 X-11.9735 Y44.2344 
G01 X-12.1155 Y44.1312 
G01 X-12.2719 Y44.0515 
G01 X-12.4389 Y43.9973 
G01 X-12.6122 Y43.9698 
G01 X-24.2178 Y43.9698 
G01 X-24.3911 Y43.9973 
G01 X-24.5581 Y44.0515 
G01 X-24.7145 Y44.1312 
G01 X-24.8565 Y44.2344 
G01 X-24.9806 Y44.3585 
G01 X-25.0838 Y44.5005 
G01 X-25.1635 Y44.6569 
G01 X-25.2177 Y44.8239 
G01 X-25.2452 Y44.9972 
G01 X-25.2452 Y45.1728 
G01 X-25.2177 Y45.3461 
G01 X-25.1635 Y45.5131 
G01 X-25.0838 Y45.6695 
G01 X-24.9806 Y45.8115 
G01 X-24.8565 Y45.9356 
G01 X-24.7145 Y46.0388 
G01 X-24.5581 Y46.1185 
G01 X-24.3911 Y46.1727 
G01 X-24.2178 Y46.2002 
G01 X-14.2380 Y46.2002 
G01 X-14.1704 Y46.3014 
G00 Z2.5400  
G00 X-13.9121 Y49.1351 
G01 Z-0.1778 F100   
G01 X-25.5491 Y58.8325 F80    
G01 X-25.7317 Y59.0305 
G01 X-25.8870 Y59.2507 
G01 X-26.0122 Y59.4892 
G01 X-26.1052 Y59.7420 
G01 X-26.1644 Y60.0048 
G01 X-26.1888 Y60.2731 
G01 X-26.1779 Y60.5423 
G01 X-26.1320 Y60.8077 
G01 X-26.0519 Y61.0649 
G01 X-25.9389 Y61.3094 
G01 X-25.7949 Y61.5371 
G01 X-25.6225 Y61.7441 
G01 X-25.4245 Y61.9267 
G01 X-25.2452 Y62.0532 
G01 X-25.2452 Y69.3028 
G01 X-25.2177 Y69.4761 
G01 X-25.1635 Y69.6431 
G01 X-25.0838 Y69.7995 
G01 X-24.9806 Y69.9415 
G01 X-24.8565 Y70.0656 
G01 X-24.7145 Y70.1688 
G01 X-24.5581 Y70.2485 
G01 X-24.3911 Y70.3027 
G01 X-24.2178 Y70.3302 
G01 X-24.0422 Y70.3302 
G01 X-23.8689 Y70.3027 
G01 X-23.7019 Y70.2485 
G01 X-23.5455 Y70.1688 
G01 X-23.4035 Y70.0656 
G01 X-23.2794 Y69.9415 
G01 X-23.1762 Y69.7995 
G01 X-23.0965 Y69.6431 
G01 X-23.0423 Y69.4761 
G01 X-23.0148 Y69.3028 
G01 X-23.0148 Y62.0512 
G01 X-22.9179 Y61.9899 
G01 X-11.2809 Y52.2925 
G01 X-11.0983 Y52.0945 
G01 X-10.9430 Y51.8743 
G01 X-10.8178 Y51.6358 
G01 X-10.7248 Y51.3830 
G01 X-10.6656 Y51.1202 
G01 X-10.6412 Y50.8519 
G01 X-10.6521 Y50.5827 
G01 X-10.6980 Y50.3173 
G01 X-10.7781 Y50.0601 
G01 X-10.8911 Y49.8156 
G01 X-11.0351 Y49.5879 
G01 X-11.2075 Y49.3809 
G01 X-11.4055 Y49.1983 
G01 X-11.6257 Y49.0430 
G01 X-11.8642 Y48.9178 
G01 X-12.1170 Y48.8248 
G01 X-12.3798 Y48.7656 
G01 X-12.6481 Y48.7412 
G01 X-12.9173 Y48.7521 
G01 X-13.1827 Y48.7980 
G01 X-13.4399 Y48.8781 
G01 X-13.6844 Y48.9911 
G01 X-13.9121 Y49.1351 
G00 Z2.5400  
G00 X-18.7717 Y72.9605 
G01 Z-0.1778 F100   
G01 X-18.6077 Y72.7467 F80    
G01 X-18.4730 Y72.5135 
G01 X-18.3699 Y72.2646 
G01 X-18.3002 Y72.0044 
G01 X-18.2650 Y71.7373 
G01 X-18.2650 Y66.2562 
G01 X-18.1988 Y66.1900 
G01 X-12.5653 Y66.1900 
G01 X-12.2982 Y66.1548 
G01 X-12.0380 Y66.0851 
G01 X-11.7891 Y65.9820 
G01 X-11.5559 Y65.8473 
G01 X-11.3421 Y65.6833 
G01 X-11.1517 Y65.4929 
G01 X-4.8017 Y59.1429 
G01 X-4.6377 Y58.9291 
G01 X-4.5030 Y58.6959 
G01 X-4.3999 Y58.4470 
G01 X-4.3302 Y58.1868 
G01 X-4.2950 Y57.9197 
G01 X-4.2950 Y44.9503 
G01 X-4.3302 Y44.6832 
G01 X-4.3999 Y44.4230 
G01 X-4.5030 Y44.1741 
G01 X-4.6377 Y43.9409 
G01 X-4.8017 Y43.7271 
G01 X-4.9921 Y43.5367 
G01 X-9.3750 Y39.1538 
G01 X-9.3750 Y24.6303 
G01 X-9.4102 Y24.3632 
G01 X-9.4188 Y24.3309 
G01 X-8.1635 Y23.0756 
G01 X-8.0394 Y22.9515 
G01 X-7.9362 Y22.8095 
G01 X-7.8565 Y22.6531 
G01 X-7.8023 Y22.4861 
G01 X-7.7748 Y22.3128 
G01 X-7.7748 Y6.8972  
G01 X-7.8023 Y6.7239  
G01 X-7.8565 Y6.5569  
G01 X-7.9362 Y6.4005  
G01 X-8.0394 Y6.2585  
G01 X-9.3094 Y4.9885  
G01 X-9.4335 Y4.8644  
G01 X-9.5755 Y4.7612  
G01 X-9.7319 Y4.6815  
G01 X-9.8989 Y4.6273  
G01 X-10.0722 Y4.5998  
G01 X-10.3331 Y4.5998  
G01 X-10.7035 Y4.2294  
G01 X-10.8455 Y4.1262  
G01 X-11.0019 Y4.0465  
G01 X-11.1689 Y3.9923  
G01 X-11.3422 Y3.9648  
G01 X-14.1431 Y3.9648  
G01 X-14.3894 Y3.7185  
G01 X-14.5135 Y3.5944  
G01 X-14.6555 Y3.4912  
G01 X-14.8119 Y3.4115  
G01 X-14.9789 Y3.3573  
G01 X-15.1522 Y3.3298  
G01 X-19.1378 Y3.3298  
G01 X-19.3111 Y3.3573  
G01 X-19.4781 Y3.4115  
G01 X-19.6345 Y3.4912  
G01 X-19.7765 Y3.5944  
G01 X-19.9006 Y3.7185  
G01 X-20.0038 Y3.8605  
G01 X-20.0835 Y4.0169  
G01 X-20.1377 Y4.1839  
G01 X-20.1652 Y4.3572  
G01 X-20.1652 Y5.2531  
G01 X-20.7819 Y5.8698  
G01 X-27.1550 Y5.8698  
G01 X-27.1550 Y3.1023  
G01 X-27.0044 Y2.9930  
G01 X-26.8457 Y2.8342  
G01 X-26.7137 Y2.6526  
G01 X-26.6118 Y2.4525  
G01 X-26.5424 Y2.2390  
G01 X-26.5073 Y2.0173  
G01 X-26.5073 Y1.7927  
G01 X-26.5424 Y1.5710  
G01 X-26.6118 Y1.3575  
G01 X-26.7137 Y1.1574  
G01 X-26.8457 Y0.9758  
G01 X-27.0044 Y0.8170  
G01 X-27.1861 Y0.6851  
G01 X-27.3861 Y0.5832  
G01 X-27.5996 Y0.5138  
G01 X-27.7130 Y0.4958  
G01 X-27.8521 Y0.3567  
G01 X-28.0659 Y0.1927  
G01 X-28.2991 Y0.0580  
G01 X-28.4415 Y-0.0010 
G01 X-4.5785 Y-0.0010 
G01 X-4.7209 Y0.0580  
G01 X-4.9541 Y0.1927  
G01 X-5.1679 Y0.3567  
G01 X-5.3070 Y0.4958  
G01 X-5.4204 Y0.5138  
G01 X-5.6339 Y0.5832  
G01 X-5.8339 Y0.6851  
G01 X-6.0156 Y0.8170  
G01 X-6.1743 Y0.9758  
G01 X-6.3063 Y1.1574  
G01 X-6.4082 Y1.3575  
G01 X-6.4776 Y1.5710  
G01 X-6.5127 Y1.7927  
G01 X-6.5127 Y2.0173  
G01 X-6.4776 Y2.2390  
G01 X-6.4082 Y2.4525  
G01 X-6.3063 Y2.6526  
G01 X-6.1743 Y2.8342  
G01 X-6.0156 Y2.9930  
G01 X-5.8650 Y3.1023  
G01 X-5.8650 Y3.8378  
G01 X-6.4478 Y3.8378  
G01 X-6.6409 Y3.8684  
G01 X-6.8268 Y3.9288  
G01 X-7.0011 Y4.0176  
G01 X-7.1592 Y4.1325  
G01 X-7.2975 Y4.2708  
G01 X-7.4124 Y4.4289  
G01 X-7.5012 Y4.6032  
G01 X-7.5616 Y4.7891  
G01 X-7.5922 Y4.9822  
G01 X-7.5922 Y5.1778  
G01 X-7.5616 Y5.3709  
G01 X-7.5012 Y5.5568  
G01 X-7.4124 Y5.7311  
G01 X-7.2975 Y5.8892  
G01 X-7.1592 Y6.0275  
G01 X-7.0011 Y6.1424  
G01 X-6.8268 Y6.2312  
G01 X-6.6409 Y6.2916  
G01 X-6.4478 Y6.3222  
G01 X-5.8650 Y6.3222  
G01 X-5.8650 Y22.6625 
G01 X-6.4355 Y22.7100 
G01 X-6.4847 Y22.7100 
G01 X-6.5695 Y22.7212 
G01 X-6.6549 Y22.7283 
G01 X-6.7030 Y22.7387 
G01 X-6.7518 Y22.7452 
G01 X-6.8344 Y22.7673 
G01 X-6.9181 Y22.7855 
G01 X-6.9645 Y22.8022 
G01 X-7.0120 Y22.8149 
G01 X-7.0910 Y22.8476 
G01 X-7.1716 Y22.8766 
G01 X-7.2154 Y22.8991 
G01 X-7.2609 Y22.9180 
G01 X-7.3350 Y22.9608 
G01 X-7.4111 Y23.0000 
G01 X-7.4515 Y23.0281 
G01 X-7.4941 Y23.0527 
G01 X-7.5620 Y23.1048 
G01 X-7.6324 Y23.1536 
G01 X-7.6688 Y23.1867 
G01 X-7.7079 Y23.2167 
G01 X-7.7684 Y23.2772 
G01 X-7.8318 Y23.3348 
G01 X-7.8636 Y23.3724 
G01 X-7.8983 Y23.4071 
G01 X-7.9504 Y23.4750 
G01 X-8.0058 Y23.5404 
G01 X-8.0324 Y23.5818 
G01 X-8.0623 Y23.6209 
G01 X-8.1051 Y23.6950 
G01 X-8.1514 Y23.7670 
G01 X-8.1724 Y23.8115 
G01 X-8.1970 Y23.8541 
G01 X-8.2298 Y23.9332 
G01 X-8.2663 Y24.0107 
G01 X-8.2813 Y24.0576 
G01 X-8.3001 Y24.1030 
G01 X-8.3223 Y24.1857 
G01 X-8.3484 Y24.2673 
G01 X-8.3571 Y24.3157 
G01 X-8.3698 Y24.3632 
G01 X-8.3810 Y24.4480 
G01 X-8.3962 Y24.5324 
G01 X-8.3986 Y24.5815 
G01 X-8.4050 Y24.6303 
G01 X-8.4050 Y24.7159 
G01 X-8.4091 Y24.8014 
G01 X-8.4050 Y24.8505 
G01 X-8.4050 Y24.8997 
G01 X-8.3938 Y24.9845 
G01 X-8.3867 Y25.0699 
G01 X-8.3763 Y25.1180 
G01 X-8.3698 Y25.1668 
G01 X-8.3477 Y25.2494 
G01 X-8.3295 Y25.3331 
G01 X-8.3128 Y25.3795 
G01 X-8.3001 Y25.4270 
G01 X-8.2674 Y25.5060 
G01 X-8.2384 Y25.5866 
G01 X-8.2158 Y25.6304 
G01 X-8.1970 Y25.6759 
G01 X-8.1542 Y25.7500 
G01 X-8.1150 Y25.8261 
G01 X-8.0869 Y25.8665 
G01 X-8.0623 Y25.9091 
G01 X-8.0102 Y25.9770 
G01 X-7.9614 Y26.0474 
G01 X-7.9283 Y26.0838 
G01 X-7.8983 Y26.1229 
G01 X-7.8378 Y26.1834 
G01 X-7.7802 Y26.2468 
G01 X-7.7426 Y26.2786 
G01 X-6.8662 Y27.1550 
G01 X-7.7318 Y27.1550 
G01 X-7.9525 Y27.1900 
G01 X-8.1651 Y27.2590 
G01 X-8.3642 Y27.3605 
G01 X-8.5451 Y27.4919 
G01 X-8.7031 Y27.6499 
G01 X-8.8345 Y27.8308 
G01 X-8.9360 Y28.0299 
G01 X-9.0050 Y28.2425 
G01 X-9.0400 Y28.4632 
G01 X-9.0400 Y28.6868 
G01 X-9.0050 Y28.9075 
G01 X-8.9360 Y29.1201 
G01 X-8.8345 Y29.3192 
G01 X-8.7031 Y29.5001 
G01 X-8.5451 Y29.6581 
G01 X-8.3642 Y29.7895 
G01 X-8.1651 Y29.8910 
G01 X-7.9525 Y29.9600 
G01 X-7.7318 Y29.9950 
G01 X-5.2962 Y29.9950 
G01 X-5.1679 Y30.1233 
G01 X-4.9541 Y30.2873 
G01 X-4.7209 Y30.4220 
G01 X-4.5950 Y30.4742 
G01 X-4.5950 Y35.3438 
G01 X-6.6283 Y37.3771 
G01 X-6.7923 Y37.5909 
G01 X-6.9270 Y37.8241 
G01 X-7.0301 Y38.0730 
G01 X-7.0998 Y38.3332 
G01 X-7.1350 Y38.6003 
G01 X-7.1350 Y40.1397 
G01 X-7.0998 Y40.4068 
G01 X-7.0301 Y40.6670 
G01 X-6.9270 Y40.9159 
G01 X-6.7923 Y41.1491 
G01 X-6.6283 Y41.3629 
G01 X-6.4379 Y41.5533 
G01 X-6.2241 Y41.7173 
G01 X-5.9909 Y41.8520 
G01 X-5.7420 Y41.9551 
G01 X-5.4818 Y42.0248 
G01 X-5.2147 Y42.0600 
G01 X-4.9453 Y42.0600 
G01 X-4.6782 Y42.0248 
G01 X-4.4180 Y41.9551 
G01 X-4.1691 Y41.8520 
G01 X-3.9359 Y41.7173 
G01 X-3.7221 Y41.5533 
G01 X-3.5317 Y41.3629 
G01 X-3.3677 Y41.1491 
G01 X-3.2330 Y40.9159 
G01 X-3.1299 Y40.6670 
G01 X-3.0602 Y40.4068 
G01 X-3.0250 Y40.1397 
G01 X-3.0250 Y39.5862 
G01 X-1.1821 Y37.7433 
G01 X-0.9917 Y37.5529 
G01 X-0.8277 Y37.3391 
G01 X-0.6930 Y37.1059 
G01 X-0.5899 Y36.8570 
G01 X-0.5202 Y36.5968 
G01 X-0.4850 Y36.3297 
G01 X-0.4850 Y28.4403 
G01 X-0.5202 Y28.1732 
G01 X-0.5899 Y27.9130 
G01 X-0.6930 Y27.6641 
G01 X-0.8277 Y27.4309 
G01 X-0.9917 Y27.2171 
G01 X-1.1821 Y27.0267 
G01 X-1.6267 Y26.5821 
G01 X-1.8171 Y26.3917 
G01 X-2.0582 Y26.1506 
G01 X-2.0393 Y26.1379 
G01 X-2.0299 Y26.1296 
G01 X-2.0196 Y26.1224 
G01 X-1.9292 Y26.0403 
G01 X-1.8378 Y25.9592 
G01 X-1.8296 Y25.9497 
G01 X-1.8202 Y25.9412 
G01 X-1.7414 Y25.8480 
G01 X-1.6613 Y25.7557 
G01 X-1.6544 Y25.7452 
G01 X-1.6462 Y25.7356 
G01 X-1.5802 Y25.6329 
G01 X-1.5129 Y25.5309 
G01 X-1.5074 Y25.5196 
G01 X-1.5006 Y25.5090 
G01 X-1.4485 Y25.3985 
G01 X-1.3951 Y25.2886 
G01 X-1.3911 Y25.2767 
G01 X-1.3857 Y25.2653 
G01 X-1.3485 Y25.1489 
G01 X-1.3099 Y25.0331 
G01 X-1.3075 Y25.0207 
G01 X-1.3036 Y25.0087 
G01 X-1.2819 Y24.8884 
G01 X-1.2588 Y24.7686 
G01 X-1.2580 Y24.7560 
G01 X-1.2558 Y24.7436 
G01 X-1.2499 Y24.6215 
G01 X-1.2426 Y24.4997 
G01 X-1.2435 Y24.4871 
G01 X-1.2429 Y24.4746 
G01 X-1.2531 Y24.3528 
G01 X-1.2617 Y24.2310 
G01 X-1.2642 Y24.2187 
G01 X-1.2653 Y24.2061 
G01 X-1.2913 Y24.0867 
G01 X-1.3157 Y23.9671 
G01 X-1.3198 Y23.9552 
G01 X-1.3225 Y23.9429 
G01 X-1.3638 Y23.8278 
G01 X-1.4037 Y23.7124 
G01 X-1.4093 Y23.7012 
G01 X-1.4136 Y23.6894 
G01 X-1.4696 Y23.5807 
G01 X-1.7550 Y23.0099 
G01 X-1.7550 Y3.1023  
G01 X-1.6044 Y2.9930  
G01 X-1.4457 Y2.8342  
G01 X-1.3137 Y2.6526  
G01 X-1.2118 Y2.4525  
G01 X-1.1424 Y2.2390  
G01 X-1.1073 Y2.0173  
G01 X-1.1073 Y1.7927  
G01 X-1.1424 Y1.5710  
G01 X-1.2118 Y1.3575  
G01 X-1.3137 Y1.1574  
G01 X-1.4457 Y0.9758  
G01 X-1.6044 Y0.8170  
G01 X-1.7861 Y0.6851  
G01 X-1.9861 Y0.5832  
G01 X-2.1996 Y0.5138  
G01 X-2.3130 Y0.4958  
G01 X-2.4521 Y0.3567  
G01 X-2.6659 Y0.1927  
G01 X-2.8991 Y0.0580  
G01 X-3.0415 Y-0.0010 
G01 X1.1017  Y-0.0010 
G01 X1.1017  Y76.2010 
G01 X-22.0915 Y76.2010 
G01 X-21.9491 Y76.1420 
G01 X-21.7159 Y76.0073 
G01 X-21.5021 Y75.8433 
G01 X-21.3117 Y75.6529 
G01 X-21.1477 Y75.4391 
G01 X-21.0130 Y75.2059 
G01 X-21.0101 Y75.1989 
G01 X-19.4829 Y73.6717 
G01 X-18.7717 Y72.9605 
G00 Z2.5400  
G00 X-20.2014 Y0.4787  
G01 Z-0.1778 F100   
G01 X-22.9786 Y0.4787  F80    
G01 X-23.2004 Y0.5138  
G01 X-23.4139 Y0.5832  
G01 X-23.6139 Y0.6851  
G01 X-23.7956 Y0.8170  
G01 X-23.9543 Y0.9758  
G01 X-24.0863 Y1.1574  
G01 X-24.1882 Y1.3575  
G01 X-24.2576 Y1.5710  
G01 X-24.2927 Y1.7927  
G01 X-24.2927 Y2.0173  
G01 X-24.2576 Y2.2390  
G01 X-24.1882 Y2.4525  
G01 X-24.0863 Y2.6526  
G01 X-23.9543 Y2.8342  
G01 X-23.7956 Y2.9930  
G01 X-23.6139 Y3.1249  
G01 X-23.4139 Y3.2268  
G01 X-23.2004 Y3.2962  
G01 X-22.9786 Y3.3313  
G01 X-22.7052 Y3.3313  
G01 X-22.7052 Y4.5328  
G01 X-22.6777 Y4.7061  
G01 X-22.6235 Y4.8731  
G01 X-22.5438 Y5.0295  
G01 X-22.4406 Y5.1715  
G01 X-22.3165 Y5.2956  
G01 X-22.1745 Y5.3988  
G01 X-22.0181 Y5.4785  
G01 X-21.8511 Y5.5327  
G01 X-21.6778 Y5.5602  
G01 X-21.5022 Y5.5602  
G01 X-21.3289 Y5.5327  
G01 X-21.1619 Y5.4785  
G01 X-21.0055 Y5.3988  
G01 X-20.8635 Y5.2956  
G01 X-20.7394 Y5.1715  
G01 X-20.6362 Y5.0295  
G01 X-20.5565 Y4.8731  
G01 X-20.5023 Y4.7061  
G01 X-20.4748 Y4.5328  
G01 X-20.4748 Y3.3313  
G01 X-20.2014 Y3.3313  
G01 X-19.9796 Y3.2962  
G01 X-19.7661 Y3.2268  
G01 X-19.5661 Y3.1249  
G01 X-19.4219 Y3.0202  
G01 X-16.4222 Y3.0202  
G01 X-16.2489 Y2.9927  
G01 X-16.0819 Y2.9385  
G01 X-15.9255 Y2.8588  
G01 X-15.7835 Y2.7556  
G01 X-15.6594 Y2.6315  
G01 X-15.5562 Y2.4895  
G01 X-15.4765 Y2.3331  
G01 X-15.4223 Y2.1661  
G01 X-15.3948 Y1.9928  
G01 X-15.3948 Y1.8172  
G01 X-15.4223 Y1.6439  
G01 X-15.4765 Y1.4769  
G01 X-15.5562 Y1.3205  
G01 X-15.6594 Y1.1785  
G01 X-15.7835 Y1.0544  
G01 X-15.9255 Y0.9512  
G01 X-16.0819 Y0.8715  
G01 X-16.2489 Y0.8173  
G01 X-16.4222 Y0.7898  
G01 X-19.4219 Y0.7898  
G01 X-19.5661 Y0.6851  
G01 X-19.7661 Y0.5832  
G01 X-19.9796 Y0.5138  
G01 X-20.2014 Y0.4787  
G00 Z2.5400  
G00 X-17.1898 Y41.0530 
G01 Z-0.1778 F100   
G01 X-17.1311 Y40.9513 F80    
G01 X-17.0240 Y40.6927 
G01 X-16.9515 Y40.4224 
G01 X-16.9150 Y40.1449 
G01 X-16.9150 Y39.8651 
G01 X-16.9515 Y39.5876 
G01 X-17.0240 Y39.3173 
G01 X-17.1311 Y39.0587 
G01 X-17.2710 Y38.8163 
G01 X-17.4414 Y38.5943 
G01 X-17.6393 Y38.3964 
G01 X-17.8613 Y38.2260 
G01 X-18.1037 Y38.0861 
G01 X-18.3623 Y37.9790 
G01 X-18.6326 Y37.9065 
G01 X-18.9101 Y37.8700 
G01 X-27.0750 Y37.8700 
G01 X-27.0750 Y8.1802  
G01 X-21.5152 Y8.1802  
G01 X-21.5152 Y13.4291 
G01 X-21.4858 Y13.6149 
G01 X-21.4276 Y13.7938 
G01 X-21.3422 Y13.9614 
G01 X-21.2316 Y14.1136 
G01 X-19.9275 Y15.4177 
G01 X-19.9062 Y15.5251 
G01 X-19.8391 Y15.6872 
G01 X-19.7416 Y15.8330 
G01 X-19.6176 Y15.9570 
G01 X-19.4718 Y16.0545 
G01 X-19.3097 Y16.1216 
G01 X-19.1377 Y16.1558 
G01 X-18.9623 Y16.1558 
G01 X-18.7903 Y16.1216 
G01 X-18.6282 Y16.0545 
G01 X-18.4824 Y15.9570 
G01 X-18.3584 Y15.8330 
G01 X-18.2609 Y15.6872 
G01 X-18.1938 Y15.5251 
G01 X-18.1725 Y15.4177 
G01 X-18.1384 Y15.3836 
G01 X-18.0278 Y15.2314 
G01 X-17.9424 Y15.0638 
G01 X-17.8842 Y14.8849 
G01 X-17.8548 Y14.6991 
G01 X-17.8548 Y14.5109 
G01 X-17.8842 Y14.3251 
G01 X-17.9424 Y14.1462 
G01 X-18.0278 Y13.9786 
G01 X-18.1384 Y13.8264 
G01 X-18.1725 Y13.7923 
G01 X-18.1938 Y13.6849 
G01 X-18.2609 Y13.5228 
G01 X-18.3584 Y13.3770 
G01 X-18.4824 Y13.2530 
G01 X-18.6282 Y13.1555 
G01 X-18.7903 Y13.0884 
G01 X-18.8977 Y13.0671 
G01 X-19.1248 Y12.8399 
G01 X-19.1248 Y7.4801  
G01 X-18.1384 Y6.4936  
G01 X-18.0278 Y6.3414  
G01 X-17.9424 Y6.1738  
G01 X-17.8842 Y5.9949  
G01 X-17.8548 Y5.8091  
G01 X-17.8548 Y5.6402  
G01 X-15.7351 Y5.6402  
G01 X-15.3836 Y5.9916  
G01 X-15.2314 Y6.1022  
G01 X-15.0638 Y6.1876  
G01 X-14.8849 Y6.2458  
G01 X-14.6991 Y6.2752  
G01 X-11.9251 Y6.2752  
G01 X-11.5736 Y6.6266  
G01 X-11.4214 Y6.7372  
G01 X-11.2538 Y6.8226  
G01 X-11.0749 Y6.8808  
G01 X-10.8891 Y6.9102  
G01 X-10.6551 Y6.9102  
G01 X-10.0852 Y7.4801  
G01 X-10.0852 Y21.7299 
G01 X-11.0207 Y22.6655 
G01 X-11.2901 Y22.6300 
G01 X-11.5699 Y22.6300 
G01 X-11.8474 Y22.6665 
G01 X-12.1177 Y22.7390 
G01 X-12.3763 Y22.8461 
G01 X-12.6187 Y22.9860 
G01 X-12.8407 Y23.1564 
G01 X-13.0386 Y23.3543 
G01 X-13.2090 Y23.5763 
G01 X-13.3489 Y23.8187 
G01 X-13.4560 Y24.0773 
G01 X-13.5285 Y24.3476 
G01 X-13.5650 Y24.6251 
G01 X-13.5650 Y39.6108 
G01 X-13.5904 Y39.6362 
G01 X-13.5904 Y40.3738 
G01 X-13.5236 Y40.4406 
G01 X-13.4560 Y40.6927 
G01 X-13.3489 Y40.9513 
G01 X-13.2090 Y41.1937 
G01 X-13.0892 Y41.3498 
G01 X-17.0413 Y41.3498 
G01 X-17.1898 Y41.0530 
G00 Z2.5400  
G00 X-17.8220 Y29.9016 
G01 Z-0.1778 F100   
G01 X-17.6980 Y29.7776 F80    
G01 X-17.6005 Y29.6318 
G01 X-17.5334 Y29.4697 
G01 X-17.4992 Y29.2977 
G01 X-17.4992 Y29.1223 
G01 X-17.5334 Y28.9503 
G01 X-17.6005 Y28.7882 
G01 X-17.6980 Y28.6424 
G01 X-17.8220 Y28.5184 
G01 X-17.9678 Y28.4209 
G01 X-18.1299 Y28.3538 
G01 X-18.2373 Y28.3325 
G01 X-18.2714 Y28.2984 
G01 X-18.4236 Y28.1878 
G01 X-18.5912 Y28.1024 
G01 X-18.7701 Y28.0442 
G01 X-18.9559 Y28.0148 
G01 X-19.1441 Y28.0148 
G01 X-19.3299 Y28.0442 
G01 X-19.5088 Y28.1024 
G01 X-19.6764 Y28.1878 
G01 X-19.8286 Y28.2984 
G01 X-19.8627 Y28.3325 
G01 X-19.9701 Y28.3538 
G01 X-20.1322 Y28.4209 
G01 X-20.2780 Y28.5184 
G01 X-20.4020 Y28.6424 
G01 X-20.4995 Y28.7882 
G01 X-20.5666 Y28.9503 
G01 X-20.6008 Y29.1223 
G01 X-20.6008 Y29.2848 
G01 X-21.6841 Y29.2848 
G01 X-21.8699 Y29.3142 
G01 X-22.0488 Y29.3724 
G01 X-22.2164 Y29.4578 
G01 X-22.3686 Y29.5684 
G01 X-22.5016 Y29.7014 
G01 X-22.6122 Y29.8536 
G01 X-22.6976 Y30.0212 
G01 X-22.7558 Y30.2001 
G01 X-22.7852 Y30.3859 
G01 X-22.7852 Y30.5741 
G01 X-22.7558 Y30.7599 
G01 X-22.6976 Y30.9388 
G01 X-22.6122 Y31.1064 
G01 X-22.5016 Y31.2586 
G01 X-22.3686 Y31.3916 
G01 X-22.2164 Y31.5022 
G01 X-22.0488 Y31.5876 
G01 X-21.8699 Y31.6458 
G01 X-21.6841 Y31.6752 
G01 X-20.4070 Y31.6752 
G01 X-20.4020 Y31.6826 
G01 X-20.2780 Y31.8066 
G01 X-20.1322 Y31.9041 
G01 X-19.9701 Y31.9712 
G01 X-19.8627 Y31.9925 
G01 X-19.8286 Y32.0266 
G01 X-19.6764 Y32.1372 
G01 X-19.5088 Y32.2226 
G01 X-19.3299 Y32.2808 
G01 X-19.1441 Y32.3102 
G01 X-18.9559 Y32.3102 
G01 X-18.7701 Y32.2808 
G01 X-18.5912 Y32.2226 
G01 X-18.4236 Y32.1372 
G01 X-18.2714 Y32.0266 
G01 X-18.2373 Y31.9925 
G01 X-18.1299 Y31.9712 
G01 X-17.9678 Y31.9041 
G01 X-17.8220 Y31.8066 
G01 X-17.6980 Y31.6826 
G01 X-17.6201 Y31.5661 
G01 X-17.6176 Y31.5738 
G01 X-17.5322 Y31.7414 
G01 X-17.4216 Y31.8936 
G01 X-17.2886 Y32.0266 
G01 X-17.1364 Y32.1372 
G01 X-16.9688 Y32.2226 
G01 X-16.7899 Y32.2808 
G01 X-16.6041 Y32.3102 
G01 X-16.4159 Y32.3102 
G01 X-16.2301 Y32.2808 
G01 X-16.0512 Y32.2226 
G01 X-15.8836 Y32.1372 
G01 X-15.7314 Y32.0266 
G01 X-14.3284 Y30.6236 
G01 X-14.2178 Y30.4714 
G01 X-14.1324 Y30.3038 
G01 X-14.0742 Y30.1249 
G01 X-14.0448 Y29.9391 
G01 X-14.0448 Y28.4809 
G01 X-14.0742 Y28.2951 
G01 X-14.1324 Y28.1162 
G01 X-14.2178 Y27.9486 
G01 X-14.3284 Y27.7964 
G01 X-14.4614 Y27.6634 
G01 X-16.3664 Y25.7584 
G01 X-16.5186 Y25.6478 
G01 X-16.6862 Y25.5624 
G01 X-16.8651 Y25.5042 
G01 X-17.0509 Y25.4748 
G01 X-19.1441 Y25.4748 
G01 X-19.3299 Y25.5042 
G01 X-19.5088 Y25.5624 
G01 X-19.6764 Y25.6478 
G01 X-19.8286 Y25.7584 
G01 X-19.8627 Y25.7925 
G01 X-19.9701 Y25.8138 
G01 X-20.1322 Y25.8809 
G01 X-20.2780 Y25.9784 
G01 X-20.4020 Y26.1024 
G01 X-20.4995 Y26.2482 
G01 X-20.5666 Y26.4103 
G01 X-20.6008 Y26.5823 
G01 X-20.6008 Y26.7577 
G01 X-20.5666 Y26.9297 
G01 X-20.4995 Y27.0918 
G01 X-20.4020 Y27.2376 
G01 X-20.2780 Y27.3616 
G01 X-20.1322 Y27.4591 
G01 X-19.9701 Y27.5262 
G01 X-19.8627 Y27.5475 
G01 X-19.8286 Y27.5816 
G01 X-19.6764 Y27.6922 
G01 X-19.5088 Y27.7776 
G01 X-19.3299 Y27.8358 
G01 X-19.1441 Y27.8652 
G01 X-17.6401 Y27.8652 
G01 X-16.4352 Y29.0701 
G01 X-16.4352 Y29.3499 
G01 X-17.4216 Y30.3364 
G01 X-17.5322 Y30.4886 
G01 X-17.6176 Y30.6562 
G01 X-17.6201 Y30.6639 
G01 X-17.6980 Y30.5474 
G01 X-17.8220 Y30.4234 
G01 X-17.8548 Y30.4015 
G01 X-17.8548 Y29.9235 
G01 X-17.8220 Y29.9016 
G00 Z2.5400  
G00 X-17.8541 Y20.8700 
G01 Z-0.1778 F100   
G01 X-17.8548 Y20.8655 F80    
G01 X-17.8548 Y20.8609 
G01 X-17.8688 Y20.7726 
G01 X-17.8821 Y20.6840 
G01 X-17.8835 Y20.6796 
G01 X-17.8842 Y20.6751 
G01 X-17.9118 Y20.5903 
G01 X-17.9389 Y20.5046 
G01 X-17.9410 Y20.5005 
G01 X-17.9424 Y20.4962 
G01 X-17.9829 Y20.4166 
G01 X-20.5630 Y15.2564 
G01 X-20.6725 Y15.1033 
G01 X-20.8045 Y14.9693 
G01 X-20.9558 Y14.8576 
G01 X-21.1228 Y14.7709 
G01 X-21.3013 Y14.7114 
G01 X-21.4869 Y14.6806 
G01 X-21.6750 Y14.6791 
G01 X-21.8610 Y14.7071 
G01 X-22.0404 Y14.7639 
G01 X-22.2086 Y14.8480 
G01 X-22.3617 Y14.9575 
G01 X-22.4957 Y15.0895 
G01 X-22.6074 Y15.2408 
G01 X-22.6941 Y15.4078 
G01 X-22.7536 Y15.5863 
G01 X-22.7844 Y15.7719 
G01 X-22.7859 Y15.9600 
G01 X-22.7579 Y16.1460 
G01 X-22.7011 Y16.3254 
G01 X-20.2452 Y21.2371 
G01 X-20.2452 Y22.9348 
G01 X-22.3191 Y22.9348 
G01 X-22.5049 Y22.9642 
G01 X-22.6838 Y23.0224 
G01 X-22.8514 Y23.1078 
G01 X-23.0036 Y23.2184 
G01 X-25.0416 Y25.2564 
G01 X-25.1522 Y25.4086 
G01 X-25.2376 Y25.5762 
G01 X-25.2958 Y25.7551 
G01 X-25.3252 Y25.9409 
G01 X-25.3252 Y26.1291 
G01 X-25.2958 Y26.3149 
G01 X-25.2376 Y26.4938 
G01 X-25.1522 Y26.6614 
G01 X-25.0416 Y26.8136 
G01 X-24.9086 Y26.9466 
G01 X-24.7564 Y27.0572 
G01 X-24.5888 Y27.1426 
G01 X-24.4099 Y27.2008 
G01 X-24.2241 Y27.2302 
G01 X-24.0359 Y27.2302 
G01 X-23.8501 Y27.2008 
G01 X-23.6712 Y27.1426 
G01 X-23.5036 Y27.0572 
G01 X-23.3514 Y26.9466 
G01 X-21.7299 Y25.3252 
G01 X-18.9559 Y25.3252 
G01 X-18.7701 Y25.2958 
G01 X-18.5912 Y25.2376 
G01 X-18.4236 Y25.1522 
G01 X-18.2714 Y25.0416 
G01 X-18.2373 Y25.0075 
G01 X-18.1299 Y24.9862 
G01 X-17.9678 Y24.9191 
G01 X-17.8220 Y24.8216 
G01 X-17.6980 Y24.6976 
G01 X-17.6005 Y24.5518 
G01 X-17.5334 Y24.3897 
G01 X-17.4992 Y24.2177 
G01 X-17.4992 Y24.0423 
G01 X-17.5334 Y23.8703 
G01 X-17.6005 Y23.7082 
G01 X-17.6980 Y23.5624 
G01 X-17.8220 Y23.4384 
G01 X-17.8548 Y23.4165 
G01 X-17.8548 Y20.9593 
G01 X-17.8541 Y20.8700 
G00 Z2.5400  
G00 X-13.2784 Y19.7270 
G01 Z-0.1778 F100   
G01 X-13.4024 Y19.6030 F80    
G01 X-13.5482 Y19.5055 
G01 X-13.7103 Y19.4384 
G01 X-13.8823 Y19.4042 
G01 X-14.0577 Y19.4042 
G01 X-14.2297 Y19.4384 
G01 X-14.3918 Y19.5055 
G01 X-14.5376 Y19.6030 
G01 X-14.6616 Y19.7270 
G01 X-14.7591 Y19.8728 
G01 X-14.8262 Y20.0349 
G01 X-14.8475 Y20.1423 
G01 X-14.8816 Y20.1764 
G01 X-14.9922 Y20.3286 
G01 X-15.0776 Y20.4962 
G01 X-15.1358 Y20.6751 
G01 X-15.1652 Y20.8609 
G01 X-15.1652 Y21.0491 
G01 X-15.1358 Y21.2349 
G01 X-15.0776 Y21.4138 
G01 X-14.9922 Y21.5814 
G01 X-14.8816 Y21.7336 
G01 X-14.8475 Y21.7677 
G01 X-14.8262 Y21.8751 
G01 X-14.7591 Y22.0372 
G01 X-14.6616 Y22.1830 
G01 X-14.5376 Y22.3070 
G01 X-14.3918 Y22.4045 
G01 X-14.2297 Y22.4716 
G01 X-14.0577 Y22.5058 
G01 X-13.8823 Y22.5058 
G01 X-13.7103 Y22.4716 
G01 X-13.5482 Y22.4045 
G01 X-13.4024 Y22.3070 
G01 X-13.2784 Y22.1830 
G01 X-13.2565 Y22.1502 
G01 X-11.3359 Y22.1502 
G01 X-11.1501 Y22.1208 
G01 X-10.9712 Y22.0626 
G01 X-10.8036 Y21.9772 
G01 X-10.6514 Y21.8666 
G01 X-10.5184 Y21.7336 
G01 X-10.4078 Y21.5814 
G01 X-10.3224 Y21.4138 
G01 X-10.2642 Y21.2349 
G01 X-10.2348 Y21.0491 
G01 X-10.2348 Y20.8609 
G01 X-10.2642 Y20.6751 
G01 X-10.3224 Y20.4962 
G01 X-10.4078 Y20.3286 
G01 X-10.5184 Y20.1764 
G01 X-10.6514 Y20.0434 
G01 X-10.8036 Y19.9328 
G01 X-10.9712 Y19.8474 
G01 X-11.1501 Y19.7892 
G01 X-11.3359 Y19.7598 
G01 X-13.2565 Y19.7598 
G01 X-13.2784 Y19.7270 
G00 Z2.5400  
G00 X-18.1299 Y37.0512 
G01 Z-0.1778 F100   
G01 X-17.9678 Y36.9841 F80    
G01 X-17.8220 Y36.8866 
G01 X-17.6980 Y36.7626 
G01 X-17.6005 Y36.6168 
G01 X-17.5334 Y36.4547 
G01 X-17.4992 Y36.2827 
G01 X-17.4992 Y36.1073 
G01 X-17.5334 Y35.9353 
G01 X-17.6005 Y35.7732 
G01 X-17.6980 Y35.6274 
G01 X-17.8220 Y35.5034 
G01 X-17.9678 Y35.4059 
G01 X-18.1299 Y35.3388 
G01 X-18.2373 Y35.3175 
G01 X-18.2714 Y35.2834 
G01 X-18.4236 Y35.1728 
G01 X-18.5912 Y35.0874 
G01 X-18.7701 Y35.0292 
G01 X-18.9559 Y34.9998 
G01 X-21.6841 Y34.9998 
G01 X-21.8699 Y35.0292 
G01 X-22.0488 Y35.0874 
G01 X-22.2164 Y35.1728 
G01 X-22.3686 Y35.2834 
G01 X-22.5016 Y35.4164 
G01 X-22.6122 Y35.5686 
G01 X-22.6976 Y35.7362 
G01 X-22.7558 Y35.9151 
G01 X-22.7852 Y36.1009 
G01 X-22.7852 Y36.2891 
G01 X-22.7558 Y36.4749 
G01 X-22.6976 Y36.6538 
G01 X-22.6122 Y36.8214 
G01 X-22.5016 Y36.9736 
G01 X-22.3686 Y37.1066 
G01 X-22.2164 Y37.2172 
G01 X-22.0488 Y37.3026 
G01 X-21.8699 Y37.3608 
G01 X-21.6841 Y37.3902 
G01 X-18.9559 Y37.3902 
G01 X-18.7701 Y37.3608 
G01 X-18.5912 Y37.3026 
G01 X-18.4236 Y37.2172 
G01 X-18.2714 Y37.1066 
G01 X-18.2373 Y37.0725 
G01 X-18.1299 Y37.0512 
G00 Z2.5400  
G00 X-16.5512 Y35.4639 
G01 Z-0.1778 F100   
G01 X-16.6823 Y35.5950 F80    
G01 X-16.7853 Y35.7492 
G01 X-16.8562 Y35.9205 
G01 X-16.8924 Y36.1023 
G01 X-16.8924 Y36.2877 
G01 X-16.8562 Y36.4695 
G01 X-16.7853 Y36.6408 
G01 X-16.6823 Y36.7950 
G01 X-16.5512 Y36.9261 
G01 X-16.4352 Y37.0036 
G01 X-16.4352 Y40.0991 
G01 X-16.4058 Y40.2849 
G01 X-16.3476 Y40.4638 
G01 X-16.2622 Y40.6314 
G01 X-16.1516 Y40.7836 
G01 X-16.0186 Y40.9166 
G01 X-15.8664 Y41.0272 
G01 X-15.6988 Y41.1126 
G01 X-15.5199 Y41.1708 
G01 X-15.3341 Y41.2002 
G01 X-15.1459 Y41.2002 
G01 X-14.9601 Y41.1708 
G01 X-14.7812 Y41.1126 
G01 X-14.6136 Y41.0272 
G01 X-14.4614 Y40.9166 
G01 X-14.3284 Y40.7836 
G01 X-14.2178 Y40.6314 
G01 X-14.1324 Y40.4638 
G01 X-14.0742 Y40.2849 
G01 X-14.0448 Y40.0991 
G01 X-14.0448 Y37.0036 
G01 X-13.9288 Y36.9261 
G01 X-13.7977 Y36.7950 
G01 X-13.6947 Y36.6408 
G01 X-13.6238 Y36.4695 
G01 X-13.5876 Y36.2877 
G01 X-13.5876 Y36.1023 
G01 X-13.6238 Y35.9205 
G01 X-13.6947 Y35.7492 
G01 X-13.7977 Y35.5950 
G01 X-13.9288 Y35.4639 
G01 X-14.0448 Y35.3864 
G01 X-14.0448 Y33.5609 
G01 X-14.0742 Y33.3751 
G01 X-14.1324 Y33.1962 
G01 X-14.2178 Y33.0286 
G01 X-14.3284 Y32.8764 
G01 X-14.4614 Y32.7434 
G01 X-14.6136 Y32.6328 
G01 X-14.7812 Y32.5474 
G01 X-14.9601 Y32.4892 
G01 X-15.1459 Y32.4598 
G01 X-19.1441 Y32.4598 
G01 X-19.3299 Y32.4892 
G01 X-19.5088 Y32.5474 
G01 X-19.6764 Y32.6328 
G01 X-19.8286 Y32.7434 
G01 X-19.8627 Y32.7775 
G01 X-19.9701 Y32.7988 
G01 X-20.1322 Y32.8659 
G01 X-20.2780 Y32.9634 
G01 X-20.4020 Y33.0874 
G01 X-20.4995 Y33.2332 
G01 X-20.5666 Y33.3953 
G01 X-20.6008 Y33.5673 
G01 X-20.6008 Y33.7427 
G01 X-20.5666 Y33.9147 
G01 X-20.4995 Y34.0768 
G01 X-20.4020 Y34.2226 
G01 X-20.2780 Y34.3466 
G01 X-20.1322 Y34.4441 
G01 X-19.9701 Y34.5112 
G01 X-19.8627 Y34.5325 
G01 X-19.8286 Y34.5666 
G01 X-19.6764 Y34.6772 
G01 X-19.5088 Y34.7626 
G01 X-19.3299 Y34.8208 
G01 X-19.1441 Y34.8502 
G01 X-16.4352 Y34.8502 
G01 X-16.4352 Y35.3864 
G01 X-16.5512 Y35.4639 
G00 Z2.5400  
G00 X-11.3359 Y8.3298  
G01 Z-0.1778 F100   
G01 X-15.3148 Y8.3298  F80    
G01 X-15.3148 Y6.8909  
G01 X-15.3442 Y6.7051  
G01 X-15.4024 Y6.5262  
G01 X-15.4878 Y6.3586  
G01 X-15.5984 Y6.2064  
G01 X-15.7314 Y6.0734  
G01 X-15.8836 Y5.9628  
G01 X-16.0512 Y5.8774  
G01 X-16.2301 Y5.8192  
G01 X-16.4159 Y5.7898  
G01 X-16.6041 Y5.7898  
G01 X-16.7899 Y5.8192  
G01 X-16.9688 Y5.8774  
G01 X-17.1364 Y5.9628  
G01 X-17.2886 Y6.0734  
G01 X-17.4216 Y6.2064  
G01 X-17.5322 Y6.3586  
G01 X-17.6176 Y6.5262  
G01 X-17.6758 Y6.7051  
G01 X-17.7052 Y6.8909  
G01 X-17.7052 Y14.6991 
G01 X-17.6758 Y14.8849 
G01 X-17.6176 Y15.0638 
G01 X-17.5322 Y15.2314 
G01 X-17.4216 Y15.3836 
G01 X-17.3875 Y15.4177 
G01 X-17.3662 Y15.5251 
G01 X-17.2991 Y15.6872 
G01 X-17.2016 Y15.8330 
G01 X-17.0776 Y15.9570 
G01 X-16.9318 Y16.0545 
G01 X-16.7905 Y16.1130 
G01 X-16.9200 Y16.1551 
G01 X-17.0699 Y16.2314 
G01 X-17.2059 Y16.3302 
G01 X-17.3248 Y16.4491 
G01 X-17.4236 Y16.5851 
G01 X-17.4999 Y16.7350 
G01 X-17.5519 Y16.8949 
G01 X-17.5782 Y17.0609 
G01 X-17.5782 Y21.0391 
G01 X-17.5519 Y21.2051 
G01 X-17.4999 Y21.3650 
G01 X-17.4236 Y21.5149 
G01 X-17.4004 Y21.5468 
G01 X-17.4004 Y21.7031 
G01 X-17.3662 Y21.8751 
G01 X-17.2991 Y22.0372 
G01 X-17.2016 Y22.1830 
G01 X-17.0776 Y22.3070 
G01 X-16.9318 Y22.4045 
G01 X-16.7697 Y22.4716 
G01 X-16.5977 Y22.5058 
G01 X-16.4223 Y22.5058 
G01 X-16.2503 Y22.4716 
G01 X-16.0882 Y22.4045 
G01 X-15.9424 Y22.3070 
G01 X-15.8184 Y22.1830 
G01 X-15.7209 Y22.0372 
G01 X-15.6538 Y21.8751 
G01 X-15.6196 Y21.7031 
G01 X-15.6196 Y21.5468 
G01 X-15.5964 Y21.5149 
G01 X-15.5201 Y21.3650 
G01 X-15.4681 Y21.2051 
G01 X-15.4418 Y21.0391 
G01 X-15.4418 Y18.2132 
G01 X-13.8859 Y18.2132 
G01 X-13.7199 Y18.1869 
G01 X-13.5600 Y18.1349 
G01 X-13.4101 Y18.0586 
G01 X-13.2741 Y17.9598 
G01 X-13.1552 Y17.8409 
G01 X-13.0564 Y17.7049 
G01 X-12.9801 Y17.5550 
G01 X-12.9281 Y17.3951 
G01 X-12.9018 Y17.2291 
G01 X-12.9018 Y15.8002 
G01 X-11.3359 Y15.8002 
G01 X-11.1501 Y15.7708 
G01 X-10.9712 Y15.7126 
G01 X-10.8036 Y15.6272 
G01 X-10.6514 Y15.5166 
G01 X-10.5184 Y15.3836 
G01 X-10.4078 Y15.2314 
G01 X-10.3224 Y15.0638 
G01 X-10.2642 Y14.8849 
G01 X-10.2348 Y14.6991 
G01 X-10.2348 Y14.5109 
G01 X-10.2642 Y14.3251 
G01 X-10.3224 Y14.1462 
G01 X-10.4078 Y13.9786 
G01 X-10.5184 Y13.8264 
G01 X-10.6514 Y13.6934 
G01 X-10.8036 Y13.5828 
G01 X-10.9712 Y13.4974 
G01 X-11.1501 Y13.4392 
G01 X-11.3359 Y13.4098 
G01 X-13.2565 Y13.4098 
G01 X-13.2784 Y13.3770 
G01 X-13.4024 Y13.2530 
G01 X-13.5482 Y13.1555 
G01 X-13.7103 Y13.0884 
G01 X-13.8823 Y13.0542 
G01 X-14.0577 Y13.0542 
G01 X-14.2297 Y13.0884 
G01 X-14.3918 Y13.1555 
G01 X-14.5376 Y13.2530 
G01 X-14.6616 Y13.3770 
G01 X-14.7591 Y13.5228 
G01 X-14.8262 Y13.6849 
G01 X-14.8475 Y13.7923 
G01 X-14.8816 Y13.8264 
G01 X-14.9922 Y13.9786 
G01 X-15.0776 Y14.1462 
G01 X-15.1358 Y14.3251 
G01 X-15.1652 Y14.5109 
G01 X-15.1652 Y14.6991 
G01 X-15.1358 Y14.8849 
G01 X-15.0776 Y15.0638 
G01 X-15.0382 Y15.1412 
G01 X-15.0382 Y16.0768 
G01 X-16.1422 Y16.0768 
G01 X-16.0882 Y16.0545 
G01 X-15.9424 Y15.9570 
G01 X-15.8184 Y15.8330 
G01 X-15.7209 Y15.6872 
G01 X-15.6538 Y15.5251 
G01 X-15.6325 Y15.4177 
G01 X-15.5984 Y15.3836 
G01 X-15.4878 Y15.2314 
G01 X-15.4024 Y15.0638 
G01 X-15.3442 Y14.8849 
G01 X-15.3148 Y14.6991 
G01 X-15.3148 Y10.7202 
G01 X-11.3359 Y10.7202 
G01 X-11.1501 Y10.6908 
G01 X-10.9712 Y10.6326 
G01 X-10.8036 Y10.5472 
G01 X-10.6514 Y10.4366 
G01 X-10.5184 Y10.3036 
G01 X-10.4078 Y10.1514 
G01 X-10.3224 Y9.9838  
G01 X-10.2642 Y9.8049  
G01 X-10.2348 Y9.6191  
G01 X-10.2348 Y9.4309  
G01 X-10.2642 Y9.2451  
G01 X-10.3224 Y9.0662  
G01 X-10.4078 Y8.8986  
G01 X-10.5184 Y8.7464  
G01 X-10.6514 Y8.6134  
G01 X-10.8036 Y8.5028  
G01 X-10.9712 Y8.4174  
G01 X-11.1501 Y8.3592  
G01 X-11.3359 Y8.3298  
G00 Z2.5400  
G00 X-22.9348 Y9.4309  
G01 Z-0.1778 F100   
G01 X-22.9642 Y9.2451  F80    
G01 X-23.0224 Y9.0662  
G01 X-23.1078 Y8.8986  
G01 X-23.2184 Y8.7464  
G01 X-23.3514 Y8.6134  
G01 X-23.5036 Y8.5028  
G01 X-23.6712 Y8.4174  
G01 X-23.8501 Y8.3592  
G01 X-24.0359 Y8.3298  
G01 X-24.2241 Y8.3298  
G01 X-24.4099 Y8.3592  
G01 X-24.5888 Y8.4174  
G01 X-24.7564 Y8.5028  
G01 X-24.9086 Y8.6134  
G01 X-25.0416 Y8.7464  
G01 X-25.1522 Y8.8986  
G01 X-25.2376 Y9.0662  
G01 X-25.2958 Y9.2451  
G01 X-25.3252 Y9.4309  
G01 X-25.3252 Y18.5091 
G01 X-25.2958 Y18.6949 
G01 X-25.2376 Y18.8738 
G01 X-25.1522 Y19.0414 
G01 X-25.0416 Y19.1936 
G01 X-24.9086 Y19.3266 
G01 X-24.7564 Y19.4372 
G01 X-24.5888 Y19.5226 
G01 X-24.4099 Y19.5808 
G01 X-24.2241 Y19.6102 
G01 X-24.0359 Y19.6102 
G01 X-23.8501 Y19.5808 
G01 X-23.6712 Y19.5226 
G01 X-23.5036 Y19.4372 
G01 X-23.3514 Y19.3266 
G01 X-23.2184 Y19.1936 
G01 X-23.1078 Y19.0414 
G01 X-23.0224 Y18.8738 
G01 X-22.9642 Y18.6949 
G01 X-22.9348 Y18.5091 
G01 X-22.9348 Y11.9709 
G01 X-22.9348 Y9.4309  
G00 Z2.5400  
G00 X-25.1303 Y71.8964 
G01 Z-0.1778 F100   
G01 X-25.2028 Y71.6261 F80    
G01 X-25.3099 Y71.3675 
G01 X-25.4498 Y71.1251 
G01 X-25.6202 Y70.9031 
G01 X-25.8181 Y70.7052 
G01 X-26.0401 Y70.5348 
G01 X-26.2825 Y70.3949 
G01 X-26.2973 Y70.3888 
G01 X-26.3314 Y70.3443 
G01 X-27.0750 Y69.6007 
G01 X-27.0750 Y67.5593 
G01 X-27.0426 Y67.5269 
G01 X-26.9539 Y67.4113 
G01 X-26.9192 Y67.4058 
G01 X-26.7213 Y67.3415 
G01 X-26.5358 Y67.2470 
G01 X-26.3674 Y67.1247 
G01 X-26.2203 Y66.9776 
G01 X-26.0980 Y66.8092 
G01 X-26.0035 Y66.6237 
G01 X-25.9392 Y66.4258 
G01 X-25.9066 Y66.2203 
G01 X-25.9066 Y66.0121 
G01 X-25.9392 Y65.8066 
G01 X-26.0035 Y65.6086 
G01 X-26.0980 Y65.4232 
G01 X-26.2203 Y65.2548 
G01 X-26.3674 Y65.1077 
G01 X-26.5358 Y64.9854 
G01 X-26.7213 Y64.8909 
G01 X-26.9192 Y64.8266 
G01 X-26.9539 Y64.8211 
G01 X-27.0426 Y64.7055 
G01 X-27.0750 Y64.6731 
G01 X-27.0750 Y42.1400 
G01 X-19.3188 Y42.1400 
G01 X-18.8890 Y42.9995 
G01 X-18.8876 Y43.0038 
G01 X-18.8470 Y43.0836 
G01 X-18.8070 Y43.1636 
G01 X-18.8043 Y43.1673 
G01 X-18.8022 Y43.1714 
G01 X-18.7495 Y43.2439 
G01 X-18.6975 Y43.3167 
G01 X-18.6943 Y43.3199 
G01 X-18.6916 Y43.3236 
G01 X-18.6283 Y43.3869 
G01 X-18.5655 Y43.4507 
G01 X-18.5618 Y43.4534 
G01 X-18.5586 Y43.4566 
G01 X-18.4863 Y43.5092 
G01 X-18.4142 Y43.5624 
G01 X-18.4101 Y43.5645 
G01 X-18.4064 Y43.5672 
G01 X-18.3268 Y43.6078 
G01 X-18.2472 Y43.6491 
G01 X-18.2429 Y43.6506 
G01 X-18.2388 Y43.6526 
G01 X-18.1539 Y43.6802 
G01 X-18.0687 Y43.7086 
G01 X-18.0642 Y43.7094 
G01 X-18.0599 Y43.7108 
G01 X-17.9715 Y43.7248 
G01 X-17.8831 Y43.7394 
G01 X-17.8786 Y43.7395 
G01 X-17.8741 Y43.7402 
G01 X-17.7843 Y43.7402 
G01 X-17.6950 Y43.7409 
G01 X-17.6905 Y43.7402 
G01 X-10.7141 Y43.7402 
G01 X-8.4850 Y45.9693 
G01 X-8.4850 Y56.9007 
G01 X-13.5843 Y62.0000 
G01 X-19.1899 Y62.0000 
G01 X-19.4674 Y62.0365 
G01 X-19.7377 Y62.1090 
G01 X-19.9963 Y62.2161 
G01 X-20.2387 Y62.3560 
G01 X-20.4607 Y62.5264 
G01 X-21.7307 Y63.7964 
G01 X-21.9286 Y63.9943 
G01 X-22.0990 Y64.2163 
G01 X-22.2389 Y64.4587 
G01 X-22.3460 Y64.7173 
G01 X-22.4185 Y64.9876 
G01 X-22.4550 Y65.2651 
G01 X-22.4550 Y70.7183 
G01 X-23.8967 Y72.1600 
G01 X-25.0956 Y72.1600 
G01 X-25.1303 Y71.8964 
G00 Z2.5400  
G00 X-14.2325 Y46.3524 
G01 Z-0.1778 F100   
G01 X-14.0944 Y46.4905 F80    
G01 X-13.9319 Y46.5991 
G01 X-13.7514 Y46.6739 
G01 X-13.5597 Y46.7120 
G01 X-13.3680 Y46.7120 
G01 X-13.3264 Y46.7422 
G01 X-13.1588 Y46.8276 
G01 X-12.9799 Y46.8858 
G01 X-12.7941 Y46.9152 
G01 X-12.6059 Y46.9152 
G01 X-12.4201 Y46.8858 
G01 X-12.2412 Y46.8276 
G01 X-12.0736 Y46.7422 
G01 X-12.0320 Y46.7120 
G01 X-11.8403 Y46.7120 
G01 X-11.6486 Y46.6739 
G01 X-11.4681 Y46.5991 
G01 X-11.3056 Y46.4905 
G01 X-11.1675 Y46.3524 
G01 X-11.0589 Y46.1899 
G01 X-10.9841 Y46.0094 
G01 X-10.9460 Y45.8177 
G01 X-10.9460 Y45.6223 
G01 X-10.9841 Y45.4306 
G01 X-11.0589 Y45.2501 
G01 X-11.1675 Y45.0876 
G01 X-11.3056 Y44.9495 
G01 X-11.4681 Y44.8409 
G01 X-11.5328 Y44.8141 
G01 X-11.5342 Y44.8051 
G01 X-11.5924 Y44.6262 
G01 X-11.6778 Y44.4586 
G01 X-11.7884 Y44.3064 
G01 X-11.9214 Y44.1734 
G01 X-12.0736 Y44.0628 
G01 X-12.2412 Y43.9774 
G01 X-12.4201 Y43.9192 
G01 X-12.6059 Y43.8898 
G01 X-24.2241 Y43.8898 
G01 X-24.4099 Y43.9192 
G01 X-24.5888 Y43.9774 
G01 X-24.7564 Y44.0628 
G01 X-24.9086 Y44.1734 
G01 X-25.0416 Y44.3064 
G01 X-25.1522 Y44.4586 
G01 X-25.2376 Y44.6262 
G01 X-25.2958 Y44.8051 
G01 X-25.3252 Y44.9909 
G01 X-25.3252 Y45.1791 
G01 X-25.2958 Y45.3649 
G01 X-25.2376 Y45.5438 
G01 X-25.1522 Y45.7114 
G01 X-25.0416 Y45.8636 
G01 X-24.9086 Y45.9966 
G01 X-24.7564 Y46.1072 
G01 X-24.5888 Y46.1926 
G01 X-24.4099 Y46.2508 
G01 X-24.2241 Y46.2802 
G01 X-14.2808 Y46.2802 
G01 X-14.2325 Y46.3524 
G00 Z2.5400  
G00 X-13.9593 Y49.0703 
G01 Z-0.1778 F100   
G01 X-25.6043 Y58.7744 F80    
G01 X-25.7941 Y58.9801 
G01 X-25.9554 Y59.2088 
G01 X-26.0854 Y59.4566 
G01 X-26.1821 Y59.7193 
G01 X-26.2436 Y59.9923 
G01 X-26.2689 Y60.2711 
G01 X-26.2576 Y60.5507 
G01 X-26.2100 Y60.8265 
G01 X-26.1267 Y61.0937 
G01 X-26.0093 Y61.3477 
G01 X-25.8597 Y61.5843 
G01 X-25.6806 Y61.7993 
G01 X-25.4749 Y61.9891 
G01 X-25.3252 Y62.0946 
G01 X-25.3252 Y69.3091 
G01 X-25.2958 Y69.4949 
G01 X-25.2376 Y69.6738 
G01 X-25.1522 Y69.8414 
G01 X-25.0416 Y69.9936 
G01 X-24.9086 Y70.1266 
G01 X-24.7564 Y70.2372 
G01 X-24.5888 Y70.3226 
G01 X-24.4099 Y70.3808 
G01 X-24.2241 Y70.4102 
G01 X-24.0359 Y70.4102 
G01 X-23.8501 Y70.3808 
G01 X-23.6712 Y70.3226 
G01 X-23.5036 Y70.2372 
G01 X-23.3514 Y70.1266 
G01 X-23.2184 Y69.9936 
G01 X-23.1078 Y69.8414 
G01 X-23.0224 Y69.6738 
G01 X-22.9642 Y69.4949 
G01 X-22.9348 Y69.3091 
G01 X-22.9348 Y62.0953 
G01 X-22.8707 Y62.0547 
G01 X-11.2257 Y52.3506 
G01 X-11.0359 Y52.1449 
G01 X-10.8746 Y51.9162 
G01 X-10.7446 Y51.6684 
G01 X-10.6479 Y51.4057 
G01 X-10.5864 Y51.1327 
G01 X-10.5611 Y50.8539 
G01 X-10.5724 Y50.5743 
G01 X-10.6200 Y50.2985 
G01 X-10.7033 Y50.0313 
G01 X-10.8207 Y49.7773 
G01 X-10.9703 Y49.5407 
G01 X-11.1494 Y49.3257 
G01 X-11.3551 Y49.1359 
G01 X-11.5838 Y48.9746 
G01 X-11.8316 Y48.8446 
G01 X-12.0943 Y48.7479 
G01 X-12.3673 Y48.6864 
G01 X-12.6461 Y48.6611 
G01 X-12.9257 Y48.6724 
G01 X-13.2015 Y48.7200 
G01 X-13.4687 Y48.8033 
G01 X-13.7227 Y48.9207 
G01 X-13.9593 Y49.0703 
G00 Z2.5400  
G00 X-18.7114 Y73.0133 
G01 Z-0.1778 F100   
G01 X-18.5410 Y72.7913 F80    
G01 X-18.4011 Y72.5489 
G01 X-18.2940 Y72.2903 
G01 X-18.2215 Y72.0200 
G01 X-18.1850 Y71.7425 
G01 X-18.1850 Y66.2893 
G01 X-18.1657 Y66.2700 
G01 X-12.5601 Y66.2700 
G01 X-12.2826 Y66.2335 
G01 X-12.0123 Y66.1610 
G01 X-11.7537 Y66.0539 
G01 X-11.5113 Y65.9140 
G01 X-11.2893 Y65.7436 
G01 X-11.0914 Y65.5457 
G01 X-4.7414 Y59.1957 
G01 X-4.5710 Y58.9737 
G01 X-4.4311 Y58.7313 
G01 X-4.3240 Y58.4727 
G01 X-4.2515 Y58.2024 
G01 X-4.2150 Y57.9249 
G01 X-4.2150 Y44.9451 
G01 X-4.2515 Y44.6676 
G01 X-4.3240 Y44.3973 
G01 X-4.4311 Y44.1387 
G01 X-4.5710 Y43.8963 
G01 X-4.7414 Y43.6743 
G01 X-4.9393 Y43.4764 
G01 X-9.2950 Y39.1207 
G01 X-9.2950 Y24.6251 
G01 X-9.3305 Y24.3557 
G01 X-8.1114 Y23.1366 
G01 X-7.9784 Y23.0036 
G01 X-7.8678 Y22.8514 
G01 X-7.7824 Y22.6838 
G01 X-7.7242 Y22.5049 
G01 X-7.6948 Y22.3191 
G01 X-7.6948 Y6.8909  
G01 X-7.7242 Y6.7051  
G01 X-7.7824 Y6.5262  
G01 X-7.8678 Y6.3586  
G01 X-7.9784 Y6.2064  
G01 X-9.2484 Y4.9364  
G01 X-9.3814 Y4.8034  
G01 X-9.5336 Y4.6928  
G01 X-9.7012 Y4.6074  
G01 X-9.8801 Y4.5492  
G01 X-10.0659 Y4.5198  
G01 X-10.2999 Y4.5198  
G01 X-10.6514 Y4.1684  
G01 X-10.8036 Y4.0578  
G01 X-10.9712 Y3.9724  
G01 X-11.1501 Y3.9142  
G01 X-11.3359 Y3.8848  
G01 X-14.1099 Y3.8848  
G01 X-14.3284 Y3.6664  
G01 X-14.4614 Y3.5334  
G01 X-14.6136 Y3.4228  
G01 X-14.7812 Y3.3374  
G01 X-14.9601 Y3.2792  
G01 X-15.1459 Y3.2498  
G01 X-19.1441 Y3.2498  
G01 X-19.3299 Y3.2792  
G01 X-19.5088 Y3.3374  
G01 X-19.6764 Y3.4228  
G01 X-19.8286 Y3.5334  
G01 X-19.9616 Y3.6664  
G01 X-20.0722 Y3.8186  
G01 X-20.1576 Y3.9862  
G01 X-20.2158 Y4.1651  
G01 X-20.2452 Y4.3509  
G01 X-20.2452 Y5.2199  
G01 X-20.8151 Y5.7898  
G01 X-27.0750 Y5.7898  
G01 X-27.0750 Y3.1431  
G01 X-26.9523 Y3.0540  
G01 X-26.7847 Y2.8863  
G01 X-26.6453 Y2.6945  
G01 X-26.5377 Y2.4832  
G01 X-26.4644 Y2.2577  
G01 X-26.4273 Y2.0236  
G01 X-26.4273 Y1.7864  
G01 X-26.4644 Y1.5523  
G01 X-26.5377 Y1.3268  
G01 X-26.6453 Y1.1155  
G01 X-26.7847 Y0.9237  
G01 X-26.9523 Y0.7560  
G01 X-27.1441 Y0.6167  
G01 X-27.3554 Y0.5090  
G01 X-27.5809 Y0.4357  
G01 X-27.6748 Y0.4209  
G01 X-27.7993 Y0.2964  
G01 X-28.0213 Y0.1260  
G01 X-28.2413 Y-0.0010 
G01 X-4.7787 Y-0.0010 
G01 X-4.9987 Y0.1260  
G01 X-5.2207 Y0.2964  
G01 X-5.3452 Y0.4209  
G01 X-5.4391 Y0.4357  
G01 X-5.6646 Y0.5090  
G01 X-5.8758 Y0.6167  
G01 X-6.0677 Y0.7560  
G01 X-6.2353 Y0.9237  
G01 X-6.3747 Y1.1155  
G01 X-6.4823 Y1.3268  
G01 X-6.5556 Y1.5523  
G01 X-6.5927 Y1.7864  
G01 X-6.5927 Y2.0236  
G01 X-6.5556 Y2.2577  
G01 X-6.4823 Y2.4832  
G01 X-6.3747 Y2.6945  
G01 X-6.2353 Y2.8863  
G01 X-6.0677 Y3.0540  
G01 X-5.9450 Y3.1431  
G01 X-5.9450 Y3.7578  
G01 X-6.4541 Y3.7578  
G01 X-6.6596 Y3.7904  
G01 X-6.8575 Y3.8547  
G01 X-7.0430 Y3.9492  
G01 X-7.2114 Y4.0715  
G01 X-7.3585 Y4.2186  
G01 X-7.4808 Y4.3870  
G01 X-7.5753 Y4.5724  
G01 X-7.6396 Y4.7704  
G01 X-7.6722 Y4.9759  
G01 X-7.6722 Y5.1841  
G01 X-7.6396 Y5.3896  
G01 X-7.5753 Y5.5875  
G01 X-7.4808 Y5.7730  
G01 X-7.3585 Y5.9414  
G01 X-7.2114 Y6.0885  
G01 X-7.0430 Y6.2108  
G01 X-6.8575 Y6.3053  
G01 X-6.6596 Y6.3696  
G01 X-6.4541 Y6.4022  
G01 X-5.9450 Y6.4022  
G01 X-5.9450 Y22.5889 
G01 X-6.4388 Y22.6300 
G01 X-6.4899 Y22.6300 
G01 X-6.5781 Y22.6416 
G01 X-6.6668 Y22.6490 
G01 X-6.7167 Y22.6599 
G01 X-6.7674 Y22.6665 
G01 X-6.8533 Y22.6895 
G01 X-6.9402 Y22.7084 
G01 X-6.9884 Y22.7257 
G01 X-7.0377 Y22.7390 
G01 X-7.1199 Y22.7730 
G01 X-7.2036 Y22.8031 
G01 X-7.2491 Y22.8265 
G01 X-7.2963 Y22.8461 
G01 X-7.3733 Y22.8905 
G01 X-7.4524 Y22.9313 
G01 X-7.4944 Y22.9604 
G01 X-7.5387 Y22.9860 
G01 X-7.6092 Y23.0401 
G01 X-7.6823 Y23.0909 
G01 X-7.7202 Y23.1253 
G01 X-7.7607 Y23.1564 
G01 X-7.8236 Y23.2192 
G01 X-7.8894 Y23.2791 
G01 X-7.9225 Y23.3181 
G01 X-7.9586 Y23.3543 
G01 X-8.0127 Y23.4248 
G01 X-8.0702 Y23.4927 
G01 X-8.0979 Y23.5358 
G01 X-8.1290 Y23.5763 
G01 X-8.1734 Y23.6533 
G01 X-8.2216 Y23.7282 
G01 X-8.2434 Y23.7744 
G01 X-8.2689 Y23.8187 
G01 X-8.3030 Y23.9008 
G01 X-8.3409 Y23.9813 
G01 X-8.3565 Y24.0300 
G01 X-8.3760 Y24.0773 
G01 X-8.3990 Y24.1631 
G01 X-8.4261 Y24.2479 
G01 X-8.4352 Y24.2982 
G01 X-8.4485 Y24.3476 
G01 X-8.4601 Y24.4357 
G01 X-8.4759 Y24.5233 
G01 X-8.4783 Y24.5744 
G01 X-8.4850 Y24.6251 
G01 X-8.4850 Y24.7140 
G01 X-8.4892 Y24.8029 
G01 X-8.4850 Y24.8538 
G01 X-8.4850 Y24.9049 
G01 X-8.4734 Y24.9931 
G01 X-8.4660 Y25.0818 
G01 X-8.4551 Y25.1317 
G01 X-8.4485 Y25.1824 
G01 X-8.4254 Y25.2683 
G01 X-8.4066 Y25.3552 
G01 X-8.3893 Y25.4034 
G01 X-8.3760 Y25.4527 
G01 X-8.3420 Y25.5349 
G01 X-8.3119 Y25.6186 
G01 X-8.2885 Y25.6641 
G01 X-8.2689 Y25.7113 
G01 X-8.2245 Y25.7883 
G01 X-8.1837 Y25.8674 
G01 X-8.1546 Y25.9094 
G01 X-8.1290 Y25.9537 
G01 X-8.0749 Y26.0242 
G01 X-8.0241 Y26.0973 
G01 X-7.9897 Y26.1352 
G01 X-7.9586 Y26.1757 
G01 X-7.8958 Y26.2386 
G01 X-7.8359 Y26.3044 
G01 X-7.7969 Y26.3375 
G01 X-7.0593 Y27.0750 
G01 X-7.7381 Y27.0750 
G01 X-7.9713 Y27.1119 
G01 X-8.1958 Y27.1849 
G01 X-8.4062 Y27.2921 
G01 X-8.5972 Y27.4309 
G01 X-8.7641 Y27.5978 
G01 X-8.9029 Y27.7888 
G01 X-9.0101 Y27.9992 
G01 X-9.0831 Y28.2237 
G01 X-9.1200 Y28.4569 
G01 X-9.1200 Y28.6931 
G01 X-9.0831 Y28.9263 
G01 X-9.0101 Y29.1508 
G01 X-8.9029 Y29.3612 
G01 X-8.7641 Y29.5522 
G01 X-8.5972 Y29.7191 
G01 X-8.4062 Y29.8579 
G01 X-8.1958 Y29.9651 
G01 X-7.9713 Y30.0381 
G01 X-7.7381 Y30.0750 
G01 X-5.3293 Y30.0750 
G01 X-5.2207 Y30.1836 
G01 X-4.9987 Y30.3540 
G01 X-4.7563 Y30.4939 
G01 X-4.6750 Y30.5276 
G01 X-4.6750 Y35.3107 
G01 X-6.6886 Y37.3243 
G01 X-6.8590 Y37.5463 
G01 X-6.9989 Y37.7887 
G01 X-7.1060 Y38.0473 
G01 X-7.1785 Y38.3176 
G01 X-7.2150 Y38.5951 
G01 X-7.2150 Y40.1449 
G01 X-7.1785 Y40.4224 
G01 X-7.1060 Y40.6927 
G01 X-6.9989 Y40.9513 
G01 X-6.8590 Y41.1937 
G01 X-6.6886 Y41.4157 
G01 X-6.4907 Y41.6136 
G01 X-6.2687 Y41.7840 
G01 X-6.0263 Y41.9239 
G01 X-5.7677 Y42.0310 
G01 X-5.4974 Y42.1035 
G01 X-5.2199 Y42.1400 
G01 X-4.9401 Y42.1400 
G01 X-4.6626 Y42.1035 
G01 X-4.3923 Y42.0310 
G01 X-4.1337 Y41.9239 
G01 X-3.8913 Y41.7840 
G01 X-3.6693 Y41.6136 
G01 X-3.4714 Y41.4157 
G01 X-3.3010 Y41.1937 
G01 X-3.1611 Y40.9513 
G01 X-3.0540 Y40.6927 
G01 X-2.9815 Y40.4224 
G01 X-2.9450 Y40.1449 
G01 X-2.9450 Y39.6193 
G01 X-1.1293 Y37.8036 
G01 X-0.9314 Y37.6057 
G01 X-0.7610 Y37.3837 
G01 X-0.6211 Y37.1413 
G01 X-0.5140 Y36.8827 
G01 X-0.4415 Y36.6124 
G01 X-0.4050 Y36.3349 
G01 X-0.4050 Y28.4351 
G01 X-0.4415 Y28.1576 
G01 X-0.5140 Y27.8873 
G01 X-0.6211 Y27.6287 
G01 X-0.7610 Y27.3863 
G01 X-0.9314 Y27.1643 
G01 X-1.1293 Y26.9664 
G01 X-1.5664 Y26.5293 
G01 X-1.7643 Y26.3314 
G01 X-1.9387 Y26.1570 
G01 X-1.8758 Y26.0998 
G01 X-1.7808 Y26.0156 
G01 X-1.7722 Y26.0057 
G01 X-1.7626 Y25.9969 
G01 X-1.6806 Y25.9001 
G01 X-1.5974 Y25.8041 
G01 X-1.5902 Y25.7932 
G01 X-1.5818 Y25.7833 
G01 X-1.5132 Y25.6766 
G01 X-1.4432 Y25.5706 
G01 X-1.4375 Y25.5588 
G01 X-1.4304 Y25.5478 
G01 X-1.3763 Y25.4331 
G01 X-1.3208 Y25.3189 
G01 X-1.3167 Y25.3065 
G01 X-1.3111 Y25.2947 
G01 X-1.2724 Y25.1738 
G01 X-1.2323 Y25.0534 
G01 X-1.2298 Y25.0406 
G01 X-1.2259 Y25.0281 
G01 X-1.2033 Y24.9033 
G01 X-1.1792 Y24.7786 
G01 X-1.1784 Y24.7655 
G01 X-1.1761 Y24.7527 
G01 X-1.1701 Y24.6260 
G01 X-1.1624 Y24.4992 
G01 X-1.1634 Y24.4862 
G01 X-1.1628 Y24.4731 
G01 X-1.1733 Y24.3468 
G01 X-1.1823 Y24.2201 
G01 X-1.1849 Y24.2073 
G01 X-1.1860 Y24.1942 
G01 X-1.2129 Y24.0703 
G01 X-1.2384 Y23.9459 
G01 X-1.2427 Y23.9335 
G01 X-1.2454 Y23.9208 
G01 X-1.2884 Y23.8013 
G01 X-1.3298 Y23.6814 
G01 X-1.3357 Y23.6697 
G01 X-1.3401 Y23.6574 
G01 X-1.3982 Y23.5446 
G01 X-1.6750 Y22.9910 
G01 X-1.6750 Y3.1431  
G01 X-1.5523 Y3.0540  
G01 X-1.3847 Y2.8863  
G01 X-1.2453 Y2.6945  
G01 X-1.1377 Y2.4832  
G01 X-1.0644 Y2.2577  
G01 X-1.0273 Y2.0236  
G01 X-1.0273 Y1.7864  
G01 X-1.0644 Y1.5523  
G01 X-1.1377 Y1.3268  
G01 X-1.2453 Y1.1155  
G01 X-1.3847 Y0.9237  
G01 X-1.5523 Y0.7560  
G01 X-1.7442 Y0.6167  
G01 X-1.9554 Y0.5090  
G01 X-2.1809 Y0.4357  
G01 X-2.2748 Y0.4209  
G01 X-2.3993 Y0.2964  
G01 X-2.6213 Y0.1260  
G01 X-2.8413 Y-0.0010 
G01 X1.1017  Y-0.0010 
G01 X1.1017  Y76.2010 
G01 X-21.8913 Y76.2010 
G01 X-21.6713 Y76.0740 
G01 X-21.4493 Y75.9036 
G01 X-21.2514 Y75.7057 
G01 X-21.0810 Y75.4837 
G01 X-20.9434 Y75.2453 
G01 X-19.4226 Y73.7245 
G01 X-18.7114 Y73.0133 
G00 Z2.5400  
G00 X-20.1951 Y0.3987  
G01 Z-0.1778 F100   
G01 X-22.9849 Y0.3987  F80    
G01 X-23.2191 Y0.4357  
G01 X-23.4446 Y0.5090  
G01 X-23.6558 Y0.6167  
G01 X-23.8477 Y0.7560  
G01 X-24.0153 Y0.9237  
G01 X-24.1547 Y1.1155  
G01 X-24.2623 Y1.3268  
G01 X-24.3356 Y1.5523  
G01 X-24.3727 Y1.7864  
G01 X-24.3727 Y2.0236  
G01 X-24.3356 Y2.2577  
G01 X-24.2623 Y2.4832  
G01 X-24.1547 Y2.6945  
G01 X-24.0153 Y2.8863  
G01 X-23.8477 Y3.0540  
G01 X-23.6558 Y3.1933  
G01 X-23.4446 Y3.3010  
G01 X-23.2191 Y3.3743  
G01 X-22.9849 Y3.4113  
G01 X-22.7852 Y3.4113  
G01 X-22.7852 Y4.5391  
G01 X-22.7558 Y4.7249  
G01 X-22.6976 Y4.9038  
G01 X-22.6122 Y5.0714  
G01 X-22.5016 Y5.2236  
G01 X-22.3686 Y5.3566  
G01 X-22.2164 Y5.4672  
G01 X-22.0488 Y5.5526  
G01 X-21.8699 Y5.6108  
G01 X-21.6841 Y5.6402  
G01 X-21.4959 Y5.6402  
G01 X-21.3101 Y5.6108  
G01 X-21.1312 Y5.5526  
G01 X-20.9636 Y5.4672  
G01 X-20.8114 Y5.3566  
G01 X-20.6784 Y5.2236  
G01 X-20.5678 Y5.0714  
G01 X-20.4824 Y4.9038  
G01 X-20.4242 Y4.7249  
G01 X-20.3948 Y4.5391  
G01 X-20.3948 Y3.4113  
G01 X-20.1951 Y3.4113  
G01 X-19.9609 Y3.3743  
G01 X-19.7354 Y3.3010  
G01 X-19.5242 Y3.1933  
G01 X-19.3959 Y3.1002  
G01 X-16.4159 Y3.1002  
G01 X-16.2301 Y3.0708  
G01 X-16.0512 Y3.0126  
G01 X-15.8836 Y2.9272  
G01 X-15.7314 Y2.8166  
G01 X-15.5984 Y2.6836  
G01 X-15.4878 Y2.5314  
G01 X-15.4024 Y2.3638  
G01 X-15.3442 Y2.1849  
G01 X-15.3148 Y1.9991  
G01 X-15.3148 Y1.8109  
G01 X-15.3442 Y1.6251  
G01 X-15.4024 Y1.4462  
G01 X-15.4878 Y1.2786  
G01 X-15.5984 Y1.1264  
G01 X-15.7314 Y0.9934  
G01 X-15.8836 Y0.8828  
G01 X-16.0512 Y0.7974  
G01 X-16.2301 Y0.7392  
G01 X-16.4159 Y0.7098  
G01 X-19.3959 Y0.7098  
G01 X-19.5242 Y0.6167  
G01 X-19.7354 Y0.5090  
G01 X-19.9609 Y0.4357  
G01 X-20.1951 Y0.3987  
G00 Z2.5400  
G00 X-15.2138 Y14.9036 
G01 Z-0.1778 F100   
G01 X-15.1518 Y15.0945 F80    
G01 X-15.1182 Y15.1604 
G01 X-15.1182 Y15.9968 
G01 X-15.8691 Y15.9968 
G01 X-15.7562 Y15.8840 
G01 X-15.6500 Y15.7251 
G01 X-15.5769 Y15.5485 
G01 X-15.5587 Y15.4571 
G01 X-15.5373 Y15.4357 
G01 X-15.4194 Y15.2734 
G01 X-15.3282 Y15.0945 
G01 X-15.2662 Y14.9036 
G01 X-15.2400 Y14.7382 
G01 X-15.2138 Y14.9036 
G00 Z2.5400  
G00 X-13.8778 Y36.9882 
G01 Z-0.1778 F100   
G01 X-13.7356 Y36.8460 F80    
G01 X-13.6450 Y36.7104 
G01 X-13.6450 Y39.5776 
G01 X-13.6704 Y39.6030 
G01 X-13.6704 Y40.4070 
G01 X-13.5953 Y40.4820 
G01 X-13.5319 Y40.7185 
G01 X-13.4208 Y40.9868 
G01 X-13.2757 Y41.2382 
G01 X-13.2514 Y41.2698 
G01 X-15.0740 Y41.2698 
G01 X-14.9414 Y41.2488 
G01 X-14.7505 Y41.1868 
G01 X-14.5716 Y41.0956 
G01 X-14.4093 Y40.9777 
G01 X-14.2673 Y40.8357 
G01 X-14.1494 Y40.6733 
G01 X-14.0582 Y40.4945 
G01 X-13.9962 Y40.3036 
G01 X-13.9648 Y40.1054 
G01 X-13.9648 Y37.0463 
G01 X-13.8778 Y36.9882 
G00 Z2.5400  
G00 X-18.1169 Y13.6615 
G01 Z-0.1778 F100   
G01 X-18.1900 Y13.4849 F80    
G01 X-18.2962 Y13.3260 
G01 X-18.4314 Y13.1908 
G01 X-18.5903 Y13.0846 
G01 X-18.7669 Y13.0115 
G01 X-18.8583 Y12.9933 
G01 X-19.0448 Y12.8068 
G01 X-19.0448 Y7.5132  
G01 X-18.0773 Y6.5457  
G01 X-17.9594 Y6.3834  
G01 X-17.8682 Y6.2045  
G01 X-17.8062 Y6.0136  
G01 X-17.7748 Y5.8154  
G01 X-17.7748 Y5.7202  
G01 X-16.6760 Y5.7202  
G01 X-16.8086 Y5.7412  
G01 X-16.9995 Y5.8032  
G01 X-17.1784 Y5.8944  
G01 X-17.3407 Y6.0123  
G01 X-17.4827 Y6.1543  
G01 X-17.6006 Y6.3166  
G01 X-17.6918 Y6.4955  
G01 X-17.7538 Y6.6864  
G01 X-17.7852 Y6.8846  
G01 X-17.7852 Y14.4390 
G01 X-17.8062 Y14.3064 
G01 X-17.8682 Y14.1155 
G01 X-17.9594 Y13.9366 
G01 X-18.0773 Y13.7743 
G01 X-18.0987 Y13.7529 
G01 X-18.1169 Y13.6615 
G00 Z2.5400  
G00 X-10.1652 Y9.3590  
G01 Z-0.1778 F100   
G01 X-10.1862 Y9.2264  F80    
G01 X-10.2482 Y9.0355  
G01 X-10.3394 Y8.8566  
G01 X-10.4573 Y8.6943  
G01 X-10.5993 Y8.5523  
G01 X-10.7616 Y8.4344  
G01 X-10.9405 Y8.3432  
G01 X-11.1314 Y8.2812  
G01 X-11.3296 Y8.2498  
G01 X-15.2348 Y8.2498  
G01 X-15.2348 Y6.8846  
G01 X-15.2662 Y6.6864  
G01 X-15.3282 Y6.4955  
G01 X-15.4194 Y6.3166  
G01 X-15.5373 Y6.1543  
G01 X-15.6793 Y6.0123  
G01 X-15.8416 Y5.8944  
G01 X-16.0205 Y5.8032  
G01 X-16.2114 Y5.7412  
G01 X-16.3440 Y5.7202  
G01 X-15.7682 Y5.7202  
G01 X-15.4357 Y6.0527  
G01 X-15.2734 Y6.1706  
G01 X-15.0945 Y6.2618  
G01 X-14.9036 Y6.3238  
G01 X-14.7054 Y6.3552  
G01 X-11.9582 Y6.3552  
G01 X-11.6257 Y6.6877  
G01 X-11.4634 Y6.8056  
G01 X-11.2845 Y6.8968  
G01 X-11.0936 Y6.9588  
G01 X-10.8954 Y6.9902  
G01 X-10.6882 Y6.9902  
G01 X-10.1652 Y7.5132  
G01 X-10.1652 Y9.3590  
G00 Z2.5400  
G00 X-10.1862 Y14.3064 
G01 Z-0.1778 F100   
G01 X-10.2482 Y14.1155 F80    
G01 X-10.3394 Y13.9366 
G01 X-10.4573 Y13.7743 
G01 X-10.5993 Y13.6323 
G01 X-10.7616 Y13.5144 
G01 X-10.9405 Y13.4232 
G01 X-11.1314 Y13.3612 
G01 X-11.3296 Y13.3298 
G01 X-13.2137 Y13.3298 
G01 X-13.2162 Y13.3260 
G01 X-13.3514 Y13.1908 
G01 X-13.5103 Y13.0846 
G01 X-13.6869 Y13.0115 
G01 X-13.8744 Y12.9742 
G01 X-14.0656 Y12.9742 
G01 X-14.2531 Y13.0115 
G01 X-14.4297 Y13.0846 
G01 X-14.5886 Y13.1908 
G01 X-14.7238 Y13.3260 
G01 X-14.8300 Y13.4849 
G01 X-14.9031 Y13.6615 
G01 X-14.9213 Y13.7529 
G01 X-14.9427 Y13.7743 
G01 X-15.0606 Y13.9366 
G01 X-15.1518 Y14.1155 
G01 X-15.2138 Y14.3064 
G01 X-15.2348 Y14.4390 
G01 X-15.2348 Y10.8002 
G01 X-11.3296 Y10.8002 
G01 X-11.1314 Y10.7688 
G01 X-10.9405 Y10.7068 
G01 X-10.7616 Y10.6156 
G01 X-10.5993 Y10.4977 
G01 X-10.4573 Y10.3557 
G01 X-10.3394 Y10.1934 
G01 X-10.2482 Y10.0145 
G01 X-10.1862 Y9.8236  
G01 X-10.1652 Y9.6910  
G01 X-10.1652 Y14.4390 
G01 X-10.1862 Y14.3064 
G00 Z2.5400  
G00 X-18.1065 Y32.0481 
G01 Z-0.1778 F100   
G01 X-17.9299 Y31.9750 F80    
G01 X-17.7710 Y31.8688 
G01 X-17.6358 Y31.7336 
G01 X-17.6303 Y31.7252 
G01 X-17.6006 Y31.7834 
G01 X-17.4827 Y31.9457 
G01 X-17.3407 Y32.0877 
G01 X-17.1784 Y32.2056 
G01 X-16.9995 Y32.2968 
G01 X-16.8086 Y32.3588 
G01 X-16.6760 Y32.3798 
G01 X-18.8840 Y32.3798 
G01 X-18.7514 Y32.3588 
G01 X-18.5605 Y32.2968 
G01 X-18.3816 Y32.2056 
G01 X-18.2193 Y32.0877 
G01 X-18.1979 Y32.0663 
G01 X-18.1065 Y32.0481 
G00 Z2.5400  
G00 X-17.6732 Y27.9452 
G01 Z-0.1778 F100   
G01 X-16.5152 Y29.1032 F80    
G01 X-16.5152 Y29.3168 
G01 X-17.4827 Y30.2843 
G01 X-17.6006 Y30.4466 
G01 X-17.6303 Y30.5048 
G01 X-17.6358 Y30.4964 
G01 X-17.7710 Y30.3612 
G01 X-17.7748 Y30.3587 
G01 X-17.7748 Y29.9663 
G01 X-17.7710 Y29.9638 
G01 X-17.6358 Y29.8286 
G01 X-17.5296 Y29.6697 
G01 X-17.4565 Y29.4931 
G01 X-17.4192 Y29.3056 
G01 X-17.4192 Y29.1144 
G01 X-17.4565 Y28.9269 
G01 X-17.5296 Y28.7503 
G01 X-17.6358 Y28.5914 
G01 X-17.7710 Y28.4562 
G01 X-17.9299 Y28.3500 
G01 X-18.1065 Y28.2769 
G01 X-18.1979 Y28.2587 
G01 X-18.2193 Y28.2373 
G01 X-18.3816 Y28.1194 
G01 X-18.5605 Y28.0282 
G01 X-18.7514 Y27.9662 
G01 X-18.8840 Y27.9452 
G01 X-17.6732 Y27.9452 
G00 Z2.5400  
G00 X-19.3486 Y32.4112 
G01 Z-0.1778 F100   
G01 X-19.5395 Y32.4732 F80    
G01 X-19.7184 Y32.5644 
G01 X-19.8807 Y32.6823 
G01 X-19.9021 Y32.7037 
G01 X-19.9935 Y32.7219 
G01 X-20.1701 Y32.7950 
G01 X-20.3290 Y32.9012 
G01 X-20.4642 Y33.0364 
G01 X-20.5704 Y33.1953 
G01 X-20.6435 Y33.3719 
G01 X-20.6808 Y33.5594 
G01 X-20.6808 Y33.7506 
G01 X-20.6435 Y33.9381 
G01 X-20.5704 Y34.1147 
G01 X-20.4642 Y34.2736 
G01 X-20.3290 Y34.4088 
G01 X-20.1701 Y34.5150 
G01 X-19.9935 Y34.5881 
G01 X-19.9021 Y34.6063 
G01 X-19.8807 Y34.6277 
G01 X-19.7184 Y34.7456 
G01 X-19.5395 Y34.8368 
G01 X-19.3486 Y34.8988 
G01 X-19.2160 Y34.9198 
G01 X-21.6904 Y34.9198 
G01 X-21.8886 Y34.9512 
G01 X-22.0795 Y35.0132 
G01 X-22.2584 Y35.1044 
G01 X-22.4207 Y35.2223 
G01 X-22.5627 Y35.3643 
G01 X-22.6806 Y35.5266 
G01 X-22.7718 Y35.7055 
G01 X-22.8338 Y35.8964 
G01 X-22.8652 Y36.0946 
G01 X-22.8652 Y36.2954 
G01 X-22.8338 Y36.4936 
G01 X-22.7718 Y36.6845 
G01 X-22.6806 Y36.8634 
G01 X-22.5627 Y37.0257 
G01 X-22.4207 Y37.1677 
G01 X-22.2584 Y37.2856 
G01 X-22.0795 Y37.3768 
G01 X-21.8886 Y37.4388 
G01 X-21.6904 Y37.4702 
G01 X-18.9496 Y37.4702 
G01 X-18.7514 Y37.4388 
G01 X-18.5605 Y37.3768 
G01 X-18.3816 Y37.2856 
G01 X-18.2193 Y37.1677 
G01 X-18.1979 Y37.1463 
G01 X-18.1065 Y37.1281 
G01 X-17.9299 Y37.0550 
G01 X-17.7710 Y36.9488 
G01 X-17.6358 Y36.8136 
G01 X-17.5296 Y36.6547 
G01 X-17.4565 Y36.4781 
G01 X-17.4192 Y36.2906 
G01 X-17.4192 Y36.0994 
G01 X-17.4565 Y35.9119 
G01 X-17.5296 Y35.7353 
G01 X-17.6358 Y35.5764 
G01 X-17.7710 Y35.4412 
G01 X-17.9299 Y35.3350 
G01 X-18.1065 Y35.2619 
G01 X-18.1979 Y35.2437 
G01 X-18.2193 Y35.2223 
G01 X-18.3816 Y35.1044 
G01 X-18.5605 Y35.0132 
G01 X-18.7514 Y34.9512 
G01 X-18.8840 Y34.9302 
G01 X-16.5152 Y34.9302 
G01 X-16.5152 Y35.3437 
G01 X-16.6022 Y35.4018 
G01 X-16.7444 Y35.5440 
G01 X-16.8562 Y35.7113 
G01 X-16.9332 Y35.8971 
G01 X-16.9724 Y36.0944 
G01 X-16.9724 Y36.2956 
G01 X-16.9332 Y36.4929 
G01 X-16.8562 Y36.6787 
G01 X-16.7444 Y36.8460 
G01 X-16.6022 Y36.9882 
G01 X-16.5152 Y37.0463 
G01 X-16.5152 Y40.1054 
G01 X-16.4838 Y40.3036 
G01 X-16.4218 Y40.4945 
G01 X-16.3306 Y40.6733 
G01 X-16.2127 Y40.8357 
G01 X-16.0707 Y40.9777 
G01 X-15.9084 Y41.0956 
G01 X-15.7295 Y41.1868 
G01 X-15.5386 Y41.2488 
G01 X-15.4060 Y41.2698 
G01 X-16.9919 Y41.2698 
G01 X-17.0989 Y41.0557 
G01 X-17.0592 Y40.9868 
G01 X-16.9481 Y40.7185 
G01 X-16.8729 Y40.4381 
G01 X-16.8350 Y40.1502 
G01 X-16.8350 Y39.8598 
G01 X-16.8729 Y39.5719 
G01 X-16.9481 Y39.2915 
G01 X-17.0592 Y39.0232 
G01 X-17.2043 Y38.7718 
G01 X-17.3811 Y38.5414 
G01 X-17.5864 Y38.3361 
G01 X-17.8168 Y38.1593 
G01 X-18.0682 Y38.0142 
G01 X-18.3365 Y37.9031 
G01 X-18.6169 Y37.8279 
G01 X-18.9048 Y37.7900 
G01 X-26.9950 Y37.7900 
G01 X-26.9950 Y8.2602  
G01 X-24.2960 Y8.2602  
G01 X-24.4286 Y8.2812  
G01 X-24.6195 Y8.3432  
G01 X-24.7984 Y8.4344  
G01 X-24.9607 Y8.5523  
G01 X-25.1027 Y8.6943  
G01 X-25.2206 Y8.8566  
G01 X-25.3118 Y9.0355  
G01 X-25.3738 Y9.2264  
G01 X-25.4052 Y9.4246  
G01 X-25.4052 Y18.5154 
G01 X-25.3738 Y18.7136 
G01 X-25.3118 Y18.9045 
G01 X-25.2206 Y19.0833 
G01 X-25.1027 Y19.2457 
G01 X-24.9607 Y19.3877 
G01 X-24.7984 Y19.5056 
G01 X-24.6195 Y19.5968 
G01 X-24.4286 Y19.6588 
G01 X-24.2304 Y19.6902 
G01 X-24.0296 Y19.6902 
G01 X-23.8314 Y19.6588 
G01 X-23.6405 Y19.5968 
G01 X-23.4616 Y19.5056 
G01 X-23.2993 Y19.3877 
G01 X-23.1573 Y19.2457 
G01 X-23.0394 Y19.0833 
G01 X-22.9482 Y18.9045 
G01 X-22.8862 Y18.7136 
G01 X-22.8548 Y18.5154 
G01 X-22.8548 Y16.0395 
G01 X-22.8360 Y16.1642 
G01 X-22.7755 Y16.3555 
G01 X-20.3252 Y21.2560 
G01 X-20.3252 Y22.8548 
G01 X-22.3254 Y22.8548 
G01 X-22.5236 Y22.8862 
G01 X-22.7145 Y22.9482 
G01 X-22.8934 Y23.0394 
G01 X-23.0557 Y23.1573 
G01 X-25.1027 Y25.2043 
G01 X-25.2206 Y25.3666 
G01 X-25.3118 Y25.5455 
G01 X-25.3738 Y25.7364 
G01 X-25.4052 Y25.9346 
G01 X-25.4052 Y26.1354 
G01 X-25.3738 Y26.3336 
G01 X-25.3118 Y26.5245 
G01 X-25.2206 Y26.7034 
G01 X-25.1027 Y26.8657 
G01 X-24.9607 Y27.0077 
G01 X-24.7984 Y27.1256 
G01 X-24.6195 Y27.2168 
G01 X-24.4286 Y27.2788 
G01 X-24.2304 Y27.3102 
G01 X-24.0296 Y27.3102 
G01 X-23.8314 Y27.2788 
G01 X-23.6405 Y27.2168 
G01 X-23.4616 Y27.1256 
G01 X-23.2993 Y27.0077 
G01 X-21.6968 Y25.4052 
G01 X-19.2160 Y25.4052 
G01 X-19.3486 Y25.4262 
G01 X-19.5395 Y25.4882 
G01 X-19.7184 Y25.5794 
G01 X-19.8807 Y25.6973 
G01 X-19.9021 Y25.7187 
G01 X-19.9935 Y25.7369 
G01 X-20.1701 Y25.8100 
G01 X-20.3290 Y25.9162 
G01 X-20.4642 Y26.0514 
G01 X-20.5704 Y26.2103 
G01 X-20.6435 Y26.3869 
G01 X-20.6808 Y26.5744 
G01 X-20.6808 Y26.7656 
G01 X-20.6435 Y26.9531 
G01 X-20.5704 Y27.1297 
G01 X-20.4642 Y27.2886 
G01 X-20.3290 Y27.4238 
G01 X-20.1701 Y27.5300 
G01 X-19.9935 Y27.6031 
G01 X-19.9021 Y27.6213 
G01 X-19.8807 Y27.6427 
G01 X-19.7184 Y27.7606 
G01 X-19.5395 Y27.8518 
G01 X-19.3486 Y27.9138 
G01 X-19.1832 Y27.9400 
G01 X-19.3486 Y27.9662 
G01 X-19.5395 Y28.0282 
G01 X-19.7184 Y28.1194 
G01 X-19.8807 Y28.2373 
G01 X-19.9021 Y28.2587 
G01 X-19.9935 Y28.2769 
G01 X-20.1701 Y28.3500 
G01 X-20.3290 Y28.4562 
G01 X-20.4642 Y28.5914 
G01 X-20.5704 Y28.7503 
G01 X-20.6435 Y28.9269 
G01 X-20.6808 Y29.1144 
G01 X-20.6808 Y29.2048 
G01 X-21.6904 Y29.2048 
G01 X-21.8886 Y29.2362 
G01 X-22.0795 Y29.2982 
G01 X-22.2584 Y29.3894 
G01 X-22.4207 Y29.5073 
G01 X-22.5627 Y29.6493 
G01 X-22.6806 Y29.8116 
G01 X-22.7718 Y29.9905 
G01 X-22.8338 Y30.1814 
G01 X-22.8652 Y30.3796 
G01 X-22.8652 Y30.5804 
G01 X-22.8338 Y30.7786 
G01 X-22.7718 Y30.9695 
G01 X-22.6806 Y31.1484 
G01 X-22.5627 Y31.3107 
G01 X-22.4207 Y31.4527 
G01 X-22.2584 Y31.5706 
G01 X-22.0795 Y31.6618 
G01 X-21.8886 Y31.7238 
G01 X-21.6904 Y31.7552 
G01 X-20.4426 Y31.7552 
G01 X-20.3290 Y31.8688 
G01 X-20.1701 Y31.9750 
G01 X-19.9935 Y32.0481 
G01 X-19.9021 Y32.0663 
G01 X-19.8807 Y32.0877 
G01 X-19.7184 Y32.2056 
G01 X-19.5395 Y32.2968 
G01 X-19.3486 Y32.3588 
G01 X-19.1832 Y32.3850 
G01 X-19.3486 Y32.4112 
G00 Z2.5400  
G00 X-13.9648 Y28.4746 
G01 Z-0.1778 F100   
G01 X-13.9962 Y28.2764 F80    
G01 X-14.0582 Y28.0855 
G01 X-14.1494 Y27.9066 
G01 X-14.2673 Y27.7443 
G01 X-14.4093 Y27.6023 
G01 X-16.3143 Y25.6973 
G01 X-16.4766 Y25.5794 
G01 X-16.6555 Y25.4882 
G01 X-16.8464 Y25.4262 
G01 X-17.0446 Y25.3948 
G01 X-18.8840 Y25.3948 
G01 X-18.7514 Y25.3738 
G01 X-18.5605 Y25.3118 
G01 X-18.3816 Y25.2206 
G01 X-18.2193 Y25.1027 
G01 X-18.1979 Y25.0813 
G01 X-18.1065 Y25.0631 
G01 X-17.9299 Y24.9900 
G01 X-17.7710 Y24.8838 
G01 X-17.6358 Y24.7486 
G01 X-17.5296 Y24.5897 
G01 X-17.4565 Y24.4131 
G01 X-17.4192 Y24.2256 
G01 X-17.4192 Y24.0344 
G01 X-17.4565 Y23.8469 
G01 X-17.5296 Y23.6703 
G01 X-17.6358 Y23.5114 
G01 X-17.7710 Y23.3762 
G01 X-17.7748 Y23.3737 
G01 X-17.7748 Y20.9597 
G01 X-17.7741 Y20.8643 
G01 X-17.7748 Y20.8595 
G01 X-17.7748 Y20.8546 
G01 X-17.7897 Y20.7603 
G01 X-17.8040 Y20.6658 
G01 X-17.8054 Y20.6612 
G01 X-17.8062 Y20.6564 
G01 X-17.8357 Y20.5655 
G01 X-17.8645 Y20.4745 
G01 X-17.8667 Y20.4701 
G01 X-17.8682 Y20.4655 
G01 X-17.9116 Y20.3803 
G01 X-20.4943 Y15.2149 
G01 X-20.6111 Y15.0517 
G01 X-20.7519 Y14.9087 
G01 X-20.9134 Y14.7895 
G01 X-21.0915 Y14.6970 
G01 X-21.2820 Y14.6335 
G01 X-21.4800 Y14.6006 
G01 X-21.6807 Y14.5991 
G01 X-21.8792 Y14.6290 
G01 X-22.0705 Y14.6895 
G01 X-22.2501 Y14.7793 
G01 X-22.4133 Y14.8961 
G01 X-22.5563 Y15.0369 
G01 X-22.6755 Y15.1984 
G01 X-22.7680 Y15.3765 
G01 X-22.8315 Y15.5670 
G01 X-22.8548 Y15.7072 
G01 X-22.8548 Y9.4246  
G01 X-22.8862 Y9.2264  
G01 X-22.9482 Y9.0355  
G01 X-23.0394 Y8.8566  
G01 X-23.1573 Y8.6943  
G01 X-23.2993 Y8.5523  
G01 X-23.4616 Y8.4344  
G01 X-23.6405 Y8.3432  
G01 X-23.8314 Y8.2812  
G01 X-23.9640 Y8.2602  
G01 X-21.5952 Y8.2602  
G01 X-21.5952 Y13.4354 
G01 X-21.5638 Y13.6336 
G01 X-21.5018 Y13.8245 
G01 X-21.4106 Y14.0034 
G01 X-21.2927 Y14.1657 
G01 X-20.0013 Y15.4571 
G01 X-19.9831 Y15.5485 
G01 X-19.9100 Y15.7251 
G01 X-19.8038 Y15.8840 
G01 X-19.6686 Y16.0192 
G01 X-19.5097 Y16.1254 
G01 X-19.3331 Y16.1985 
G01 X-19.1456 Y16.2358 
G01 X-18.9544 Y16.2358 
G01 X-18.7669 Y16.1985 
G01 X-18.5903 Y16.1254 
G01 X-18.4314 Y16.0192 
G01 X-18.2962 Y15.8840 
G01 X-18.1900 Y15.7251 
G01 X-18.1169 Y15.5485 
G01 X-18.0987 Y15.4571 
G01 X-18.0773 Y15.4357 
G01 X-17.9594 Y15.2734 
G01 X-17.8682 Y15.0945 
G01 X-17.8062 Y14.9036 
G01 X-17.7800 Y14.7382 
G01 X-17.7538 Y14.9036 
G01 X-17.6918 Y15.0945 
G01 X-17.6006 Y15.2734 
G01 X-17.4827 Y15.4357 
G01 X-17.4613 Y15.4571 
G01 X-17.4431 Y15.5485 
G01 X-17.3700 Y15.7251 
G01 X-17.2638 Y15.8840 
G01 X-17.1286 Y16.0192 
G01 X-16.9992 Y16.1056 
G01 X-17.1118 Y16.1630 
G01 X-17.2580 Y16.2692 
G01 X-17.3858 Y16.3970 
G01 X-17.4920 Y16.5432 
G01 X-17.5741 Y16.7042 
G01 X-17.6299 Y16.8761 
G01 X-17.6582 Y17.0546 
G01 X-17.6582 Y21.0454 
G01 X-17.6299 Y21.2239 
G01 X-17.5741 Y21.3958 
G01 X-17.4920 Y21.5568 
G01 X-17.4804 Y21.5728 
G01 X-17.4804 Y21.7110 
G01 X-17.4431 Y21.8985 
G01 X-17.3700 Y22.0751 
G01 X-17.2638 Y22.2340 
G01 X-17.1286 Y22.3692 
G01 X-16.9697 Y22.4754 
G01 X-16.7931 Y22.5485 
G01 X-16.6056 Y22.5858 
G01 X-16.4144 Y22.5858 
G01 X-16.2269 Y22.5485 
G01 X-16.0503 Y22.4754 
G01 X-15.8914 Y22.3692 
G01 X-15.7562 Y22.2340 
G01 X-15.6500 Y22.0751 
G01 X-15.5769 Y21.8985 
G01 X-15.5396 Y21.7110 
G01 X-15.5396 Y21.5728 
G01 X-15.5280 Y21.5568 
G01 X-15.4459 Y21.3958 
G01 X-15.3901 Y21.2239 
G01 X-15.3618 Y21.0454 
G01 X-15.3618 Y18.2932 
G01 X-13.8796 Y18.2932 
G01 X-13.7011 Y18.2649 
G01 X-13.5292 Y18.2091 
G01 X-13.3682 Y18.1270 
G01 X-13.2220 Y18.0208 
G01 X-13.0942 Y17.8930 
G01 X-12.9880 Y17.7468 
G01 X-12.9059 Y17.5858 
G01 X-12.8501 Y17.4139 
G01 X-12.8218 Y17.2354 
G01 X-12.8218 Y15.8802 
G01 X-11.3296 Y15.8802 
G01 X-11.1314 Y15.8488 
G01 X-10.9405 Y15.7868 
G01 X-10.7616 Y15.6956 
G01 X-10.5993 Y15.5777 
G01 X-10.4573 Y15.4357 
G01 X-10.3394 Y15.2734 
G01 X-10.2482 Y15.0945 
G01 X-10.1862 Y14.9036 
G01 X-10.1652 Y14.7710 
G01 X-10.1652 Y20.7890 
G01 X-10.1862 Y20.6564 
G01 X-10.2482 Y20.4655 
G01 X-10.3394 Y20.2866 
G01 X-10.4573 Y20.1243 
G01 X-10.5993 Y19.9823 
G01 X-10.7616 Y19.8644 
G01 X-10.9405 Y19.7732 
G01 X-11.1314 Y19.7112 
G01 X-11.3296 Y19.6798 
G01 X-13.2137 Y19.6798 
G01 X-13.2162 Y19.6760 
G01 X-13.3514 Y19.5408 
G01 X-13.5103 Y19.4346 
G01 X-13.6869 Y19.3615 
G01 X-13.8744 Y19.3242 
G01 X-14.0656 Y19.3242 
G01 X-14.2531 Y19.3615 
G01 X-14.4297 Y19.4346 
G01 X-14.5886 Y19.5408 
G01 X-14.7238 Y19.6760 
G01 X-14.8300 Y19.8349 
G01 X-14.9031 Y20.0115 
G01 X-14.9213 Y20.1029 
G01 X-14.9427 Y20.1243 
G01 X-15.0606 Y20.2866 
G01 X-15.1518 Y20.4655 
G01 X-15.2138 Y20.6564 
G01 X-15.2452 Y20.8546 
G01 X-15.2452 Y21.0554 
G01 X-15.2138 Y21.2536 
G01 X-15.1518 Y21.4445 
G01 X-15.0606 Y21.6234 
G01 X-14.9427 Y21.7857 
G01 X-14.9213 Y21.8071 
G01 X-14.9031 Y21.8985 
G01 X-14.8300 Y22.0751 
G01 X-14.7238 Y22.2340 
G01 X-14.5886 Y22.3692 
G01 X-14.4297 Y22.4754 
G01 X-14.2531 Y22.5485 
G01 X-14.0656 Y22.5858 
G01 X-13.8744 Y22.5858 
G01 X-13.6869 Y22.5485 
G01 X-13.5103 Y22.4754 
G01 X-13.3514 Y22.3692 
G01 X-13.2162 Y22.2340 
G01 X-13.2137 Y22.2302 
G01 X-11.3296 Y22.2302 
G01 X-11.1314 Y22.1988 
G01 X-10.9405 Y22.1368 
G01 X-10.7616 Y22.0456 
G01 X-10.5993 Y21.9277 
G01 X-10.4573 Y21.7857 
G01 X-10.3394 Y21.6234 
G01 X-10.2482 Y21.4445 
G01 X-10.1862 Y21.2536 
G01 X-10.1652 Y21.1210 
G01 X-10.1652 Y21.6968 
G01 X-11.0494 Y22.5810 
G01 X-11.2848 Y22.5500 
G01 X-11.5752 Y22.5500 
G01 X-11.8631 Y22.5879 
G01 X-12.1435 Y22.6631 
G01 X-12.4118 Y22.7742 
G01 X-12.6632 Y22.9193 
G01 X-12.8936 Y23.0961 
G01 X-13.0989 Y23.3014 
G01 X-13.2757 Y23.5318 
G01 X-13.4208 Y23.7832 
G01 X-13.5319 Y24.0515 
G01 X-13.6071 Y24.3319 
G01 X-13.6450 Y24.6198 
G01 X-13.6450 Y35.6796 
G01 X-13.7356 Y35.5440 
G01 X-13.8778 Y35.4018 
G01 X-13.9648 Y35.3437 
G01 X-13.9648 Y33.5546 
G01 X-13.9962 Y33.3564 
G01 X-14.0582 Y33.1655 
G01 X-14.1494 Y32.9866 
G01 X-14.2673 Y32.8243 
G01 X-14.4093 Y32.6823 
G01 X-14.5716 Y32.5644 
G01 X-14.7505 Y32.4732 
G01 X-14.9414 Y32.4112 
G01 X-15.1396 Y32.3798 
G01 X-16.3440 Y32.3798 
G01 X-16.2114 Y32.3588 
G01 X-16.0205 Y32.2968 
G01 X-15.8416 Y32.2056 
G01 X-15.6793 Y32.0877 
G01 X-14.2673 Y30.6757 
G01 X-14.1494 Y30.5134 
G01 X-14.0582 Y30.3345 
G01 X-13.9962 Y30.1436 
G01 X-13.9648 Y29.9454 
G01 X-13.9648 Y29.7446 
G01 X-13.9648 Y28.4746 
G00 Z2.5400  
G00 X-14.2797 Y46.4184 
G01 Z-0.1778 F100   
G01 X-14.1604 Y46.5377 F80    
G01 X-14.0239 Y46.6369 
G01 X-13.8735 Y46.7135 
G01 X-13.7130 Y46.7656 
G01 X-13.5464 Y46.7920 
G01 X-13.3940 Y46.7920 
G01 X-13.3684 Y46.8106 
G01 X-13.1895 Y46.9018 
G01 X-12.9986 Y46.9638 
G01 X-12.8004 Y46.9952 
G01 X-12.5996 Y46.9952 
G01 X-12.4014 Y46.9638 
G01 X-12.2105 Y46.9018 
G01 X-12.0316 Y46.8106 
G01 X-12.0060 Y46.7920 
G01 X-11.8536 Y46.7920 
G01 X-11.6870 Y46.7656 
G01 X-11.5265 Y46.7135 
G01 X-11.3761 Y46.6369 
G01 X-11.2396 Y46.5377 
G01 X-11.1203 Y46.4184 
G01 X-11.0211 Y46.2819 
G01 X-10.9445 Y46.1315 
G01 X-10.8924 Y45.9710 
G01 X-10.8660 Y45.8044 
G01 X-10.8660 Y45.6356 
G01 X-10.8924 Y45.4690 
G01 X-10.9445 Y45.3085 
G01 X-11.0211 Y45.1581 
G01 X-11.1203 Y45.0216 
G01 X-11.2396 Y44.9023 
G01 X-11.3761 Y44.8031 
G01 X-11.4656 Y44.7576 
G01 X-11.5182 Y44.5955 
G01 X-11.6094 Y44.4166 
G01 X-11.7273 Y44.2543 
G01 X-11.8693 Y44.1123 
G01 X-12.0316 Y43.9944 
G01 X-12.2105 Y43.9032 
G01 X-12.4014 Y43.8412 
G01 X-12.5340 Y43.8202 
G01 X-10.7473 Y43.8202 
G01 X-8.5650 Y46.0025 
G01 X-8.5650 Y56.8675 
G01 X-13.6175 Y61.9200 
G01 X-19.1952 Y61.9200 
G01 X-19.4831 Y61.9579 
G01 X-19.7635 Y62.0331 
G01 X-20.0318 Y62.1442 
G01 X-20.2832 Y62.2893 
G01 X-20.5136 Y62.4661 
G01 X-21.7836 Y63.7361 
G01 X-21.9889 Y63.9414 
G01 X-22.1657 Y64.1718 
G01 X-22.3108 Y64.4232 
G01 X-22.4219 Y64.6915 
G01 X-22.4971 Y64.9719 
G01 X-22.5350 Y65.2598 
G01 X-22.5350 Y70.6851 
G01 X-23.9299 Y72.0800 
G01 X-25.0255 Y72.0800 
G01 X-25.0517 Y71.8807 
G01 X-25.1269 Y71.6003 
G01 X-25.2380 Y71.3320 
G01 X-25.3831 Y71.0806 
G01 X-25.5599 Y70.8502 
G01 X-25.7652 Y70.6449 
G01 X-25.9956 Y70.4681 
G01 X-26.2468 Y70.3231 
G01 X-26.2711 Y70.2914 
G01 X-26.9950 Y69.5675 
G01 X-26.9950 Y67.5925 
G01 X-26.9823 Y67.5798 
G01 X-26.9098 Y67.4854 
G01 X-26.9004 Y67.4839 
G01 X-26.6905 Y67.4157 
G01 X-26.4939 Y67.3155 
G01 X-26.3153 Y67.1857 
G01 X-26.1593 Y67.0297 
G01 X-26.0295 Y66.8511 
G01 X-25.9293 Y66.6545 
G01 X-25.8611 Y66.4446 
G01 X-25.8266 Y66.2266 
G01 X-25.8266 Y66.0058 
G01 X-25.8611 Y65.7878 
G01 X-25.9293 Y65.5779 
G01 X-26.0295 Y65.3813 
G01 X-26.1593 Y65.2027 
G01 X-26.3153 Y65.0467 
G01 X-26.4939 Y64.9169 
G01 X-26.6905 Y64.8167 
G01 X-26.9004 Y64.7485 
G01 X-26.9098 Y64.7470 
G01 X-26.9823 Y64.6526 
G01 X-26.9950 Y64.6399 
G01 X-26.9950 Y42.2200 
G01 X-19.3682 Y42.2200 
G01 X-18.9633 Y43.0299 
G01 X-18.9618 Y43.0345 
G01 X-18.9183 Y43.1198 
G01 X-18.8757 Y43.2050 
G01 X-18.8729 Y43.2090 
G01 X-18.8706 Y43.2134 
G01 X-18.8144 Y43.2907 
G01 X-18.7589 Y43.3683 
G01 X-18.7555 Y43.3718 
G01 X-18.7527 Y43.3757 
G01 X-18.6851 Y43.4433 
G01 X-18.6181 Y43.5113 
G01 X-18.6142 Y43.5142 
G01 X-18.6107 Y43.5177 
G01 X-18.5334 Y43.5739 
G01 X-18.4566 Y43.6305 
G01 X-18.4523 Y43.6328 
G01 X-18.4484 Y43.6356 
G01 X-18.3631 Y43.6791 
G01 X-18.2785 Y43.7230 
G01 X-18.2738 Y43.7246 
G01 X-18.2695 Y43.7268 
G01 X-18.1786 Y43.7563 
G01 X-18.0880 Y43.7865 
G01 X-18.0832 Y43.7873 
G01 X-18.0786 Y43.7888 
G01 X-17.9841 Y43.8038 
G01 X-17.9478 Y43.8098 
G01 X-24.2304 Y43.8098 
G01 X-24.4286 Y43.8412 
G01 X-24.6195 Y43.9032 
G01 X-24.7984 Y43.9944 
G01 X-24.9607 Y44.1123 
G01 X-25.1027 Y44.2543 
G01 X-25.2206 Y44.4166 
G01 X-25.3118 Y44.5955 
G01 X-25.3738 Y44.7864 
G01 X-25.4052 Y44.9846 
G01 X-25.4052 Y45.1854 
G01 X-25.3738 Y45.3836 
G01 X-25.3118 Y45.5745 
G01 X-25.2206 Y45.7534 
G01 X-25.1027 Y45.9157 
G01 X-24.9607 Y46.0577 
G01 X-24.7984 Y46.1756 
G01 X-24.6195 Y46.2668 
G01 X-24.4286 Y46.3288 
G01 X-24.2304 Y46.3602 
G01 X-14.3219 Y46.3602 
G01 X-14.2797 Y46.4184 
G00 Z2.5400  
G00 X-14.0065 Y49.0054 
G01 Z-0.1778 F100   
G01 X-25.6595 Y58.7163 F80    
G01 X-25.8564 Y58.9297 
G01 X-26.0238 Y59.1670 
G01 X-26.1587 Y59.4241 
G01 X-26.2590 Y59.6966 
G01 X-26.3228 Y59.9799 
G01 X-26.3490 Y60.2690 
G01 X-26.3374 Y60.5592 
G01 X-26.2879 Y60.8453 
G01 X-26.2015 Y61.1225 
G01 X-26.0797 Y61.3861 
G01 X-25.9245 Y61.6315 
G01 X-25.7387 Y61.8545 
G01 X-25.5253 Y62.0514 
G01 X-25.4052 Y62.1361 
G01 X-25.4052 Y69.3154 
G01 X-25.3738 Y69.5136 
G01 X-25.3118 Y69.7045 
G01 X-25.2206 Y69.8834 
G01 X-25.1027 Y70.0457 
G01 X-24.9607 Y70.1877 
G01 X-24.7984 Y70.3056 
G01 X-24.6195 Y70.3968 
G01 X-24.4286 Y70.4588 
G01 X-24.2304 Y70.4902 
G01 X-24.0296 Y70.4902 
G01 X-23.8314 Y70.4588 
G01 X-23.6405 Y70.3968 
G01 X-23.4616 Y70.3056 
G01 X-23.2993 Y70.1877 
G01 X-23.1573 Y70.0457 
G01 X-23.0394 Y69.8834 
G01 X-22.9482 Y69.7045 
G01 X-22.8862 Y69.5136 
G01 X-22.8548 Y69.3154 
G01 X-22.8548 Y62.1393 
G01 X-22.8235 Y62.1196 
G01 X-11.1705 Y52.4087 
G01 X-10.9736 Y52.1953 
G01 X-10.8062 Y51.9580 
G01 X-10.6713 Y51.7009 
G01 X-10.5710 Y51.4284 
G01 X-10.5072 Y51.1451 
G01 X-10.4810 Y50.8560 
G01 X-10.4926 Y50.5658 
G01 X-10.5421 Y50.2797 
G01 X-10.6285 Y50.0025 
G01 X-10.7503 Y49.7389 
G01 X-10.9054 Y49.4935 
G01 X-11.0913 Y49.2705 
G01 X-11.3047 Y49.0736 
G01 X-11.5420 Y48.9062 
G01 X-11.7991 Y48.7713 
G01 X-12.0716 Y48.6710 
G01 X-12.3549 Y48.6072 
G01 X-12.6440 Y48.5810 
G01 X-12.9342 Y48.5926 
G01 X-13.2203 Y48.6421 
G01 X-13.4975 Y48.7285 
G01 X-13.7611 Y48.8503 
G01 X-14.0065 Y49.0054 
G00 Z2.5400  
G00 X-20.3252 Y5.1868  
G01 Z-0.1778 F100   
G01 X-20.8482 Y5.7098  F80    
G01 X-21.4240 Y5.7098  
G01 X-21.2914 Y5.6888  
G01 X-21.1005 Y5.6268  
G01 X-20.9216 Y5.5356  
G01 X-20.7593 Y5.4177  
G01 X-20.6173 Y5.2757  
G01 X-20.4993 Y5.1134  
G01 X-20.4082 Y4.9345  
G01 X-20.3462 Y4.7436  
G01 X-20.3252 Y4.6110  
G01 X-20.3252 Y5.1868  
G00 Z2.5400  
G00 X-20.1888 Y3.4913  
G01 Z-0.1778 F100   
G01 X-19.9422 Y3.4523  F80    
G01 X-19.7811 Y3.4000  
G01 X-19.8807 Y3.4723  
G01 X-20.0227 Y3.6143  
G01 X-20.1406 Y3.7766  
G01 X-20.2318 Y3.9555  
G01 X-20.2938 Y4.1464  
G01 X-20.3148 Y4.2790  
G01 X-20.3148 Y3.4913  
G01 X-20.1888 Y3.4913  
G00 Z2.5400  
G00 X-18.6511 Y73.0662 
G01 Z-0.1778 F100   
G01 X-18.4743 Y72.8358 F80    
G01 X-18.3292 Y72.5844 
G01 X-18.2181 Y72.3161 
G01 X-18.1429 Y72.0357 
G01 X-18.1050 Y71.7478 
G01 X-18.1050 Y66.3500 
G01 X-12.5548 Y66.3500 
G01 X-12.2669 Y66.3121 
G01 X-11.9865 Y66.2369 
G01 X-11.7182 Y66.1258 
G01 X-11.4668 Y65.9807 
G01 X-11.2364 Y65.8039 
G01 X-11.0311 Y65.5986 
G01 X-4.6811 Y59.2486 
G01 X-4.5043 Y59.0182 
G01 X-4.3592 Y58.7668 
G01 X-4.2481 Y58.4985 
G01 X-4.1729 Y58.2181 
G01 X-4.1350 Y57.9302 
G01 X-4.1350 Y44.9398 
G01 X-4.1729 Y44.6519 
G01 X-4.2481 Y44.3715 
G01 X-4.3592 Y44.1032 
G01 X-4.5043 Y43.8518 
G01 X-4.6811 Y43.6214 
G01 X-4.8864 Y43.4161 
G01 X-9.2150 Y39.0875 
G01 X-9.2150 Y24.6198 
G01 X-9.2460 Y24.3844 
G01 X-8.0593 Y23.1977 
G01 X-7.9173 Y23.0557 
G01 X-7.7994 Y22.8934 
G01 X-7.7082 Y22.7145 
G01 X-7.6462 Y22.5236 
G01 X-7.6148 Y22.3254 
G01 X-7.6148 Y6.8846  
G01 X-7.6462 Y6.6864  
G01 X-7.7082 Y6.4955  
G01 X-7.7994 Y6.3166  
G01 X-7.9173 Y6.1543  
G01 X-9.1873 Y4.8843  
G01 X-9.3293 Y4.7423  
G01 X-9.4916 Y4.6244  
G01 X-9.6705 Y4.5332  
G01 X-9.8614 Y4.4712  
G01 X-10.0596 Y4.4398  
G01 X-10.2668 Y4.4398  
G01 X-10.5993 Y4.1073  
G01 X-10.7616 Y3.9894  
G01 X-10.9405 Y3.8982  
G01 X-11.1314 Y3.8362  
G01 X-11.3296 Y3.8048  
G01 X-14.0768 Y3.8048  
G01 X-14.2673 Y3.6143  
G01 X-14.4093 Y3.4723  
G01 X-14.5716 Y3.3544  
G01 X-14.7505 Y3.2632  
G01 X-14.9414 Y3.2012  
G01 X-15.1396 Y3.1698  
G01 X-16.3440 Y3.1698  
G01 X-16.2114 Y3.1488  
G01 X-16.0205 Y3.0868  
G01 X-15.8416 Y2.9956  
G01 X-15.6793 Y2.8777  
G01 X-15.5373 Y2.7357  
G01 X-15.4194 Y2.5734  
G01 X-15.3282 Y2.3945  
G01 X-15.2662 Y2.2036  
G01 X-15.2348 Y2.0054  
G01 X-15.2348 Y1.8046  
G01 X-15.2662 Y1.6064  
G01 X-15.3282 Y1.4155  
G01 X-15.4194 Y1.2366  
G01 X-15.5373 Y1.0743  
G01 X-15.6793 Y0.9323  
G01 X-15.8416 Y0.8144  
G01 X-16.0205 Y0.7232  
G01 X-16.2114 Y0.6612  
G01 X-16.4096 Y0.6298  
G01 X-19.3700 Y0.6298  
G01 X-19.4822 Y0.5482  
G01 X-19.7047 Y0.4349  
G01 X-19.9422 Y0.3577  
G01 X-20.1888 Y0.3186  
G01 X-22.9912 Y0.3186  
G01 X-23.2378 Y0.3577  
G01 X-23.4753 Y0.4349  
G01 X-23.6978 Y0.5482  
G01 X-23.8998 Y0.6950  
G01 X-24.0763 Y0.8716  
G01 X-24.2231 Y1.0736  
G01 X-24.3365 Y1.2961  
G01 X-24.4136 Y1.5335  
G01 X-24.4527 Y1.7802  
G01 X-24.4527 Y2.0298  
G01 X-24.4136 Y2.2765  
G01 X-24.3365 Y2.5139  
G01 X-24.2231 Y2.7364  
G01 X-24.0763 Y2.9384  
G01 X-23.8998 Y3.1150  
G01 X-23.6978 Y3.2618  
G01 X-23.4753 Y3.3751  
G01 X-23.2378 Y3.4523  
G01 X-22.9912 Y3.4913  
G01 X-22.8652 Y3.4913  
G01 X-22.8652 Y4.5454  
G01 X-22.8338 Y4.7436  
G01 X-22.7718 Y4.9345  
G01 X-22.6806 Y5.1134  
G01 X-22.5627 Y5.2757  
G01 X-22.4207 Y5.4177  
G01 X-22.2584 Y5.5356  
G01 X-22.0795 Y5.6268  
G01 X-21.8886 Y5.6888  
G01 X-21.7560 Y5.7098  
G01 X-26.9950 Y5.7098  
G01 X-26.9950 Y3.1839  
G01 X-26.9002 Y3.1150  
G01 X-26.7237 Y2.9384  
G01 X-26.5769 Y2.7364  
G01 X-26.4635 Y2.5139  
G01 X-26.3864 Y2.2765  
G01 X-26.3473 Y2.0298  
G01 X-26.3473 Y1.7802  
G01 X-26.3864 Y1.5335  
G01 X-26.4635 Y1.2961  
G01 X-26.5769 Y1.0736  
G01 X-26.7237 Y0.8716  
G01 X-26.9002 Y0.6950  
G01 X-27.1022 Y0.5482  
G01 X-27.3247 Y0.4349  
G01 X-27.5622 Y0.3577  
G01 X-27.6366 Y0.3459  
G01 X-27.7464 Y0.2361  
G01 X-27.9768 Y0.0593  
G01 X-28.0813 Y-0.0010 
G01 X-4.9387 Y-0.0010 
G01 X-5.0432 Y0.0593  
G01 X-5.2736 Y0.2361  
G01 X-5.3834 Y0.3459  
G01 X-5.4578 Y0.3577  
G01 X-5.6953 Y0.4349  
G01 X-5.9178 Y0.5482  
G01 X-6.1198 Y0.6950  
G01 X-6.2963 Y0.8716  
G01 X-6.4431 Y1.0736  
G01 X-6.5565 Y1.2961  
G01 X-6.6336 Y1.5335  
G01 X-6.6727 Y1.7802  
G01 X-6.6727 Y2.0298  
G01 X-6.6336 Y2.2765  
G01 X-6.5565 Y2.5139  
G01 X-6.4431 Y2.7364  
G01 X-6.2963 Y2.9384  
G01 X-6.1198 Y3.1150  
G01 X-6.0250 Y3.1839  
G01 X-6.0250 Y3.6778  
G01 X-6.4604 Y3.6778  
G01 X-6.6784 Y3.7123  
G01 X-6.8883 Y3.7805  
G01 X-7.0849 Y3.8807  
G01 X-7.2635 Y4.0105  
G01 X-7.4195 Y4.1665  
G01 X-7.5493 Y4.3451  
G01 X-7.6495 Y4.5417  
G01 X-7.7177 Y4.7516  
G01 X-7.7522 Y4.9696  
G01 X-7.7522 Y5.1904  
G01 X-7.7177 Y5.4084  
G01 X-7.6495 Y5.6183  
G01 X-7.5493 Y5.8149  
G01 X-7.4195 Y5.9935  
G01 X-7.2635 Y6.1495  
G01 X-7.0849 Y6.2793  
G01 X-6.8883 Y6.3795  
G01 X-6.6784 Y6.4477  
G01 X-6.4604 Y6.4822  
G01 X-6.0250 Y6.4822  
G01 X-6.0250 Y22.5152 
G01 X-6.4422 Y22.5500 
G01 X-6.4952 Y22.5500 
G01 X-6.5866 Y22.5620 
G01 X-6.6786 Y22.5697 
G01 X-6.7305 Y22.5810 
G01 X-6.7831 Y22.5879 
G01 X-6.8721 Y22.6118 
G01 X-6.9624 Y22.6314 
G01 X-7.0123 Y22.6493 
G01 X-7.0635 Y22.6631 
G01 X-7.1487 Y22.6983 
G01 X-7.2356 Y22.7296 
G01 X-7.2828 Y22.7539 
G01 X-7.3318 Y22.7742 
G01 X-7.4117 Y22.8203 
G01 X-7.4937 Y22.8626 
G01 X-7.5373 Y22.8928 
G01 X-7.5832 Y22.9193 
G01 X-7.6564 Y22.9755 
G01 X-7.7322 Y23.0281 
G01 X-7.7715 Y23.0638 
G01 X-7.8136 Y23.0961 
G01 X-7.8788 Y23.1613 
G01 X-7.9471 Y23.2234 
G01 X-7.9814 Y23.2639 
G01 X-8.0189 Y23.3014 
G01 X-8.0751 Y23.3746 
G01 X-8.1347 Y23.4451 
G01 X-8.1634 Y23.4897 
G01 X-8.1957 Y23.5318 
G01 X-8.2418 Y23.6117 
G01 X-8.2917 Y23.6893 
G01 X-8.3143 Y23.7373 
G01 X-8.3408 Y23.7832 
G01 X-8.3761 Y23.8685 
G01 X-8.4155 Y23.9519 
G01 X-8.4317 Y24.0025 
G01 X-8.4519 Y24.0515 
G01 X-8.4758 Y24.1406 
G01 X-8.5039 Y24.2285 
G01 X-8.5134 Y24.2807 
G01 X-8.5271 Y24.3319 
G01 X-8.5391 Y24.4234 
G01 X-8.5555 Y24.5142 
G01 X-8.5581 Y24.5672 
G01 X-8.5650 Y24.6198 
G01 X-8.5650 Y24.7121 
G01 X-8.5694 Y24.8043 
G01 X-8.5650 Y24.8572 
G01 X-8.5650 Y24.9102 
G01 X-8.5530 Y25.0016 
G01 X-8.5453 Y25.0936 
G01 X-8.5340 Y25.1455 
G01 X-8.5271 Y25.1981 
G01 X-8.5032 Y25.2871 
G01 X-8.4836 Y25.3774 
G01 X-8.4657 Y25.4273 
G01 X-8.4519 Y25.4785 
G01 X-8.4167 Y25.5637 
G01 X-8.3854 Y25.6506 
G01 X-8.3611 Y25.6978 
G01 X-8.3408 Y25.7468 
G01 X-8.2947 Y25.8267 
G01 X-8.2524 Y25.9087 
G01 X-8.2222 Y25.9523 
G01 X-8.1957 Y25.9982 
G01 X-8.1395 Y26.0714 
G01 X-8.0869 Y26.1472 
G01 X-8.0512 Y26.1865 
G01 X-8.0189 Y26.2286 
G01 X-7.9537 Y26.2938 
G01 X-7.8916 Y26.3621 
G01 X-7.8511 Y26.3964 
G01 X-7.2525 Y26.9950 
G01 X-7.7444 Y26.9950 
G01 X-7.9900 Y27.0339 
G01 X-8.2265 Y27.1108 
G01 X-8.4481 Y27.2237 
G01 X-8.6493 Y27.3698 
G01 X-8.8252 Y27.5457 
G01 X-8.9713 Y27.7469 
G01 X-9.0842 Y27.9685 
G01 X-9.1611 Y28.2050 
G01 X-9.2000 Y28.4506 
G01 X-9.2000 Y28.6994 
G01 X-9.1611 Y28.9450 
G01 X-9.0842 Y29.1815 
G01 X-8.9713 Y29.4031 
G01 X-8.8252 Y29.6043 
G01 X-8.6493 Y29.7802 
G01 X-8.4481 Y29.9263 
G01 X-8.2265 Y30.0392 
G01 X-7.9900 Y30.1161 
G01 X-7.7444 Y30.1550 
G01 X-5.3625 Y30.1550 
G01 X-5.2736 Y30.2439 
G01 X-5.0432 Y30.4207 
G01 X-4.7918 Y30.5658 
G01 X-4.7550 Y30.5811 
G01 X-4.7550 Y35.2775 
G01 X-6.7489 Y37.2714 
G01 X-6.9257 Y37.5018 
G01 X-7.0708 Y37.7532 
G01 X-7.1819 Y38.0215 
G01 X-7.2571 Y38.3019 
G01 X-7.2950 Y38.5898 
G01 X-7.2950 Y40.1502 
G01 X-7.2571 Y40.4381 
G01 X-7.1819 Y40.7185 
G01 X-7.0708 Y40.9868 
G01 X-6.9257 Y41.2382 
G01 X-6.7489 Y41.4686 
G01 X-6.5436 Y41.6739 
G01 X-6.3132 Y41.8507 
G01 X-6.0618 Y41.9958 
G01 X-5.7935 Y42.1069 
G01 X-5.5131 Y42.1821 
G01 X-5.2252 Y42.2200 
G01 X-4.9348 Y42.2200 
G01 X-4.6469 Y42.1821 
G01 X-4.3665 Y42.1069 
G01 X-4.0982 Y41.9958 
G01 X-3.8468 Y41.8507 
G01 X-3.6164 Y41.6739 
G01 X-3.4111 Y41.4686 
G01 X-3.2343 Y41.2382 
G01 X-3.0892 Y40.9868 
G01 X-2.9781 Y40.7185 
G01 X-2.9029 Y40.4381 
G01 X-2.8650 Y40.1502 
G01 X-2.8650 Y39.6525 
G01 X-1.0764 Y37.8639 
G01 X-0.8711 Y37.6586 
G01 X-0.6943 Y37.4282 
G01 X-0.5492 Y37.1768 
G01 X-0.4380 Y36.9085 
G01 X-0.3629 Y36.6281 
G01 X-0.3250 Y36.3402 
G01 X-0.3250 Y28.4298 
G01 X-0.3629 Y28.1419 
G01 X-0.4380 Y27.8615 
G01 X-0.5492 Y27.5932 
G01 X-0.6943 Y27.3418 
G01 X-0.8711 Y27.1114 
G01 X-1.0764 Y26.9061 
G01 X-1.5061 Y26.4764 
G01 X-1.7114 Y26.2711 
G01 X-1.8228 Y26.1597 
G01 X-1.7238 Y26.0719 
G01 X-1.7149 Y26.0617 
G01 X-1.7049 Y26.0526 
G01 X-1.6198 Y25.9521 
G01 X-1.5335 Y25.8526 
G01 X-1.5261 Y25.8413 
G01 X-1.5173 Y25.8309 
G01 X-1.4462 Y25.7202 
G01 X-1.3736 Y25.6103 
G01 X-1.3676 Y25.5981 
G01 X-1.3603 Y25.5867 
G01 X-1.3042 Y25.4676 
G01 X-1.2466 Y25.3492 
G01 X-1.2423 Y25.3363 
G01 X-1.2365 Y25.3240 
G01 X-1.1964 Y25.1987 
G01 X-1.1548 Y25.0737 
G01 X-1.1522 Y25.0604 
G01 X-1.1481 Y25.0475 
G01 X-1.1247 Y24.9180 
G01 X-1.0997 Y24.7886 
G01 X-1.0989 Y24.7751 
G01 X-1.0965 Y24.7618 
G01 X-1.0902 Y24.6302 
G01 X-1.0823 Y24.4988 
G01 X-1.0832 Y24.4853 
G01 X-1.0826 Y24.4717 
G01 X-1.0935 Y24.3405 
G01 X-1.1029 Y24.2092 
G01 X-1.1056 Y24.1959 
G01 X-1.1067 Y24.1824 
G01 X-1.1347 Y24.0537 
G01 X-1.1611 Y23.9247 
G01 X-1.1655 Y23.9119 
G01 X-1.1684 Y23.8986 
G01 X-1.2130 Y23.7746 
G01 X-1.2559 Y23.6503 
G01 X-1.2620 Y23.6382 
G01 X-1.2666 Y23.6254 
G01 X-1.3269 Y23.5082 
G01 X-1.5950 Y22.9721 
G01 X-1.5950 Y3.1839  
G01 X-1.5002 Y3.1150  
G01 X-1.3236 Y2.9384  
G01 X-1.1769 Y2.7364  
G01 X-1.0635 Y2.5139  
G01 X-0.9864 Y2.2765  
G01 X-0.9473 Y2.0298  
G01 X-0.9473 Y1.7802  
G01 X-0.9864 Y1.5335  
G01 X-1.0635 Y1.2961  
G01 X-1.1769 Y1.0736  
G01 X-1.3236 Y0.8716  
G01 X-1.5002 Y0.6950  
G01 X-1.7022 Y0.5482  
G01 X-1.9247 Y0.4349  
G01 X-2.1622 Y0.3577  
G01 X-2.2366 Y0.3459  
G01 X-2.3464 Y0.2361  
G01 X-2.5768 Y0.0593  
G01 X-2.6813 Y-0.0010 
G01 X1.1017  Y-0.0010 
G01 X1.1017  Y76.2010 
G01 X-21.7313 Y76.2010 
G01 X-21.6268 Y76.1407 
G01 X-21.3964 Y75.9639 
G01 X-21.1911 Y75.7586 
G01 X-21.0143 Y75.5282 
G01 X-20.8794 Y75.2945 
G01 X-19.3623 Y73.7774 
G01 X-18.6511 Y73.0662 
G00 Z2.5400  
G00 X-19.3486 Y3.2012  
G01 Z-0.1778 F100   
G01 X-19.4395 Y3.2307  F80    
G01 X-19.3700 Y3.1802  
G01 X-19.2160 Y3.1802  
G01 X-19.3486 Y3.2012  
G00 Z2.5400  
G00 X-15.7115 Y5.8900  
G01 Z-0.1778 F100   
G01 X-15.7997 Y5.8259  F80    
G01 X-15.8502 Y5.8002  
G01 X-15.8013 Y5.8002  
G01 X-15.7115 Y5.8900  
G00 Z2.5400  
G00 X-15.2259 Y15.1252 
G01 Z-0.1778 F100   
G01 X-15.1982 Y15.1796 F80    
G01 X-15.1982 Y15.9168 
