(.../pcb-gcode-3.6.0.4/pcb-gcode.ulp)
(Copyright 2005 - 2012 by John Johnson)
(See readme.txt for licensing terms.)
(This file generated from the board:)
(.../HF PreAmp/40M_100mWattWSPRamp.brd)
(Current profile is .../pcb-gcode-3.6.0.4/profiles/mach.pp  )
(This file generated 4/24/2017 11:54 AM)
(Settings from pcb-machine.h)
(  Tool Size)
(0.1000  )
(Z Axis Settings)
(  High     Up        Down     Drill)
(12.7000 	2.5400  	-0.1778 	-1.7200 )
(spindle on time = 3.0000)
(milling depth = -0.2500)
(text depth = -0.1270)
(tool change at 0.0000  0.0000  25.4000 )
(feed rate xy = F80    )
(feed rate z  = F100   )
(Settings from pcb-defaults.h)
(isolate min = 0.1000)
(isolate max = 0.5080)
(isolate step = 0.0800)
(Generated bottom outlines, bottom drill, )
(Unit of measure: mm)
( Tool|       Size       |  Min Sub |  Max Sub |   Count )
( T01 | 0.813mm 0.0320in | 0.0000in | 0.0000in |       0 )
( T02 | 0.914mm 0.0360in | 0.0000in | 0.0000in |       0 )
( T03 | 1.016mm 0.0400in | 0.0000in | 0.0000in |       0 )
( T04 | 1.200mm 0.0472in | 0.0000in | 0.0000in |       0 )
( T05 | 1.300mm 0.0512in | 0.0000in | 0.0000in |       0 )
( T06 | 1.702mm 0.0670in | 0.0000in | 0.0000in |       0 )
(Metric Mode)
G21
(Absolute Coordinates)
G90
M05
G00 Z25.4000 
G00 X0.0000  Y0.0000  
M06 T01  ; 0.8128  
G01 Z0.0000  F100   
M06 T01  ; 0.8128  
G00 Z2.5400  
M03
G04 P3.000000
G82 X-3.8100 Y9.5250  Z-1.7200 F100   R2.5400  P1.000000
G82 X-3.8100 Y14.6050 
G82 X-3.8100 Y20.9550 
G82 X-5.0800 Y40.0050 
G82 X-6.3500 Y5.0800  
G82 X-6.3500 Y24.7650 
G82 X-7.6200 Y28.5750 
G82 X-11.4300 Y5.0800  
G82 X-11.4300 Y9.5250  
G82 X-11.4300 Y14.6050 
G82 X-11.4300 Y20.9550 
G82 X-11.4300 Y24.7650 
G82 X-11.4300 Y31.1150 
G82 X-12.7000 Y40.0050 
G82 X-13.9700 Y14.6050 
G82 X-13.9700 Y20.9550 
G82 X-15.2400 Y40.0050 
G82 X-15.2400 Y45.0850 
G82 X-15.2400 Y28.5750 
G82 X-16.5100 Y6.9850  
G82 X-16.5100 Y9.5250  
G82 X-16.5100 Y14.6050 
G82 X-16.5100 Y1.9050  
G82 X-16.5100 Y20.9550 
G82 X-16.5100 Y31.1150 
G82 X-19.0500 Y33.6550 
G82 X-19.0500 Y36.1950 
G82 X-19.0500 Y14.6050 
G82 X-19.0500 Y20.9550 
G82 X-19.0500 Y24.1300 
G82 X-19.0500 Y26.6700 
G82 X-19.0500 Y29.2100 
G82 X-19.0500 Y31.1150 
G82 X-21.5900 Y36.1950 
G82 X-21.5900 Y4.4450  
G82 X-21.5900 Y15.8750 
G82 X-21.5900 Y30.4800 
G82 X-24.1300 Y45.0850 
G82 X-24.1300 Y60.3250 
G82 X-24.1300 Y9.5250  
G82 X-24.1300 Y12.0650 
G82 X-24.1300 Y18.4150 
G82 X-24.1300 Y26.0350 
G82 X-29.2100 Y36.1950 
G82 X-29.2100 Y4.4450  
G82 X-29.2100 Y45.0850 
G82 X-29.2100 Y60.3250 
G82 X-29.2100 Y12.0650 
G82 X-29.2100 Y15.8750 
G82 X-29.2100 Y30.4800 
M05
G00 Z25.4000 
M06 T02  ; 0.9144  
G01 Z0.0000  F100   
M06 T02  ; 0.9144  
G00 Z2.5400  
M03
G04 P3.000000
G82 X-15.2400 Y36.1950 Z-1.7200 F100   R2.5400  P1.000000
G82 X-2.5400 Y36.1950 
M05
G00 Z25.4000 
M06 T03  ; 1.0160  
G01 Z0.0000  F100   
M06 T03  ; 1.0160  
G00 Z2.5400  
M03
G04 P3.000000
G82 X-12.7000 Y45.7200 Z-1.7200 F100   R2.5400  P1.000000
G82 X-12.7000 Y50.8000 
M05
G00 Z25.4000 
M06 T04  ; 1.2000  
G01 Z0.0000  F100   
M06 T04  ; 1.2000  
G00 Z2.5400  
M03
G04 P3.000000
G82 X-24.1300 Y69.2150 Z-1.7200 F100   R2.5400  P1.000000
M05
G00 Z25.4000 
M06 T05  ; 1.3000  
G01 Z0.0000  F100   
M06 T05  ; 1.3000  
G00 Z2.5400  
M03
G04 P3.000000
G82 X-21.0312 Y66.1162 Z-1.7200 F100   R2.5400  P1.000000
G82 X-21.0312 Y72.3138 
G82 X-27.2288 Y66.1162 
G82 X-27.2288 Y72.3138 
M05
G00 Z25.4000 
M06 T06  ; 1.7018  
G01 Z0.0000  F100   
M06 T06  ; 1.7018  
G00 Z2.5400  
M03
G04 P3.000000
G82 X-3.8100 Y1.9050  Z-1.7200 F100   R2.5400  P1.000000
G82 X-21.5900 Y1.9050  
G82 X-29.2100 Y1.9050  
T01 
G00 Z12.7000 
M05
M02
