(.../pcb-gcode-3.6.0.4/pcb-gcode.ulp)
(Copyright 2005 - 2012 by John Johnson)
(See readme.txt for licensing terms.)
(This file generated from the board:)
(.../ SDR 74HC4052/SDR 74HC4052_Si5351R0.brd)
(Current profile is .../pcb-gcode-3.6.0.4/profiles/mach.pp  )
(This file generated 2/20/2018 11:30 PM)
(Settings from pcb-machine.h)
(  Tool Size)
(0.1000  )
(Z Axis Settings)
(  High     Up        Down     Drill)
(12.7000 	2.5400  	-0.1778 	-1.7200 )
(spindle on time = 3.0000)
(milling depth = -0.2500)
(text depth = -0.1270)
(tool change at 0.0000  0.0000  25.4000 )
(feed rate xy = F80    )
(feed rate z  = F100   )
(Settings from pcb-defaults.h)
(isolate min = 0.1000)
(isolate max = 0.5080)
(isolate step = 0.0800)
(Generated bottom outlines, bottom drill, )
(Unit of measure: mm)
(Metric Mode)
G21
(Absolute Coordinates)
G90
G00 X0.0000  Y0.0000  
M03
G04 P3.000000
G00 Z2.5400  
G00 X-10.8095 Y8.0143  
G01 Z-0.1778 F100   
G01 X-10.9780 Y7.9445  F80    
G01 X-11.7118 Y7.2107  
G01 X-11.7118 Y5.4893  
G01 X-10.5927 Y4.3703  
G01 X-10.4554 Y4.3485  
G01 X-10.2869 Y4.2938  
G01 X-10.1292 Y4.2134  
G01 X-9.9859 Y4.1093  
G01 X-9.8607 Y3.9841  
G01 X-9.7566 Y3.8408  
G01 X-9.6762 Y3.6831  
G01 X-9.6392 Y3.5691  
G01 X-9.5301 Y3.4600  
G01 X-9.3924 Y3.3223  
G01 X-9.2843 Y3.1605  
G01 X-9.2145 Y2.9920  
G01 X-8.4807 Y2.2582  
G01 X-6.7593 Y2.2582  
G01 X-5.6403 Y3.3773  
G01 X-5.6185 Y3.5146  
G01 X-5.5638 Y3.6831  
G01 X-5.4834 Y3.8408  
G01 X-5.3793 Y3.9841  
G01 X-5.2541 Y4.1093  
G01 X-5.1108 Y4.2134  
G01 X-4.9531 Y4.2938  
G01 X-4.7846 Y4.3485  
G01 X-4.6473 Y4.3703  
G01 X-3.5282 Y5.4893  
G01 X-3.5282 Y7.2107  
G01 X-4.2620 Y7.9445  
G01 X-4.4305 Y8.0143  
G01 X-4.4522 Y8.0288  
G01 X-4.6330 Y8.0288  
G01 X-4.8537 Y8.0638  
G01 X-5.0663 Y8.1328  
G01 X-5.2654 Y8.2343  
G01 X-5.4463 Y8.3657  
G01 X-5.6043 Y8.5237  
G01 X-5.7357 Y8.7046  
G01 X-5.8372 Y8.9037  
G01 X-5.9062 Y9.1163  
G01 X-5.9412 Y9.3370  
G01 X-5.9412 Y9.5606  
G01 X-5.9062 Y9.7813  
G01 X-5.8372 Y9.9939  
G01 X-5.7357 Y10.1930 
G01 X-5.6043 Y10.3739 
G01 X-4.5950 Y11.3832 
G01 X-4.5950 Y19.0778 
G01 X-9.3750 Y19.0778 
G01 X-9.3750 Y9.4132  
G01 X-9.4100 Y9.1925  
G01 X-9.4790 Y8.9799  
G01 X-9.5805 Y8.7808  
G01 X-9.7119 Y8.5999  
G01 X-9.8699 Y8.4419  
G01 X-10.0508 Y8.3105  
G01 X-10.2499 Y8.2090  
G01 X-10.4625 Y8.1400  
G01 X-10.6708 Y8.1070  
G01 X-10.8095 Y8.0143  
G00 Z2.5400  
G00 X-8.6700 Y6.2674  
G01 Z-0.1778 F100   
G01 X-8.6700 Y6.4326  F80    
G01 X-8.6441 Y6.5959  
G01 X-8.6082 Y6.7065  
G01 X-8.6082 Y17.8773 
G01 X-8.5702 Y18.0682 
G01 X-8.4957 Y18.2481 
G01 X-8.3876 Y18.4099 
G01 X-8.2499 Y18.5476 
G01 X-8.0881 Y18.6557 
G01 X-7.9082 Y18.7302 
G01 X-7.7173 Y18.7682 
G01 X-7.5227 Y18.7682 
G01 X-7.3318 Y18.7302 
G01 X-7.1519 Y18.6557 
G01 X-6.9901 Y18.5476 
G01 X-6.8524 Y18.4099 
G01 X-6.7443 Y18.2481 
G01 X-6.6698 Y18.0682 
G01 X-6.6318 Y17.8773 
G01 X-6.6318 Y6.7065  
G01 X-6.5959 Y6.5959  
G01 X-6.5700 Y6.4326  
G01 X-6.5700 Y6.2674  
G01 X-6.5959 Y6.1041  
G01 X-6.6469 Y5.9469  
G01 X-6.7220 Y5.7997  
G01 X-6.8191 Y5.6660  
G01 X-6.9360 Y5.5491  
G01 X-7.0697 Y5.4520  
G01 X-7.2169 Y5.3769  
G01 X-7.3741 Y5.3259  
G01 X-7.5374 Y5.3000  
G01 X-7.7026 Y5.3000  
G01 X-7.8659 Y5.3259  
G01 X-8.0231 Y5.3769  
G01 X-8.1703 Y5.4520  
G01 X-8.3040 Y5.5491  
G01 X-8.4209 Y5.6660  
G01 X-8.5180 Y5.7997  
G01 X-8.5931 Y5.9469  
G01 X-8.6441 Y6.1041  
G01 X-8.6700 Y6.2674  
G00 Z2.5400  
G00 X-43.1522 Y21.4922 
G01 Z-0.1778 F100   
G01 X-43.1522 Y21.6878 F80    
G01 X-43.1216 Y21.8809 
G01 X-43.0612 Y22.0668 
G01 X-42.9724 Y22.2411 
G01 X-42.8575 Y22.3992 
G01 X-42.7192 Y22.5375 
G01 X-42.5680 Y22.6474 
G01 X-42.5680 Y29.3457 
G01 X-42.6282 Y29.4357 
G01 X-42.6893 Y29.5832 
G01 X-42.7204 Y29.7398 
G01 X-42.7204 Y31.2202 
G01 X-42.6893 Y31.3768 
G01 X-42.6282 Y31.5243 
G01 X-42.5395 Y31.6570 
G01 X-42.4266 Y31.7699 
G01 X-42.2939 Y31.8586 
G01 X-42.1464 Y31.9197 
G01 X-41.9898 Y31.9508 
G01 X-41.8302 Y31.9508 
G01 X-41.6736 Y31.9197 
G01 X-41.5261 Y31.8586 
G01 X-41.3934 Y31.7699 
G01 X-41.2805 Y31.6570 
G01 X-41.1918 Y31.5243 
G01 X-41.1307 Y31.3768 
G01 X-41.0996 Y31.2202 
G01 X-41.0996 Y29.7398 
G01 X-41.1307 Y29.5832 
G01 X-41.1918 Y29.4357 
G01 X-41.2520 Y29.3457 
G01 X-41.2520 Y22.6474 
G01 X-41.1008 Y22.5375 
G01 X-40.9625 Y22.3992 
G01 X-40.8476 Y22.2411 
G01 X-40.7588 Y22.0668 
G01 X-40.6984 Y21.8809 
G01 X-40.6678 Y21.6878 
G01 X-40.6678 Y21.4922 
G01 X-40.6984 Y21.2991 
G01 X-40.7588 Y21.1132 
G01 X-40.8476 Y20.9389 
G01 X-40.9625 Y20.7808 
G01 X-41.1008 Y20.6425 
G01 X-41.2589 Y20.5276 
G01 X-41.4332 Y20.4388 
G01 X-41.6191 Y20.3784 
G01 X-41.8122 Y20.3478 
G01 X-42.0078 Y20.3478 
G01 X-42.2009 Y20.3784 
G01 X-42.3868 Y20.4388 
G01 X-42.5611 Y20.5276 
G01 X-42.7192 Y20.6425 
G01 X-42.8575 Y20.7808 
G01 X-42.9724 Y20.9389 
G01 X-43.0612 Y21.1132 
G01 X-43.1216 Y21.2991 
G01 X-43.1522 Y21.4922 
G00 Z2.5400  
G00 X-37.7775 Y49.0692 
G01 Z-0.1778 F100   
G01 X-37.6392 Y49.2075 F80    
G01 X-37.4811 Y49.3224 
G01 X-37.3068 Y49.4112 
G01 X-37.1209 Y49.4716 
G01 X-36.9278 Y49.5022 
G01 X-36.7322 Y49.5022 
G01 X-36.5391 Y49.4716 
G01 X-36.3532 Y49.4112 
G01 X-36.1789 Y49.3224 
G01 X-36.0208 Y49.2075 
G01 X-35.8825 Y49.0692 
G01 X-35.7676 Y48.9111 
G01 X-35.6788 Y48.7368 
G01 X-35.6184 Y48.5509 
G01 X-35.5878 Y48.3578 
G01 X-35.5878 Y48.1622 
G01 X-35.6184 Y47.9691 
G01 X-35.6788 Y47.7832 
G01 X-35.7676 Y47.6089 
G01 X-35.8825 Y47.4508 
G01 X-36.0208 Y47.3125 
G01 X-36.1789 Y47.1976 
G01 X-36.3532 Y47.1088 
G01 X-36.5391 Y47.0484 
G01 X-36.7322 Y47.0178 
G01 X-36.9278 Y47.0178 
G01 X-37.1209 Y47.0484 
G01 X-37.3068 Y47.1088 
G01 X-37.4811 Y47.1976 
G01 X-37.6392 Y47.3125 
G01 X-37.7775 Y47.4508 
G01 X-37.8874 Y47.6020 
G01 X-41.1705 Y47.6020 
G01 X-41.2801 Y47.4924 
G01 X-41.4419 Y47.3843 
G01 X-41.6217 Y47.3098 
G01 X-41.8127 Y47.2718 
G01 X-42.0073 Y47.2718 
G01 X-42.1982 Y47.3098 
G01 X-42.3781 Y47.3843 
G01 X-42.5399 Y47.4924 
G01 X-42.6776 Y47.6301 
G01 X-42.7857 Y47.7919 
G01 X-42.8602 Y47.9718 
G01 X-42.8982 Y48.1627 
G01 X-42.8982 Y48.3573 
G01 X-42.8602 Y48.5482 
G01 X-42.7857 Y48.7281 
G01 X-42.6776 Y48.8899 
G01 X-42.5399 Y49.0276 
G01 X-42.3781 Y49.1357 
G01 X-42.1982 Y49.2102 
G01 X-42.0073 Y49.2482 
G01 X-41.8127 Y49.2482 
G01 X-41.6217 Y49.2102 
G01 X-41.4419 Y49.1357 
G01 X-41.2801 Y49.0276 
G01 X-41.1705 Y48.9180 
G01 X-37.8874 Y48.9180 
G01 X-37.7775 Y49.0692 
G00 Z2.5400  
G00 X-55.5982 Y43.0827 
G01 Z-0.1778 F100   
G01 X-55.5982 Y43.2773 F80    
G01 X-55.5602 Y43.4682 
G01 X-55.4857 Y43.6481 
G01 X-55.3776 Y43.8099 
G01 X-55.2399 Y43.9476 
G01 X-55.0781 Y44.0557 
G01 X-54.8982 Y44.1302 
G01 X-54.7073 Y44.1682 
G01 X-54.5127 Y44.1682 
G01 X-54.3218 Y44.1302 
G01 X-54.1419 Y44.0557 
G01 X-53.9801 Y43.9476 
G01 X-53.8424 Y43.8099 
G01 X-53.7343 Y43.6481 
G01 X-53.6598 Y43.4682 
G01 X-53.6218 Y43.2773 
G01 X-53.6218 Y43.1224 
G01 X-51.5589 Y41.0595 
G01 X-51.4869 Y40.9517 
G01 X-51.4373 Y40.8319 
G01 X-51.4120 Y40.7048 
G01 X-51.4120 Y39.2343 
G01 X-51.3518 Y39.1443 
G01 X-51.2907 Y38.9968 
G01 X-51.2596 Y38.8402 
G01 X-51.2596 Y37.3598 
G01 X-51.2907 Y37.2032 
G01 X-51.3518 Y37.0557 
G01 X-51.4405 Y36.9230 
G01 X-51.5534 Y36.8101 
G01 X-51.6861 Y36.7214 
G01 X-51.8336 Y36.6603 
G01 X-51.9902 Y36.6292 
G01 X-52.1498 Y36.6292 
G01 X-52.3064 Y36.6603 
G01 X-52.4539 Y36.7214 
G01 X-52.5866 Y36.8101 
G01 X-52.6995 Y36.9230 
G01 X-52.7882 Y37.0557 
G01 X-52.8493 Y37.2032 
G01 X-52.8804 Y37.3598 
G01 X-52.8804 Y38.8402 
G01 X-52.8493 Y38.9968 
G01 X-52.7882 Y39.1443 
G01 X-52.7280 Y39.2343 
G01 X-52.7280 Y40.3674 
G01 X-54.5524 Y42.1918 
G01 X-54.7073 Y42.1918 
G01 X-54.8982 Y42.2298 
G01 X-55.0781 Y42.3043 
G01 X-55.2399 Y42.4124 
G01 X-55.3776 Y42.5501 
G01 X-55.4857 Y42.7119 
G01 X-55.5602 Y42.8918 
G01 X-55.5982 Y43.0827 
G00 Z2.5400  
G00 X-55.4712 Y71.6702 
G01 Z-0.1778 F100   
G01 X-55.4712 Y71.8398 F80    
G01 X-55.4381 Y72.0062 
G01 X-55.3732 Y72.1629 
G01 X-55.2789 Y72.3040 
G01 X-55.1590 Y72.4239 
G01 X-55.0179 Y72.5182 
G01 X-54.8612 Y72.5831 
G01 X-54.6948 Y72.6162 
G01 X-54.5252 Y72.6162 
G01 X-54.3588 Y72.5831 
G01 X-54.2021 Y72.5182 
G01 X-54.0610 Y72.4239 
G01 X-53.9411 Y72.3040 
G01 X-53.8468 Y72.1629 
G01 X-53.7819 Y72.0062 
G01 X-53.7488 Y71.8398 
G01 X-53.7488 Y71.6702 
G01 X-53.7819 Y71.5038 
G01 X-53.8468 Y71.3471 
G01 X-53.9411 Y71.2060 
G01 X-53.9600 Y71.1871 
G01 X-53.9600 Y69.1479 
G01 X-53.9411 Y69.1290 
G01 X-53.8468 Y68.9879 
G01 X-53.7819 Y68.8312 
G01 X-53.7488 Y68.6648 
G01 X-53.7488 Y68.4952 
G01 X-53.7819 Y68.3288 
G01 X-53.8468 Y68.1721 
G01 X-53.9411 Y68.0310 
G01 X-54.0610 Y67.9111 
G01 X-54.2021 Y67.8168 
G01 X-54.3588 Y67.7519 
G01 X-54.5252 Y67.7188 
G01 X-54.6948 Y67.7188 
G01 X-54.8612 Y67.7519 
G01 X-55.0179 Y67.8168 
G01 X-55.1590 Y67.9111 
G01 X-55.2789 Y68.0310 
G01 X-55.3732 Y68.1721 
G01 X-55.4381 Y68.3288 
G01 X-55.4712 Y68.4952 
G01 X-55.4712 Y68.6648 
G01 X-55.4381 Y68.8312 
G01 X-55.3732 Y68.9879 
G01 X-55.2789 Y69.1290 
G01 X-55.2600 Y69.1479 
G01 X-55.2600 Y71.1871 
G01 X-55.2789 Y71.2060 
G01 X-55.3732 Y71.3471 
G01 X-55.4381 Y71.5038 
G01 X-55.4712 Y71.6702 
G00 Z2.5400  
G00 X-45.4382 Y71.6577 
G01 Z-0.1778 F100   
G01 X-45.4382 Y71.8523 F80    
G01 X-45.4002 Y72.0432 
G01 X-45.3257 Y72.2231 
G01 X-45.2176 Y72.3849 
G01 X-45.0799 Y72.5226 
G01 X-44.9181 Y72.6307 
G01 X-44.7382 Y72.7052 
G01 X-44.5473 Y72.7432 
G01 X-44.3527 Y72.7432 
G01 X-44.1618 Y72.7052 
G01 X-43.9819 Y72.6307 
G01 X-43.8201 Y72.5226 
G01 X-43.6824 Y72.3849 
G01 X-43.5743 Y72.2231 
G01 X-43.4998 Y72.0432 
G01 X-43.4618 Y71.8523 
G01 X-43.4618 Y71.6577 
G01 X-43.4998 Y71.4668 
G01 X-43.5743 Y71.2869 
G01 X-43.6824 Y71.1251 
G01 X-43.7920 Y71.0155 
G01 X-43.7920 Y70.6604 
G01 X-43.7098 Y70.6604 
G01 X-43.5532 Y70.6293 
G01 X-43.4057 Y70.5682 
G01 X-43.2730 Y70.4795 
G01 X-43.1601 Y70.3666 
G01 X-43.0714 Y70.2339 
G01 X-43.0103 Y70.0864 
G01 X-42.9792 Y69.9298 
G01 X-42.9792 Y69.7702 
G01 X-43.0103 Y69.6136 
G01 X-43.0714 Y69.4661 
G01 X-43.1601 Y69.3334 
G01 X-43.2730 Y69.2205 
G01 X-43.4057 Y69.1318 
G01 X-43.5532 Y69.0707 
G01 X-43.7098 Y69.0396 
G01 X-45.1902 Y69.0396 
G01 X-45.3468 Y69.0707 
G01 X-45.4943 Y69.1318 
G01 X-45.6270 Y69.2205 
G01 X-45.7399 Y69.3334 
G01 X-45.8286 Y69.4661 
G01 X-45.8897 Y69.6136 
G01 X-45.9208 Y69.7702 
G01 X-45.9208 Y69.9298 
G01 X-45.8897 Y70.0864 
G01 X-45.8286 Y70.2339 
G01 X-45.7399 Y70.3666 
G01 X-45.6270 Y70.4795 
G01 X-45.4943 Y70.5682 
G01 X-45.3468 Y70.6293 
G01 X-45.1902 Y70.6604 
G01 X-45.1080 Y70.6604 
G01 X-45.1080 Y71.0155 
G01 X-45.2176 Y71.1251 
G01 X-45.3257 Y71.2869 
G01 X-45.4002 Y71.4668 
G01 X-45.4382 Y71.6577 
G00 Z2.5400  
G00 X-68.0902 Y68.3538 
G01 Z-0.1778 F100   
G01 X-68.1119 Y68.3393 F80    
G01 X-68.2918 Y68.2648 
G01 X-68.4827 Y68.2268 
G01 X-68.6773 Y68.2268 
G01 X-68.8682 Y68.2648 
G01 X-69.0481 Y68.3393 
G01 X-69.2099 Y68.4474 
G01 X-69.3476 Y68.5851 
G01 X-69.4557 Y68.7469 
G01 X-69.5302 Y68.9267 
G01 X-69.5682 Y69.1177 
G01 X-69.5682 Y71.4018 
G01 X-71.2173 Y71.4018 
G01 X-71.4082 Y71.4398 
G01 X-71.5881 Y71.5143 
G01 X-71.7499 Y71.6224 
G01 X-71.8876 Y71.7601 
G01 X-71.9957 Y71.9219 
G01 X-72.0702 Y72.1018 
G01 X-72.1082 Y72.2927 
G01 X-72.1082 Y72.4873 
G01 X-72.0702 Y72.6782 
G01 X-71.9957 Y72.8581 
G01 X-71.8876 Y73.0199 
G01 X-71.7499 Y73.1576 
G01 X-71.5881 Y73.2657 
G01 X-71.4082 Y73.3402 
G01 X-71.2173 Y73.3782 
G01 X-68.4827 Y73.3782 
G01 X-68.2918 Y73.3402 
G01 X-68.1119 Y73.2657 
G01 X-67.9501 Y73.1576 
G01 X-67.8124 Y73.0199 
G01 X-67.7043 Y72.8581 
G01 X-67.6298 Y72.6782 
G01 X-67.5918 Y72.4873 
G01 X-67.5918 Y70.0762 
G01 X-65.6655 Y70.0762 
G01 X-65.5792 Y70.1625 
G01 X-65.4211 Y70.2774 
G01 X-65.2468 Y70.3662 
G01 X-65.0609 Y70.4266 
G01 X-64.8678 Y70.4572 
G01 X-64.6722 Y70.4572 
G01 X-64.4791 Y70.4266 
G01 X-64.2932 Y70.3662 
G01 X-64.1189 Y70.2774 
G01 X-63.9608 Y70.1625 
G01 X-63.8745 Y70.0762 
G01 X-59.4082 Y70.0762 
G01 X-59.4082 Y72.9068 
G01 X-59.4824 Y73.0089 
G01 X-59.5712 Y73.1832 
G01 X-59.6316 Y73.3691 
G01 X-59.6622 Y73.5622 
G01 X-59.6622 Y73.7578 
G01 X-59.6316 Y73.9509 
G01 X-59.5712 Y74.1368 
G01 X-59.4824 Y74.3111 
G01 X-59.3675 Y74.4692 
G01 X-59.2292 Y74.6075 
G01 X-59.0711 Y74.7224 
G01 X-58.8968 Y74.8112 
G01 X-58.7109 Y74.8716 
G01 X-58.5178 Y74.9022 
G01 X-58.3222 Y74.9022 
G01 X-58.1291 Y74.8716 
G01 X-57.9432 Y74.8112 
G01 X-57.7689 Y74.7224 
G01 X-57.6108 Y74.6075 
G01 X-57.4725 Y74.4692 
G01 X-57.3576 Y74.3111 
G01 X-57.2688 Y74.1368 
G01 X-57.2084 Y73.9509 
G01 X-57.1778 Y73.7578 
G01 X-57.1778 Y73.5622 
G01 X-57.2084 Y73.3691 
G01 X-57.2688 Y73.1832 
G01 X-57.3576 Y73.0089 
G01 X-57.4318 Y72.9068 
G01 X-57.4318 Y69.1177 
G01 X-57.4698 Y68.9267 
G01 X-57.5443 Y68.7469 
G01 X-57.6524 Y68.5851 
G01 X-57.7901 Y68.4474 
G01 X-57.9519 Y68.3393 
G01 X-58.1318 Y68.2648 
G01 X-58.3227 Y68.2268 
G01 X-58.5173 Y68.2268 
G01 X-58.7082 Y68.2648 
G01 X-58.8881 Y68.3393 
G01 X-58.9098 Y68.3538 
G01 X-63.8745 Y68.3538 
G01 X-63.9608 Y68.2675 
G01 X-64.1189 Y68.1526 
G01 X-64.2932 Y68.0638 
G01 X-64.4791 Y68.0034 
G01 X-64.6722 Y67.9728 
G01 X-64.8678 Y67.9728 
G01 X-65.0609 Y68.0034 
G01 X-65.2468 Y68.0638 
G01 X-65.4211 Y68.1526 
G01 X-65.5792 Y68.2675 
G01 X-65.6655 Y68.3538 
G01 X-68.0902 Y68.3538 
G00 Z2.5400  
G00 X-89.0102 Y39.5000 
G01 Z-0.1778 F100   
G01 X-86.2498 Y39.5000 F80    
G01 X-86.0322 Y39.4655 
G01 X-85.8226 Y39.3974 
G01 X-85.6262 Y39.2974 
G01 X-85.4480 Y39.1679 
G01 X-85.2921 Y39.0120 
G01 X-85.1626 Y38.8338 
G01 X-85.0626 Y38.6374 
G01 X-84.9945 Y38.4278 
G01 X-84.9600 Y38.2102 
G01 X-84.9600 Y37.9898 
G01 X-84.9945 Y37.7722 
G01 X-85.0626 Y37.5626 
G01 X-85.1626 Y37.3662 
G01 X-85.2921 Y37.1880 
G01 X-85.4480 Y37.0321 
G01 X-85.6262 Y36.9026 
G01 X-85.8226 Y36.8026 
G01 X-86.0322 Y36.7345 
G01 X-86.2498 Y36.7000 
G01 X-89.0102 Y36.7000 
G01 X-89.2278 Y36.7345 
G01 X-89.4374 Y36.8026 
G01 X-89.6338 Y36.9026 
G01 X-89.8120 Y37.0321 
G01 X-89.8917 Y37.1118 
G01 X-93.1960 Y37.1118 
G01 X-93.3462 Y37.0026 
G01 X-93.5426 Y36.9026 
G01 X-93.7522 Y36.8345 
G01 X-93.9698 Y36.8000 
G01 X-96.1220 Y36.8000 
G01 X-96.2482 Y36.7800 
G01 X-96.4718 Y36.7800 
G01 X-96.6925 Y36.8150 
G01 X-96.9051 Y36.8840 
G01 X-97.1042 Y36.9855 
G01 X-97.2851 Y37.1169 
G01 X-97.4431 Y37.2749 
G01 X-97.5745 Y37.4558 
G01 X-97.6760 Y37.6549 
G01 X-97.7450 Y37.8675 
G01 X-97.7800 Y38.0882 
G01 X-97.7800 Y38.3118 
G01 X-97.7450 Y38.5325 
G01 X-97.6760 Y38.7451 
G01 X-97.5745 Y38.9442 
G01 X-97.4431 Y39.1251 
G01 X-97.2851 Y39.2831 
G01 X-97.1042 Y39.4145 
G01 X-96.9051 Y39.5160 
G01 X-96.6925 Y39.5850 
G01 X-96.4718 Y39.6200 
G01 X-96.2482 Y39.6200 
G01 X-96.1220 Y39.6000 
G01 X-93.9698 Y39.6000 
G01 X-93.7522 Y39.5655 
G01 X-93.5426 Y39.4974 
G01 X-93.3462 Y39.3974 
G01 X-93.1680 Y39.2679 
G01 X-93.0121 Y39.1120 
G01 X-92.9948 Y39.0882 
G01 X-89.8917 Y39.0882 
G01 X-89.8120 Y39.1679 
G01 X-89.6338 Y39.2974 
G01 X-89.4374 Y39.3974 
G01 X-89.2278 Y39.4655 
G01 X-89.0102 Y39.5000 
G00 Z2.5400  
G00 X-53.9390 Y22.2589 
G01 Z-0.1778 F100   
G01 X-53.7979 Y22.3532 F80    
G01 X-53.6412 Y22.4181 
G01 X-53.4748 Y22.4512 
G01 X-53.3052 Y22.4512 
G01 X-53.1388 Y22.4181 
G01 X-52.9821 Y22.3532 
G01 X-52.8410 Y22.2589 
G01 X-52.7211 Y22.1390 
G01 X-52.6268 Y21.9979 
G01 X-52.5619 Y21.8412 
G01 X-52.5288 Y21.6748 
G01 X-52.5288 Y21.5052 
G01 X-52.5619 Y21.3388 
G01 X-52.6268 Y21.1821 
G01 X-52.7211 Y21.0410 
G01 X-52.8410 Y20.9211 
G01 X-52.9821 Y20.8268 
G01 X-53.1388 Y20.7619 
G01 X-53.3052 Y20.7288 
G01 X-53.4748 Y20.7288 
G01 X-53.6412 Y20.7619 
G01 X-53.7979 Y20.8268 
G01 X-53.9390 Y20.9211 
G01 X-53.9499 Y20.9320 
G01 X-56.0926 Y20.9320 
G01 X-56.2025 Y20.7808 
G01 X-56.3408 Y20.6425 
G01 X-56.4989 Y20.5276 
G01 X-56.6732 Y20.4388 
G01 X-56.8591 Y20.3784 
G01 X-57.0522 Y20.3478 
G01 X-57.2478 Y20.3478 
G01 X-57.4409 Y20.3784 
G01 X-57.6268 Y20.4388 
G01 X-57.8011 Y20.5276 
G01 X-57.9592 Y20.6425 
G01 X-58.0975 Y20.7808 
G01 X-58.2124 Y20.9389 
G01 X-58.3012 Y21.1132 
G01 X-58.3616 Y21.2991 
G01 X-58.3922 Y21.4922 
G01 X-58.3922 Y21.6878 
G01 X-58.3616 Y21.8809 
G01 X-58.3012 Y22.0668 
G01 X-58.2124 Y22.2411 
G01 X-58.0975 Y22.3992 
G01 X-57.9592 Y22.5375 
G01 X-57.8011 Y22.6524 
G01 X-57.6268 Y22.7412 
G01 X-57.4409 Y22.8016 
G01 X-57.2478 Y22.8322 
G01 X-57.0522 Y22.8322 
G01 X-56.8591 Y22.8016 
G01 X-56.6732 Y22.7412 
G01 X-56.4989 Y22.6524 
G01 X-56.3408 Y22.5375 
G01 X-56.2025 Y22.3992 
G01 X-56.0926 Y22.2480 
G01 X-53.9499 Y22.2480 
G01 X-53.9390 Y22.2589 
G00 Z2.5400  
G00 X-54.2012 Y18.9052 
G01 Z-0.1778 F100   
G01 X-54.2012 Y19.0748 F80    
G01 X-54.1681 Y19.2412 
G01 X-54.1032 Y19.3979 
G01 X-54.0089 Y19.5390 
G01 X-53.8890 Y19.6589 
G01 X-53.7479 Y19.7532 
G01 X-53.5912 Y19.8181 
G01 X-53.4248 Y19.8512 
G01 X-53.2552 Y19.8512 
G01 X-53.0888 Y19.8181 
G01 X-52.9321 Y19.7532 
G01 X-52.7910 Y19.6589 
G01 X-52.7801 Y19.6480 
G01 X-45.1080 Y19.6480 
G01 X-45.1080 Y29.3457 
G01 X-45.1682 Y29.4357 
G01 X-45.2293 Y29.5832 
G01 X-45.2604 Y29.7398 
G01 X-45.2604 Y31.2202 
G01 X-45.2293 Y31.3768 
G01 X-45.1682 Y31.5243 
G01 X-45.0795 Y31.6570 
G01 X-44.9666 Y31.7699 
G01 X-44.8339 Y31.8586 
G01 X-44.6864 Y31.9197 
G01 X-44.5298 Y31.9508 
G01 X-44.3702 Y31.9508 
G01 X-44.2136 Y31.9197 
G01 X-44.0661 Y31.8586 
G01 X-43.9334 Y31.7699 
G01 X-43.8205 Y31.6570 
G01 X-43.7318 Y31.5243 
G01 X-43.6707 Y31.3768 
G01 X-43.6396 Y31.2202 
G01 X-43.6396 Y29.7398 
G01 X-43.6707 Y29.5832 
G01 X-43.7318 Y29.4357 
G01 X-43.7920 Y29.3457 
G01 X-43.7920 Y18.9252 
G01 X-43.8173 Y18.7981 
G01 X-43.8669 Y18.6783 
G01 X-43.9389 Y18.5705 
G01 X-44.0305 Y18.4789 
G01 X-44.1383 Y18.4069 
G01 X-44.2581 Y18.3573 
G01 X-44.3852 Y18.3320 
G01 X-52.7801 Y18.3320 
G01 X-52.7910 Y18.3211 
G01 X-52.9321 Y18.2268 
G01 X-53.0888 Y18.1619 
G01 X-53.2552 Y18.1288 
G01 X-53.4248 Y18.1288 
G01 X-53.5912 Y18.1619 
G01 X-53.7479 Y18.2268 
G01 X-53.8890 Y18.3211 
G01 X-54.0089 Y18.4410 
G01 X-54.1032 Y18.5821 
G01 X-54.1681 Y18.7388 
G01 X-54.2012 Y18.9052 
G00 Z2.5400  
G00 X-54.2012 Y16.4052 
G01 Z-0.1778 F100   
G01 X-54.2012 Y16.5748 F80    
G01 X-54.1681 Y16.7412 
G01 X-54.1032 Y16.8979 
G01 X-54.0089 Y17.0390 
G01 X-53.8890 Y17.1589 
G01 X-53.7479 Y17.2532 
G01 X-53.5912 Y17.3181 
G01 X-53.4248 Y17.3512 
G01 X-53.2552 Y17.3512 
G01 X-53.0888 Y17.3181 
G01 X-52.9321 Y17.2532 
G01 X-52.7910 Y17.1589 
G01 X-52.6711 Y17.0390 
G01 X-52.5768 Y16.8979 
G01 X-52.5119 Y16.7412 
G01 X-52.4788 Y16.5748 
G01 X-52.4788 Y16.4052 
G01 X-52.5119 Y16.2388 
G01 X-52.5768 Y16.0821 
G01 X-52.6711 Y15.9410 
G01 X-52.7910 Y15.8211 
G01 X-52.9321 Y15.7268 
G01 X-53.0888 Y15.6619 
G01 X-53.2552 Y15.6288 
G01 X-53.4248 Y15.6288 
G01 X-53.5912 Y15.6619 
G01 X-53.7479 Y15.7268 
G01 X-53.8890 Y15.8211 
G01 X-54.0089 Y15.9410 
G01 X-54.1032 Y16.0821 
G01 X-54.1681 Y16.2388 
G01 X-54.2012 Y16.4052 
G00 Z2.5400  
G00 X-53.9390 Y14.6589 
G01 Z-0.1778 F100   
G01 X-53.7979 Y14.7532 F80    
G01 X-53.6412 Y14.8181 
G01 X-53.4748 Y14.8512 
G01 X-53.3052 Y14.8512 
G01 X-53.1388 Y14.8181 
G01 X-52.9821 Y14.7532 
G01 X-52.8410 Y14.6589 
G01 X-52.7211 Y14.5390 
G01 X-52.6268 Y14.3979 
G01 X-52.5619 Y14.2412 
G01 X-52.5288 Y14.0748 
G01 X-52.5288 Y13.9052 
G01 X-52.5619 Y13.7388 
G01 X-52.6268 Y13.5821 
G01 X-52.7211 Y13.4410 
G01 X-52.8410 Y13.3211 
G01 X-52.9821 Y13.2268 
G01 X-53.1388 Y13.1619 
G01 X-53.3052 Y13.1288 
G01 X-53.4748 Y13.1288 
G01 X-53.6412 Y13.1619 
G01 X-53.7979 Y13.2268 
G01 X-53.9254 Y13.3120 
G01 X-58.4848 Y13.3120 
G01 X-58.6119 Y13.3373 
G01 X-58.7317 Y13.3869 
G01 X-58.8394 Y13.4589 
G01 X-58.9311 Y13.5505 
G01 X-59.0031 Y13.6583 
G01 X-59.0527 Y13.7781 
G01 X-59.0780 Y13.9052 
G01 X-59.0780 Y19.0270 
G01 X-74.9948 Y19.0270 
G01 X-75.1219 Y19.0523 
G01 X-75.2417 Y19.1019 
G01 X-75.3495 Y19.1739 
G01 X-75.4411 Y19.2655 
G01 X-75.5131 Y19.3733 
G01 X-75.5627 Y19.4931 
G01 X-75.5720 Y19.5399 
G01 X-76.6369 Y22.2020 
G01 X-80.6220 Y22.2020 
G01 X-80.6220 Y19.7895 
G01 X-80.5124 Y19.6799 
G01 X-80.4043 Y19.5181 
G01 X-80.3298 Y19.3382 
G01 X-80.2918 Y19.1473 
G01 X-80.2918 Y18.9527 
G01 X-80.3298 Y18.7617 
G01 X-80.4043 Y18.5819 
G01 X-80.5124 Y18.4201 
G01 X-80.6501 Y18.2824 
G01 X-80.8119 Y18.1743 
G01 X-80.9918 Y18.0998 
G01 X-81.1827 Y18.0618 
G01 X-81.3773 Y18.0618 
G01 X-81.5682 Y18.0998 
G01 X-81.7481 Y18.1743 
G01 X-81.9099 Y18.2824 
G01 X-82.0476 Y18.4201 
G01 X-82.1557 Y18.5819 
G01 X-82.2302 Y18.7617 
G01 X-82.2682 Y18.9527 
G01 X-82.2682 Y19.1473 
G01 X-82.2302 Y19.3382 
G01 X-82.1557 Y19.5181 
G01 X-82.0476 Y19.6799 
G01 X-81.9380 Y19.7895 
G01 X-81.9380 Y22.9248 
G01 X-81.9127 Y23.0519 
G01 X-81.8631 Y23.1717 
G01 X-81.7911 Y23.2795 
G01 X-81.6994 Y23.3711 
G01 X-81.5917 Y23.4431 
G01 X-81.4719 Y23.4927 
G01 X-81.3448 Y23.5180 
G01 X-76.1352 Y23.5180 
G01 X-76.0081 Y23.4927 
G01 X-75.8883 Y23.4431 
G01 X-75.7805 Y23.3711 
G01 X-75.6889 Y23.2795 
G01 X-75.6169 Y23.1717 
G01 X-75.5673 Y23.0519 
G01 X-75.5580 Y23.0051 
G01 X-74.4931 Y20.3430 
G01 X-58.3552 Y20.3430 
G01 X-58.2281 Y20.3177 
G01 X-58.1083 Y20.2681 
G01 X-58.0005 Y20.1961 
G01 X-57.9089 Y20.1044 
G01 X-57.8369 Y19.9967 
G01 X-57.7873 Y19.8769 
G01 X-57.7620 Y19.7498 
G01 X-57.7620 Y14.6280 
G01 X-53.9699 Y14.6280 
G01 X-53.9390 Y14.6589 
G00 Z2.5400  
G00 X-53.9390 Y12.1089 
G01 Z-0.1778 F100   
G01 X-53.7979 Y12.2032 F80    
G01 X-53.6412 Y12.2681 
G01 X-53.4748 Y12.3012 
G01 X-53.3052 Y12.3012 
G01 X-53.1388 Y12.2681 
G01 X-52.9821 Y12.2032 
G01 X-52.8410 Y12.1089 
G01 X-52.7211 Y11.9890 
G01 X-52.6268 Y11.8479 
G01 X-52.5619 Y11.6912 
G01 X-52.5288 Y11.5248 
G01 X-52.5288 Y11.3552 
G01 X-52.5619 Y11.1888 
G01 X-52.6268 Y11.0321 
G01 X-52.7211 Y10.8910 
G01 X-52.8410 Y10.7711 
G01 X-52.9821 Y10.6768 
G01 X-53.1388 Y10.6119 
G01 X-53.3052 Y10.5788 
G01 X-53.4748 Y10.5788 
G01 X-53.6412 Y10.6119 
G01 X-53.7979 Y10.6768 
G01 X-53.9390 Y10.7711 
G01 X-59.2676 Y10.7720 
G01 X-59.3775 Y10.6208 
G01 X-59.5158 Y10.4825 
G01 X-59.6739 Y10.3676 
G01 X-59.8482 Y10.2788 
G01 X-60.0341 Y10.2184 
G01 X-60.2272 Y10.1878 
G01 X-60.4228 Y10.1878 
G01 X-60.6159 Y10.2184 
G01 X-60.8018 Y10.2788 
G01 X-60.9761 Y10.3676 
G01 X-61.1342 Y10.4825 
G01 X-61.2725 Y10.6208 
G01 X-61.3874 Y10.7789 
G01 X-61.4762 Y10.9532 
G01 X-61.5366 Y11.1391 
G01 X-61.5672 Y11.3322 
G01 X-61.5672 Y11.5278 
G01 X-61.5366 Y11.7209 
G01 X-61.4762 Y11.9068 
G01 X-61.3874 Y12.0811 
G01 X-61.2725 Y12.2392 
G01 X-61.1342 Y12.3775 
G01 X-60.9761 Y12.4924 
G01 X-60.8018 Y12.5812 
G01 X-60.6159 Y12.6416 
G01 X-60.4228 Y12.6722 
G01 X-60.2272 Y12.6722 
G01 X-60.0341 Y12.6416 
G01 X-59.8482 Y12.5812 
G01 X-59.6739 Y12.4924 
G01 X-59.5158 Y12.3775 
G01 X-59.3775 Y12.2392 
G01 X-59.2676 Y12.0880 
G01 X-53.9599 Y12.0880 
G01 X-53.9390 Y12.1089 
G00 Z2.5400  
G00 X-84.8082 Y18.9527 
G01 Z-0.1778 F100   
G01 X-84.8082 Y19.1473 F80    
G01 X-84.7702 Y19.3382 
G01 X-84.6957 Y19.5181 
G01 X-84.5876 Y19.6799 
G01 X-84.4780 Y19.7895 
G01 X-84.4780 Y22.9248 
G01 X-84.4527 Y23.0519 
G01 X-84.4031 Y23.1717 
G01 X-84.3311 Y23.2795 
G01 X-84.2395 Y23.3711 
G01 X-84.2054 Y23.3939 
G01 X-81.6944 Y25.9049 
G01 X-81.5879 Y25.9760 
G01 X-81.4696 Y26.0250 
G01 X-81.3440 Y26.0500 
G01 X-61.3880 Y26.0500 
G01 X-61.2725 Y26.2092 
G01 X-61.1342 Y26.3475 
G01 X-60.9761 Y26.4624 
G01 X-60.8018 Y26.5512 
G01 X-60.6159 Y26.6116 
G01 X-60.4228 Y26.6422 
G01 X-60.2272 Y26.6422 
G01 X-60.0341 Y26.6116 
G01 X-59.8482 Y26.5512 
G01 X-59.6739 Y26.4624 
G01 X-59.5158 Y26.3475 
G01 X-59.3775 Y26.2092 
G01 X-59.2626 Y26.0511 
G01 X-59.1738 Y25.8768 
G01 X-59.1134 Y25.6909 
G01 X-59.0828 Y25.4978 
G01 X-59.0828 Y25.3022 
G01 X-59.1134 Y25.1091 
G01 X-59.1738 Y24.9232 
G01 X-59.2626 Y24.7489 
G01 X-59.3775 Y24.5908 
G01 X-59.5158 Y24.4525 
G01 X-59.6739 Y24.3376 
G01 X-59.8482 Y24.2488 
G01 X-60.0341 Y24.1884 
G01 X-60.2272 Y24.1578 
G01 X-60.4228 Y24.1578 
G01 X-60.6159 Y24.1884 
G01 X-60.8018 Y24.2488 
G01 X-60.9761 Y24.3376 
G01 X-61.1342 Y24.4525 
G01 X-61.2725 Y24.5908 
G01 X-61.3874 Y24.7489 
G01 X-81.0108 Y24.7500 
G01 X-83.1620 Y22.5988 
G01 X-83.1620 Y19.7895 
G01 X-83.0524 Y19.6799 
G01 X-82.9443 Y19.5181 
G01 X-82.8698 Y19.3382 
G01 X-82.8318 Y19.1473 
G01 X-82.8318 Y18.9527 
G01 X-82.8698 Y18.7617 
G01 X-82.9443 Y18.5819 
G01 X-83.0524 Y18.4201 
G01 X-83.1901 Y18.2824 
G01 X-83.3519 Y18.1743 
G01 X-83.5318 Y18.0998 
G01 X-83.7227 Y18.0618 
G01 X-83.9173 Y18.0618 
G01 X-84.1082 Y18.0998 
G01 X-84.2881 Y18.1743 
G01 X-84.4499 Y18.2824 
G01 X-84.5876 Y18.4201 
G01 X-84.6957 Y18.5819 
G01 X-84.7702 Y18.7617 
G01 X-84.8082 Y18.9527 
G00 Z2.5400  
G00 X-87.3482 Y18.9527 
G01 Z-0.1778 F100   
G01 X-87.3482 Y19.1473 F80    
G01 X-87.3102 Y19.3382 
G01 X-87.2357 Y19.5181 
G01 X-87.1276 Y19.6799 
G01 X-86.9899 Y19.8176 
G01 X-86.8281 Y19.9257 
G01 X-86.6482 Y20.0002 
G01 X-86.4573 Y20.0382 
G01 X-86.2627 Y20.0382 
G01 X-86.0718 Y20.0002 
G01 X-85.8919 Y19.9257 
G01 X-85.7301 Y19.8176 
G01 X-85.5924 Y19.6799 
G01 X-85.4843 Y19.5181 
G01 X-85.4098 Y19.3382 
G01 X-85.3718 Y19.1473 
G01 X-85.3718 Y18.9527 
G01 X-85.4098 Y18.7617 
G01 X-85.4843 Y18.5819 
G01 X-85.5924 Y18.4201 
G01 X-85.7301 Y18.2824 
G01 X-85.8919 Y18.1743 
G01 X-86.0718 Y18.0998 
G01 X-86.2627 Y18.0618 
G01 X-86.4573 Y18.0618 
G01 X-86.6482 Y18.0998 
G01 X-86.8281 Y18.1743 
G01 X-86.9899 Y18.2824 
G01 X-87.1276 Y18.4201 
G01 X-87.2357 Y18.5819 
G01 X-87.3102 Y18.7617 
G01 X-87.3482 Y18.9527 
G00 Z2.5400  
G00 X-89.8882 Y18.9527 
G01 Z-0.1778 F100   
G01 X-89.8882 Y19.1473 F80    
G01 X-89.8502 Y19.3382 
G01 X-89.7757 Y19.5181 
G01 X-89.6676 Y19.6799 
G01 X-89.5299 Y19.8176 
G01 X-89.3681 Y19.9257 
G01 X-89.1882 Y20.0002 
G01 X-88.9973 Y20.0382 
G01 X-88.8027 Y20.0382 
G01 X-88.6118 Y20.0002 
G01 X-88.4319 Y19.9257 
G01 X-88.2701 Y19.8176 
G01 X-88.1324 Y19.6799 
G01 X-88.0243 Y19.5181 
G01 X-87.9498 Y19.3382 
G01 X-87.9118 Y19.1473 
G01 X-87.9118 Y18.9527 
G01 X-87.9498 Y18.7617 
G01 X-88.0243 Y18.5819 
G01 X-88.1324 Y18.4201 
G01 X-88.2701 Y18.2824 
G01 X-88.4319 Y18.1743 
G01 X-88.6118 Y18.0998 
G01 X-88.8027 Y18.0618 
G01 X-88.9973 Y18.0618 
G01 X-89.1882 Y18.0998 
G01 X-89.3681 Y18.1743 
G01 X-89.5299 Y18.2824 
G01 X-89.6676 Y18.4201 
G01 X-89.7757 Y18.5819 
G01 X-89.8502 Y18.7617 
G01 X-89.8882 Y18.9527 
G00 Z2.5400  
G00 X-92.4282 Y18.9527 
G01 Z-0.1778 F100   
G01 X-92.4282 Y19.1473 F80    
G01 X-92.3902 Y19.3382 
G01 X-92.3157 Y19.5181 
G01 X-92.2076 Y19.6799 
G01 X-92.0699 Y19.8176 
G01 X-91.9081 Y19.9257 
G01 X-91.7282 Y20.0002 
G01 X-91.5373 Y20.0382 
G01 X-91.3427 Y20.0382 
G01 X-91.1518 Y20.0002 
G01 X-90.9719 Y19.9257 
G01 X-90.8101 Y19.8176 
G01 X-90.6724 Y19.6799 
G01 X-90.5643 Y19.5181 
G01 X-90.4898 Y19.3382 
G01 X-90.4518 Y19.1473 
G01 X-90.4518 Y18.9527 
G01 X-90.4898 Y18.7617 
G01 X-90.5643 Y18.5819 
G01 X-90.6724 Y18.4201 
G01 X-90.8101 Y18.2824 
G01 X-90.9719 Y18.1743 
G01 X-91.1518 Y18.0998 
G01 X-91.3427 Y18.0618 
G01 X-91.5373 Y18.0618 
G01 X-91.7282 Y18.0998 
G01 X-91.9081 Y18.1743 
G01 X-92.0699 Y18.2824 
G01 X-92.2076 Y18.4201 
G01 X-92.3157 Y18.5819 
G01 X-92.3902 Y18.7617 
G01 X-92.4282 Y18.9527 
G00 Z2.5400  
G00 X-94.7142 Y16.4127 
G01 Z-0.1778 F100   
G01 X-94.7142 Y16.6073 F80    
G01 X-94.6762 Y16.7982 
G01 X-94.6017 Y16.9781 
G01 X-94.4936 Y17.1399 
G01 X-94.3559 Y17.2776 
G01 X-94.1941 Y17.3857 
G01 X-94.0142 Y17.4602 
G01 X-93.8233 Y17.4982 
G01 X-93.6287 Y17.4982 
G01 X-93.4378 Y17.4602 
G01 X-93.2579 Y17.3857 
G01 X-93.0961 Y17.2776 
G01 X-92.9584 Y17.1399 
G01 X-92.8503 Y16.9781 
G01 X-92.7758 Y16.7982 
G01 X-92.7378 Y16.6073 
G01 X-92.7378 Y16.4127 
G01 X-92.7758 Y16.2218 
G01 X-92.8503 Y16.0419 
G01 X-92.9584 Y15.8801 
G01 X-93.0961 Y15.7424 
G01 X-93.2579 Y15.6343 
G01 X-93.4378 Y15.5598 
G01 X-93.6287 Y15.5218 
G01 X-93.8233 Y15.5218 
G01 X-94.0142 Y15.5598 
G01 X-94.1941 Y15.6343 
G01 X-94.3559 Y15.7424 
G01 X-94.4936 Y15.8801 
G01 X-94.6017 Y16.0419 
G01 X-94.6762 Y16.2218 
G01 X-94.7142 Y16.4127 
G00 Z2.5400  
G00 X-94.7142 Y13.8727 
G01 Z-0.1778 F100   
G01 X-94.7142 Y14.0673 F80    
G01 X-94.6762 Y14.2582 
G01 X-94.6017 Y14.4381 
G01 X-94.4936 Y14.5999 
G01 X-94.3559 Y14.7376 
G01 X-94.1941 Y14.8457 
G01 X-94.0142 Y14.9202 
G01 X-93.8233 Y14.9582 
G01 X-93.6287 Y14.9582 
G01 X-93.4378 Y14.9202 
G01 X-93.2579 Y14.8457 
G01 X-93.0961 Y14.7376 
G01 X-92.9584 Y14.5999 
G01 X-92.8503 Y14.4381 
G01 X-92.7758 Y14.2582 
G01 X-92.7378 Y14.0673 
G01 X-92.7378 Y13.8727 
G01 X-92.7758 Y13.6818 
G01 X-92.8503 Y13.5019 
G01 X-92.9584 Y13.3401 
G01 X-93.0961 Y13.2024 
G01 X-93.2579 Y13.0943 
G01 X-93.4378 Y13.0198 
G01 X-93.6287 Y12.9818 
G01 X-93.8233 Y12.9818 
G01 X-94.0142 Y13.0198 
G01 X-94.1941 Y13.0943 
G01 X-94.3559 Y13.2024 
G01 X-94.4936 Y13.3401 
G01 X-94.6017 Y13.5019 
G01 X-94.6762 Y13.6818 
G01 X-94.7142 Y13.8727 
G00 Z2.5400  
G00 X-94.7142 Y11.3327 
G01 Z-0.1778 F100   
G01 X-94.7142 Y11.5273 F80    
G01 X-94.6762 Y11.7182 
G01 X-94.6017 Y11.8981 
G01 X-94.4936 Y12.0599 
G01 X-94.3559 Y12.1976 
G01 X-94.1941 Y12.3057 
G01 X-94.0142 Y12.3802 
G01 X-93.8233 Y12.4182 
G01 X-93.6287 Y12.4182 
G01 X-93.4378 Y12.3802 
G01 X-93.2579 Y12.3057 
G01 X-93.0961 Y12.1976 
G01 X-92.9584 Y12.0599 
G01 X-92.8503 Y11.8981 
G01 X-92.7758 Y11.7182 
G01 X-92.7378 Y11.5273 
G01 X-92.7378 Y11.3327 
G01 X-92.7758 Y11.1418 
G01 X-92.8503 Y10.9619 
G01 X-92.9584 Y10.8001 
G01 X-93.0961 Y10.6624 
G01 X-93.2579 Y10.5543 
G01 X-93.4378 Y10.4798 
G01 X-93.6287 Y10.4418 
G01 X-93.8233 Y10.4418 
G01 X-94.0142 Y10.4798 
G01 X-94.1941 Y10.5543 
G01 X-94.3559 Y10.6624 
G01 X-94.4936 Y10.8001 
G01 X-94.6017 Y10.9619 
G01 X-94.6762 Y11.1418 
G01 X-94.7142 Y11.3327 
G00 Z2.5400  
G00 X-94.7142 Y3.7127  
G01 Z-0.1778 F100   
G01 X-94.7142 Y3.9073  F80    
G01 X-94.6762 Y4.0982  
G01 X-94.6017 Y4.2781  
G01 X-94.4936 Y4.4399  
G01 X-94.3559 Y4.5776  
G01 X-94.1941 Y4.6857  
G01 X-94.0142 Y4.7602  
G01 X-93.8233 Y4.7982  
G01 X-93.6287 Y4.7982  
G01 X-93.4378 Y4.7602  
G01 X-93.2579 Y4.6857  
G01 X-93.0961 Y4.5776  
G01 X-92.9584 Y4.4399  
G01 X-92.8503 Y4.2781  
G01 X-92.7758 Y4.0982  
G01 X-92.7378 Y3.9073  
G01 X-92.7378 Y3.7127  
G01 X-92.7758 Y3.5218  
G01 X-92.8503 Y3.3419  
G01 X-92.9584 Y3.1801  
G01 X-93.0961 Y3.0424  
G01 X-93.2579 Y2.9343  
G01 X-93.4378 Y2.8598  
G01 X-93.6287 Y2.8218  
G01 X-93.8233 Y2.8218  
G01 X-94.0142 Y2.8598  
G01 X-94.1941 Y2.9343  
G01 X-94.3559 Y3.0424  
G01 X-94.4936 Y3.1801  
G01 X-94.6017 Y3.3419  
G01 X-94.6762 Y3.5218  
G01 X-94.7142 Y3.7127  
G00 Z2.5400  
G00 X-79.7282 Y18.9527 
G01 Z-0.1778 F100   
G01 X-79.7282 Y19.1473 F80    
G01 X-79.6902 Y19.3382 
G01 X-79.6157 Y19.5181 
G01 X-79.5076 Y19.6799 
G01 X-79.3699 Y19.8176 
G01 X-79.2081 Y19.9257 
G01 X-79.0282 Y20.0002 
G01 X-78.8373 Y20.0382 
G01 X-78.6427 Y20.0382 
G01 X-78.4518 Y20.0002 
G01 X-78.2719 Y19.9257 
G01 X-78.1101 Y19.8176 
G01 X-77.9724 Y19.6799 
G01 X-77.8643 Y19.5181 
G01 X-77.7898 Y19.3382 
G01 X-77.7518 Y19.1473 
G01 X-77.7518 Y18.9527 
G01 X-77.7898 Y18.7617 
G01 X-77.8643 Y18.5819 
G01 X-77.9724 Y18.4201 
G01 X-78.1101 Y18.2824 
G01 X-78.2719 Y18.1743 
G01 X-78.4518 Y18.0998 
G01 X-78.6427 Y18.0618 
G01 X-78.8373 Y18.0618 
G01 X-79.0282 Y18.0998 
G01 X-79.2081 Y18.1743 
G01 X-79.3699 Y18.2824 
G01 X-79.5076 Y18.4201 
G01 X-79.6157 Y18.5819 
G01 X-79.6902 Y18.7617 
G01 X-79.7282 Y18.9527 
G00 Z2.5400  
G00 X-77.6962 Y11.3327 
G01 Z-0.1778 F100   
G01 X-77.6962 Y11.5273 F80    
G01 X-77.6582 Y11.7182 
G01 X-77.5837 Y11.8981 
G01 X-77.4756 Y12.0599 
G01 X-77.3379 Y12.1976 
G01 X-77.1761 Y12.3057 
G01 X-76.9962 Y12.3802 
G01 X-76.8053 Y12.4182 
G01 X-76.6107 Y12.4182 
G01 X-76.4198 Y12.3802 
G01 X-76.2399 Y12.3057 
G01 X-76.0781 Y12.1976 
G01 X-75.9404 Y12.0599 
G01 X-75.8323 Y11.8981 
G01 X-75.7578 Y11.7182 
G01 X-75.7198 Y11.5273 
G01 X-75.7198 Y11.3327 
G01 X-75.7578 Y11.1418 
G01 X-75.8323 Y10.9619 
G01 X-75.9404 Y10.8001 
G01 X-76.0781 Y10.6624 
G01 X-76.2399 Y10.5543 
G01 X-76.4198 Y10.4798 
G01 X-76.6107 Y10.4418 
G01 X-76.8053 Y10.4418 
G01 X-76.9962 Y10.4798 
G01 X-77.1761 Y10.5543 
G01 X-77.3379 Y10.6624 
G01 X-77.4756 Y10.8001 
G01 X-77.5837 Y10.9619 
G01 X-77.6582 Y11.1418 
G01 X-77.6962 Y11.3327 
G00 Z2.5400  
G00 X-77.6962 Y3.7127  
G01 Z-0.1778 F100   
G01 X-77.6962 Y3.9073  F80    
G01 X-77.6582 Y4.0982  
G01 X-77.5837 Y4.2781  
G01 X-77.4756 Y4.4399  
G01 X-77.3379 Y4.5776  
G01 X-77.1761 Y4.6857  
G01 X-76.9962 Y4.7602  
G01 X-76.8053 Y4.7982  
G01 X-76.6107 Y4.7982  
G01 X-76.4198 Y4.7602  
G01 X-76.2399 Y4.6857  
G01 X-76.0781 Y4.5776  
G01 X-75.9404 Y4.4399  
G01 X-75.8323 Y4.2781  
G01 X-75.7578 Y4.0982  
G01 X-75.7198 Y3.9073  
G01 X-75.7198 Y3.7127  
G01 X-75.7578 Y3.5218  
G01 X-75.8323 Y3.3419  
G01 X-75.9404 Y3.1801  
G01 X-76.0781 Y3.0424  
G01 X-76.2399 Y2.9343  
G01 X-76.4198 Y2.8598  
G01 X-76.6107 Y2.8218  
G01 X-76.8053 Y2.8218  
G01 X-76.9962 Y2.8598  
G01 X-77.1761 Y2.9343  
G01 X-77.3379 Y3.0424  
G01 X-77.4756 Y3.1801  
G01 X-77.5837 Y3.3419  
G01 X-77.6582 Y3.5218  
G01 X-77.6962 Y3.7127  
G00 Z2.5400  
G00 X-77.6962 Y6.2527  
G01 Z-0.1778 F100   
G01 X-77.6962 Y6.4473  F80    
G01 X-77.6582 Y6.6382  
G01 X-77.5837 Y6.8181  
G01 X-77.4756 Y6.9799  
G01 X-77.3379 Y7.1176  
G01 X-77.1761 Y7.2257  
G01 X-76.9962 Y7.3002  
G01 X-76.8053 Y7.3382  
G01 X-76.6107 Y7.3382  
G01 X-76.4198 Y7.3002  
G01 X-76.2399 Y7.2257  
G01 X-76.0781 Y7.1176  
G01 X-75.9404 Y6.9799  
G01 X-75.8323 Y6.8181  
G01 X-75.7578 Y6.6382  
G01 X-75.7198 Y6.4473  
G01 X-75.7198 Y6.2527  
G01 X-75.7578 Y6.0617  
G01 X-75.8323 Y5.8819  
G01 X-75.9404 Y5.7201  
G01 X-76.0781 Y5.5824  
G01 X-76.2399 Y5.4743  
G01 X-76.4198 Y5.3998  
G01 X-76.6107 Y5.3618  
G01 X-76.8053 Y5.3618  
G01 X-76.9962 Y5.3998  
G01 X-77.1761 Y5.4743  
G01 X-77.3379 Y5.5824  
G01 X-77.4756 Y5.7201  
G01 X-77.5837 Y5.8819  
G01 X-77.6582 Y6.0617  
G01 X-77.6962 Y6.2527  
G00 Z2.5400  
G00 X-77.6962 Y8.7927  
G01 Z-0.1778 F100   
G01 X-77.6962 Y8.9873  F80    
G01 X-77.6582 Y9.1782  
G01 X-77.5837 Y9.3581  
G01 X-77.4756 Y9.5199  
G01 X-77.3379 Y9.6576  
G01 X-77.1761 Y9.7657  
G01 X-76.9962 Y9.8402  
G01 X-76.8053 Y9.8782  
G01 X-76.6107 Y9.8782  
G01 X-76.4198 Y9.8402  
G01 X-76.2399 Y9.7657  
G01 X-76.0781 Y9.6576  
G01 X-75.9404 Y9.5199  
G01 X-75.8323 Y9.3581  
G01 X-75.7578 Y9.1782  
G01 X-75.7198 Y8.9873  
G01 X-75.7198 Y8.7927  
G01 X-75.7578 Y8.6018  
G01 X-75.8323 Y8.4219  
G01 X-75.9404 Y8.2601  
G01 X-76.0781 Y8.1224  
G01 X-76.2399 Y8.0143  
G01 X-76.4198 Y7.9398  
G01 X-76.6107 Y7.9018  
G01 X-76.8053 Y7.9018  
G01 X-76.9962 Y7.9398  
G01 X-77.1761 Y8.0143  
G01 X-77.3379 Y8.1224  
G01 X-77.4756 Y8.2601  
G01 X-77.5837 Y8.4219  
G01 X-77.6582 Y8.6018  
G01 X-77.6962 Y8.7927  
G00 Z2.5400  
G00 X-18.5725 Y60.3669 
G01 Z-0.1778 F100   
G01 X-18.4569 Y60.4825 F80    
G01 X-18.3246 Y60.5786 
G01 X-18.1788 Y60.6529 
G01 X-18.0233 Y60.7034 
G01 X-17.8618 Y60.7290 
G01 X-17.6982 Y60.7290 
G01 X-17.5367 Y60.7034 
G01 X-17.3812 Y60.6529 
G01 X-17.2354 Y60.5786 
G01 X-17.1031 Y60.4825 
G01 X-16.9875 Y60.3669 
G01 X-16.8914 Y60.2346 
G01 X-16.8171 Y60.0888 
G01 X-16.7666 Y59.9333 
G01 X-16.7410 Y59.7718 
G01 X-16.7410 Y59.6082 
G01 X-16.7666 Y59.4467 
G01 X-16.8171 Y59.2912 
G01 X-16.8914 Y59.1454 
G01 X-16.9875 Y59.0131 
G01 X-17.1031 Y58.8975 
G01 X-17.2354 Y58.8014 
G01 X-17.3812 Y58.7271 
G01 X-17.5367 Y58.6766 
G01 X-17.6982 Y58.6510 
G01 X-17.8618 Y58.6510 
G01 X-18.0233 Y58.6766 
G01 X-18.1788 Y58.7271 
G01 X-18.3246 Y58.8014 
G01 X-18.4569 Y58.8975 
G01 X-18.5725 Y59.0131 
G01 X-18.5862 Y59.0320 
G01 X-23.4720 Y59.0320 
G01 X-23.4720 Y58.2074 
G01 X-23.3208 Y58.0975 
G01 X-23.1825 Y57.9592 
G01 X-23.0676 Y57.8011 
G01 X-22.9788 Y57.6268 
G01 X-22.9184 Y57.4409 
G01 X-22.8878 Y57.2478 
G01 X-22.8878 Y57.0522 
G01 X-22.9184 Y56.8591 
G01 X-22.9788 Y56.6732 
G01 X-23.0676 Y56.4989 
G01 X-23.1825 Y56.3408 
G01 X-23.3208 Y56.2025 
G01 X-23.4789 Y56.0876 
G01 X-23.6532 Y55.9988 
G01 X-23.8391 Y55.9384 
G01 X-24.0322 Y55.9078 
G01 X-24.2278 Y55.9078 
G01 X-24.4209 Y55.9384 
G01 X-24.6068 Y55.9988 
G01 X-24.7811 Y56.0876 
G01 X-24.9392 Y56.2025 
G01 X-25.0775 Y56.3408 
G01 X-25.1924 Y56.4989 
G01 X-25.2812 Y56.6732 
G01 X-25.3416 Y56.8591 
G01 X-25.3722 Y57.0522 
G01 X-25.3722 Y57.2478 
G01 X-25.3416 Y57.4409 
G01 X-25.2812 Y57.6268 
G01 X-25.1924 Y57.8011 
G01 X-25.0775 Y57.9592 
G01 X-24.9392 Y58.0975 
G01 X-24.7880 Y58.2074 
G01 X-24.7880 Y59.7548 
G01 X-24.7627 Y59.8819 
G01 X-24.7131 Y60.0017 
G01 X-24.6411 Y60.1095 
G01 X-24.5495 Y60.2011 
G01 X-24.4417 Y60.2731 
G01 X-24.3219 Y60.3227 
G01 X-24.1948 Y60.3480 
G01 X-18.5862 Y60.3480 
G01 X-18.5725 Y60.3669 
G00 Z2.5400  
G00 X-77.0104 Y72.0543 
G01 Z-0.1778 F100   
G01 X-77.0104 Y72.1394 F80    
G01 X-79.9806 Y74.1196 
G01 X-80.3457 Y74.1196 
G01 X-80.8204 Y74.5943 
G01 X-80.8204 Y75.2657 
G01 X-80.3457 Y75.7404 
G01 X-79.6743 Y75.7404 
G01 X-79.1996 Y75.2657 
G01 X-79.1996 Y75.1805 
G01 X-76.2294 Y73.2004 
G01 X-75.8643 Y73.2004 
G01 X-75.3896 Y72.7257 
G01 X-75.3896 Y72.0543 
G01 X-75.5420 Y71.9019 
G01 X-75.5420 Y67.9680 
G01 X-56.9432 Y67.9680 
G01 X-56.8868 Y68.0057 
G01 X-56.7440 Y68.0648 
G01 X-56.5923 Y68.0950 
G01 X-56.4377 Y68.0950 
G01 X-56.2860 Y68.0648 
G01 X-56.1432 Y68.0057 
G01 X-56.0146 Y67.9197 
G01 X-55.9053 Y67.8104 
G01 X-55.8193 Y67.6818 
G01 X-55.7602 Y67.5390 
G01 X-55.7300 Y67.3873 
G01 X-55.7300 Y67.2327 
G01 X-55.7602 Y67.0810 
G01 X-55.8193 Y66.9382 
G01 X-55.9053 Y66.8096 
G01 X-56.0146 Y66.7002 
G01 X-56.1432 Y66.6143 
G01 X-56.2860 Y66.5552 
G01 X-56.4377 Y66.5250 
G01 X-56.5923 Y66.5250 
G01 X-56.7440 Y66.5552 
G01 X-56.8868 Y66.6143 
G01 X-56.9432 Y66.6520 
G01 X-76.2648 Y66.6520 
G01 X-76.3919 Y66.6773 
G01 X-76.5117 Y66.7269 
G01 X-76.6195 Y66.7989 
G01 X-76.7111 Y66.8905 
G01 X-76.7831 Y66.9983 
G01 X-76.8327 Y67.1181 
G01 X-76.8580 Y67.2452 
G01 X-76.8580 Y71.9019 
G01 X-77.0104 Y72.0543 
G00 Z2.5400  
G00 X-67.0282 Y47.2718 
G01 Z-0.1778 F100   
G01 X-67.4073 Y47.2718 F80    
G01 X-67.5982 Y47.3098 
G01 X-67.7781 Y47.3843 
G01 X-67.9399 Y47.4924 
G01 X-68.0776 Y47.6301 
G01 X-68.1857 Y47.7919 
G01 X-68.2602 Y47.9718 
G01 X-68.2982 Y48.1627 
G01 X-68.2982 Y53.4373 
G01 X-68.2602 Y53.6282 
G01 X-68.1857 Y53.8081 
G01 X-68.0776 Y53.9699 
G01 X-67.9399 Y54.1076 
G01 X-67.7781 Y54.2157 
G01 X-67.5982 Y54.2902 
G01 X-67.4073 Y54.3282 
G01 X-67.2127 Y54.3282 
G01 X-67.0217 Y54.2902 
G01 X-66.8419 Y54.2157 
G01 X-66.6801 Y54.1076 
G01 X-66.5424 Y53.9699 
G01 X-66.4343 Y53.8081 
G01 X-66.3598 Y53.6282 
G01 X-66.3218 Y53.4373 
G01 X-66.3218 Y49.2482 
G01 X-65.9427 Y49.2482 
G01 X-65.7518 Y49.2102 
G01 X-65.5719 Y49.1357 
G01 X-65.4101 Y49.0276 
G01 X-65.2724 Y48.8899 
G01 X-65.1643 Y48.7281 
G01 X-65.0898 Y48.5482 
G01 X-65.0518 Y48.3573 
G01 X-65.0518 Y43.6970 
G01 X-65.0065 Y43.6081 
G01 X-64.9523 Y43.4411 
G01 X-64.9248 Y43.2678 
G01 X-64.9248 Y43.0922 
G01 X-64.9523 Y42.9189 
G01 X-65.0065 Y42.7519 
G01 X-65.0518 Y42.6630 
G01 X-65.0518 Y36.5482 
G01 X-51.2093 Y36.5482 
G01 X-50.5182 Y37.2393 
G01 X-50.5182 Y39.4673 
G01 X-50.4802 Y39.6582 
G01 X-50.4057 Y39.8381 
G01 X-50.2976 Y39.9999 
G01 X-50.1599 Y40.1376 
G01 X-46.7082 Y43.5893 
G01 X-46.7082 Y52.1673 
G01 X-46.6702 Y52.3582 
G01 X-46.5957 Y52.5381 
G01 X-46.4876 Y52.6999 
G01 X-46.3499 Y52.8376 
G01 X-46.1881 Y52.9457 
G01 X-46.0082 Y53.0202 
G01 X-45.8173 Y53.0582 
G01 X-39.0882 Y53.0582 
G01 X-39.0882 Y54.7073 
G01 X-39.0502 Y54.8982 
G01 X-38.9757 Y55.0781 
G01 X-38.8676 Y55.2399 
G01 X-38.7299 Y55.3776 
G01 X-38.5681 Y55.4857 
G01 X-38.3882 Y55.5602 
G01 X-38.1973 Y55.5982 
G01 X-38.0027 Y55.5982 
G01 X-37.8118 Y55.5602 
G01 X-37.6319 Y55.4857 
G01 X-37.4701 Y55.3776 
G01 X-37.3324 Y55.2399 
G01 X-37.2243 Y55.0781 
G01 X-37.1498 Y54.8982 
G01 X-37.1118 Y54.7073 
G01 X-37.1118 Y51.9727 
G01 X-37.1498 Y51.7818 
G01 X-37.2243 Y51.6019 
G01 X-37.3324 Y51.4401 
G01 X-37.4701 Y51.3024 
G01 X-37.6319 Y51.1943 
G01 X-37.8118 Y51.1198 
G01 X-38.0027 Y51.0818 
G01 X-44.7318 Y51.0818 
G01 X-44.7318 Y44.1682 
G01 X-39.2727 Y44.1682 
G01 X-39.0817 Y44.1302 
G01 X-38.9019 Y44.0557 
G01 X-38.7401 Y43.9476 
G01 X-38.6024 Y43.8099 
G01 X-38.4943 Y43.6481 
G01 X-38.4198 Y43.4682 
G01 X-38.3818 Y43.2773 
G01 X-38.3818 Y31.4682 
G01 X-35.2782 Y31.4682 
G01 X-35.2782 Y33.1173 
G01 X-35.2402 Y33.3082 
G01 X-35.1657 Y33.4881 
G01 X-35.0576 Y33.6499 
G01 X-34.9199 Y33.7876 
G01 X-34.7581 Y33.8957 
G01 X-34.5782 Y33.9702 
G01 X-34.3873 Y34.0082 
G01 X-34.1927 Y34.0082 
G01 X-34.0018 Y33.9702 
G01 X-33.8219 Y33.8957 
G01 X-33.6601 Y33.7876 
G01 X-33.5224 Y33.6499 
G01 X-33.4143 Y33.4881 
G01 X-33.3398 Y33.3082 
G01 X-33.3018 Y33.1173 
G01 X-33.3018 Y30.3827 
G01 X-33.3398 Y30.1918 
G01 X-33.4143 Y30.0119 
G01 X-33.5224 Y29.8501 
G01 X-33.6601 Y29.7124 
G01 X-33.8219 Y29.6043 
G01 X-34.0018 Y29.5298 
G01 X-34.1927 Y29.4918 
G01 X-38.3818 Y29.4918 
G01 X-38.3818 Y29.1127 
G01 X-38.4198 Y28.9218 
G01 X-38.4943 Y28.7419 
G01 X-38.6024 Y28.5801 
G01 X-38.7401 Y28.4424 
G01 X-38.9019 Y28.3343 
G01 X-39.0817 Y28.2598 
G01 X-39.2727 Y28.2218 
G01 X-39.4673 Y28.2218 
G01 X-39.6582 Y28.2598 
G01 X-39.8381 Y28.3343 
G01 X-39.9999 Y28.4424 
G01 X-40.1376 Y28.5801 
G01 X-40.2457 Y28.7419 
G01 X-40.3202 Y28.9218 
G01 X-40.3582 Y29.1127 
G01 X-40.3582 Y37.1118 
G01 X-41.1686 Y37.1118 
G01 X-41.1918 Y37.0557 
G01 X-41.2805 Y36.9230 
G01 X-41.3934 Y36.8101 
G01 X-41.5261 Y36.7214 
G01 X-41.6736 Y36.6603 
G01 X-41.8302 Y36.6292 
G01 X-41.9898 Y36.6292 
G01 X-42.1464 Y36.6603 
G01 X-42.2939 Y36.7214 
G01 X-42.4266 Y36.8101 
G01 X-42.5395 Y36.9230 
G01 X-42.6282 Y37.0557 
G01 X-42.6893 Y37.2032 
G01 X-42.7204 Y37.3598 
G01 X-42.7204 Y37.5341 
G01 X-42.7857 Y37.6319 
G01 X-42.8602 Y37.8118 
G01 X-42.8982 Y38.0027 
G01 X-42.8982 Y38.1973 
G01 X-42.8602 Y38.3882 
G01 X-42.7857 Y38.5681 
G01 X-42.7204 Y38.6659 
G01 X-42.7204 Y38.8402 
G01 X-42.6893 Y38.9968 
G01 X-42.6282 Y39.1443 
G01 X-42.5395 Y39.2770 
G01 X-42.4266 Y39.3899 
G01 X-42.2939 Y39.4786 
G01 X-42.1464 Y39.5397 
G01 X-41.9898 Y39.5708 
G01 X-41.8302 Y39.5708 
G01 X-41.6736 Y39.5397 
G01 X-41.5261 Y39.4786 
G01 X-41.3934 Y39.3899 
G01 X-41.2805 Y39.2770 
G01 X-41.1918 Y39.1443 
G01 X-41.1686 Y39.0882 
G01 X-40.3582 Y39.0882 
G01 X-40.3582 Y42.1918 
G01 X-45.3107 Y42.1918 
G01 X-48.5418 Y38.9607 
G01 X-48.5418 Y36.7327 
G01 X-48.5798 Y36.5418 
G01 X-48.6543 Y36.3619 
G01 X-48.7624 Y36.2001 
G01 X-48.9001 Y36.0624 
G01 X-50.1701 Y34.7924 
G01 X-50.3319 Y34.6843 
G01 X-50.5117 Y34.6098 
G01 X-50.7027 Y34.5718 
G01 X-66.1373 Y34.5718 
G01 X-66.3282 Y34.6098 
G01 X-66.5081 Y34.6843 
G01 X-66.6699 Y34.7924 
G01 X-66.8076 Y34.9301 
G01 X-66.9157 Y35.0919 
G01 X-66.9902 Y35.2718 
G01 X-67.0282 Y35.4627 
G01 X-67.0282 Y42.0648 
G01 X-67.3978 Y42.0648 
G01 X-67.5711 Y42.0923 
G01 X-67.7381 Y42.1465 
G01 X-67.8945 Y42.2262 
G01 X-68.0365 Y42.3294 
G01 X-68.1606 Y42.4535 
G01 X-68.2638 Y42.5955 
G01 X-68.3435 Y42.7519 
G01 X-68.3977 Y42.9189 
G01 X-68.4252 Y43.0922 
G01 X-68.4252 Y43.2678 
G01 X-68.3977 Y43.4411 
G01 X-68.3435 Y43.6081 
G01 X-68.2638 Y43.7645 
G01 X-68.1606 Y43.9065 
G01 X-68.0365 Y44.0306 
G01 X-67.8945 Y44.1338 
G01 X-67.7381 Y44.2135 
G01 X-67.5711 Y44.2677 
G01 X-67.3978 Y44.2952 
G01 X-67.0282 Y44.2952 
G01 X-67.0282 Y47.2718 
G00 Z2.5400  
G00 X-60.3020 Y72.8781 
G01 Z-0.1778 F100   
G01 X-60.1496 Y72.7257 F80    
G01 X-60.1496 Y72.0543 
G01 X-60.6243 Y71.5796 
G01 X-61.2957 Y71.5796 
G01 X-61.4481 Y71.7320 
G01 X-63.0119 Y71.7320 
G01 X-63.1643 Y71.5796 
G01 X-63.8357 Y71.5796 
G01 X-64.3104 Y72.0543 
G01 X-64.3104 Y72.7257 
G01 X-63.8357 Y73.2004 
G01 X-63.1643 Y73.2004 
G01 X-63.0119 Y73.0480 
G01 X-61.6180 Y73.0480 
G01 X-61.6180 Y73.8726 
G01 X-61.7692 Y73.9825 
G01 X-61.9075 Y74.1208 
G01 X-62.0224 Y74.2789 
G01 X-62.1112 Y74.4532 
G01 X-62.1716 Y74.6391 
G01 X-62.2022 Y74.8322 
G01 X-62.2022 Y75.0278 
G01 X-62.1716 Y75.2209 
G01 X-62.1112 Y75.4068 
G01 X-62.0224 Y75.5811 
G01 X-61.9075 Y75.7392 
G01 X-61.7692 Y75.8775 
G01 X-61.6111 Y75.9924 
G01 X-61.4368 Y76.0812 
G01 X-61.2509 Y76.1416 
G01 X-61.0578 Y76.1722 
G01 X-60.8622 Y76.1722 
G01 X-60.6691 Y76.1416 
G01 X-60.4832 Y76.0812 
G01 X-60.3089 Y75.9924 
G01 X-60.1508 Y75.8775 
G01 X-60.0125 Y75.7392 
G01 X-59.8976 Y75.5811 
G01 X-59.8088 Y75.4068 
G01 X-59.7484 Y75.2209 
G01 X-59.7178 Y75.0278 
G01 X-59.7178 Y74.8322 
G01 X-59.7484 Y74.6391 
G01 X-59.8088 Y74.4532 
G01 X-59.8976 Y74.2789 
G01 X-60.0125 Y74.1208 
G01 X-60.1508 Y73.9825 
G01 X-60.3020 Y73.8726 
G01 X-60.3020 Y72.8781 
G00 Z2.5400  
G00 X-92.6350 Y43.1997 
G01 Z-0.1778 F100   
G01 X-92.6350 Y43.4003 F80    
G01 X-92.6036 Y43.5986 
G01 X-92.5416 Y43.7894 
G01 X-92.4505 Y43.9682 
G01 X-92.3325 Y44.1306 
G01 X-92.1906 Y44.2725 
G01 X-92.0282 Y44.3905 
G01 X-91.8494 Y44.4816 
G01 X-91.6586 Y44.5436 
G01 X-91.4603 Y44.5750 
G01 X-91.2597 Y44.5750 
G01 X-91.0614 Y44.5436 
G01 X-90.8706 Y44.4816 
G01 X-90.6918 Y44.3905 
G01 X-90.5294 Y44.2725 
G01 X-90.3875 Y44.1306 
G01 X-90.2695 Y43.9682 
G01 X-90.1991 Y43.8300 
G01 X-87.0100 Y43.8300 
G01 X-87.0100 Y52.8439 
G01 X-87.1704 Y53.0043 
G01 X-87.1704 Y53.6757 
G01 X-86.6957 Y54.1504 
G01 X-86.0243 Y54.1504 
G01 X-85.5496 Y53.6757 
G01 X-85.5496 Y53.0043 
G01 X-85.7100 Y52.8439 
G01 X-85.7100 Y43.8300 
G01 X-85.5861 Y43.8300 
G01 X-85.4257 Y43.9904 
G01 X-84.7543 Y43.9904 
G01 X-84.2796 Y43.5157 
G01 X-84.2796 Y42.8443 
G01 X-84.7543 Y42.3696 
G01 X-85.4257 Y42.3696 
G01 X-85.5861 Y42.5300 
G01 X-90.3435 Y42.5300 
G01 X-90.3875 Y42.4694 
G01 X-90.5294 Y42.3275 
G01 X-90.6918 Y42.2095 
G01 X-90.8706 Y42.1184 
G01 X-91.0614 Y42.0564 
G01 X-91.2597 Y42.0250 
G01 X-91.4603 Y42.0250 
G01 X-91.6586 Y42.0564 
G01 X-91.8494 Y42.1184 
G01 X-92.0282 Y42.2095 
G01 X-92.1906 Y42.3275 
G01 X-92.3325 Y42.4694 
G01 X-92.4505 Y42.6318 
G01 X-92.5416 Y42.8106 
G01 X-92.6036 Y43.0014 
G01 X-92.6350 Y43.1997 
G00 Z2.5400  
G00 X-92.6350 Y40.4997 
G01 Z-0.1778 F100   
G01 X-92.6350 Y40.7003 F80    
G01 X-92.6036 Y40.8986 
G01 X-92.5416 Y41.0894 
G01 X-92.4505 Y41.2682 
G01 X-92.3325 Y41.4306 
G01 X-92.1906 Y41.5725 
G01 X-92.0282 Y41.6905 
G01 X-91.8494 Y41.7816 
G01 X-91.6586 Y41.8436 
G01 X-91.4603 Y41.8750 
G01 X-91.2597 Y41.8750 
G01 X-91.0614 Y41.8436 
G01 X-90.8706 Y41.7816 
G01 X-90.6918 Y41.6905 
G01 X-90.5294 Y41.5725 
G01 X-90.3875 Y41.4306 
G01 X-90.2695 Y41.2682 
G01 X-90.1784 Y41.0894 
G01 X-90.1164 Y40.8986 
G01 X-90.0850 Y40.7003 
G01 X-90.0850 Y40.4997 
G01 X-90.1164 Y40.3014 
G01 X-90.1784 Y40.1106 
G01 X-90.2695 Y39.9318 
G01 X-90.3875 Y39.7694 
G01 X-90.5294 Y39.6275 
G01 X-90.6918 Y39.5095 
G01 X-90.8706 Y39.4184 
G01 X-91.0614 Y39.3564 
G01 X-91.2597 Y39.3250 
G01 X-91.4603 Y39.3250 
G01 X-91.6586 Y39.3564 
G01 X-91.8494 Y39.4184 
G01 X-92.0282 Y39.5095 
G01 X-92.1906 Y39.6275 
G01 X-92.3325 Y39.7694 
G01 X-92.4505 Y39.9318 
G01 X-92.5416 Y40.1106 
G01 X-92.6036 Y40.3014 
G01 X-92.6350 Y40.4997 
G00 Z2.5400  
G00 X-92.6350 Y35.6997 
G01 Z-0.1778 F100   
G01 X-92.6350 Y35.9003 F80    
G01 X-92.6036 Y36.0986 
G01 X-92.5416 Y36.2894 
G01 X-92.4505 Y36.4682 
G01 X-92.3325 Y36.6306 
G01 X-92.1906 Y36.7725 
G01 X-92.0282 Y36.8905 
G01 X-91.8494 Y36.9816 
G01 X-91.6586 Y37.0436 
G01 X-91.4603 Y37.0750 
G01 X-91.2597 Y37.0750 
G01 X-91.0614 Y37.0436 
G01 X-90.8706 Y36.9816 
G01 X-90.6918 Y36.8905 
G01 X-90.5294 Y36.7725 
G01 X-90.3875 Y36.6306 
G01 X-90.2695 Y36.4682 
G01 X-90.1784 Y36.2894 
G01 X-90.1164 Y36.0986 
G01 X-90.0850 Y35.9003 
G01 X-90.0850 Y35.6997 
G01 X-90.1164 Y35.5014 
G01 X-90.1784 Y35.3106 
G01 X-90.2695 Y35.1318 
G01 X-90.3875 Y34.9694 
G01 X-90.5294 Y34.8275 
G01 X-90.6918 Y34.7095 
G01 X-90.8706 Y34.6184 
G01 X-91.0614 Y34.5564 
G01 X-91.2597 Y34.5250 
G01 X-91.4603 Y34.5250 
G01 X-91.6586 Y34.5564 
G01 X-91.8494 Y34.6184 
G01 X-92.0282 Y34.7095 
G01 X-92.1906 Y34.8275 
G01 X-92.3325 Y34.9694 
G01 X-92.4505 Y35.1318 
G01 X-92.5416 Y35.3106 
G01 X-92.6036 Y35.5014 
G01 X-92.6350 Y35.6997 
G00 Z2.5400  
G00 X-1.7724 Y8.2499  
G01 Z-0.1778 F100   
G01 X-1.6643 Y8.0881  F80    
G01 X-1.5898 Y7.9082  
G01 X-1.5518 Y7.7173  
G01 X-1.5518 Y4.9827  
G01 X-1.5898 Y4.7918  
G01 X-1.6643 Y4.6119  
G01 X-1.7724 Y4.4501  
G01 X-3.5570 Y2.6654  
G01 X-3.5590 Y2.6616  
G01 X-3.6631 Y2.5183  
G01 X-3.7883 Y2.3931  
G01 X-3.9316 Y2.2890  
G01 X-3.9354 Y2.2870  
G01 X-5.7201 Y0.5024  
G01 X-5.8819 Y0.3943  
G01 X-6.0617 Y0.3198  
G01 X-6.2527 Y0.2818  
G01 X-8.9873 Y0.2818  
G01 X-9.1782 Y0.3198  
G01 X-9.3581 Y0.3943  
G01 X-9.5199 Y0.5024  
G01 X-9.6576 Y0.6401  
G01 X-10.9276 Y1.9101  
G01 X-11.0357 Y2.0719  
G01 X-11.0833 Y2.1867  
G01 X-11.1507 Y2.2086  
G01 X-11.3084 Y2.2890  
G01 X-11.4517 Y2.3931  
G01 X-11.5769 Y2.5183  
G01 X-11.6810 Y2.6616  
G01 X-11.6830 Y2.6654  
G01 X-13.4676 Y4.4501  
G01 X-13.5757 Y4.6119  
G01 X-13.6502 Y4.7918  
G01 X-13.6882 Y4.9827  
G01 X-13.6882 Y7.7173  
G01 X-13.6502 Y7.9082  
G01 X-13.5757 Y8.0881  
G01 X-13.4676 Y8.2499  
G01 X-13.3299 Y8.3876  
G01 X-12.2150 Y9.5025  
G01 X-12.2150 Y19.0778 
G01 X-22.1701 Y19.0778 
G01 X-22.3149 Y19.0040 
G01 X-22.5275 Y18.9350 
G01 X-22.7482 Y18.9000 
G01 X-23.9800 Y18.9000 
G01 X-23.9800 Y6.1653  
G01 X-23.9125 Y6.0485  
G01 X-23.8295 Y5.8481  
G01 X-23.7734 Y5.6385  
G01 X-23.7451 Y5.4234  
G01 X-23.7451 Y2.1966  
G01 X-23.7734 Y1.9815  
G01 X-23.8295 Y1.7719  
G01 X-23.9125 Y1.5715  
G01 X-24.0210 Y1.3836  
G01 X-24.1531 Y1.2115  
G01 X-24.3065 Y1.0581  
G01 X-24.4786 Y0.9261  
G01 X-24.6665 Y0.8176  
G01 X-24.8669 Y0.7346  
G01 X-25.0764 Y0.6784  
G01 X-25.2915 Y0.6501  
G01 X-25.5085 Y0.6501  
G01 X-25.7236 Y0.6784  
G01 X-25.9331 Y0.7346  
G01 X-26.1335 Y0.8176  
G01 X-26.3214 Y0.9261  
G01 X-26.4935 Y1.0581  
G01 X-26.6469 Y1.2115  
G01 X-26.7790 Y1.3836  
G01 X-26.8875 Y1.5715  
G01 X-26.9705 Y1.7719  
G01 X-27.0266 Y1.9815  
G01 X-27.0549 Y2.1966  
G01 X-27.0549 Y5.4234  
G01 X-27.0266 Y5.6385  
G01 X-26.9705 Y5.8481  
G01 X-26.8875 Y6.0485  
G01 X-26.8200 Y6.1653  
G01 X-26.8200 Y19.4959 
G01 X-28.4693 Y20.4384 
G01 X-28.5368 Y20.4770 
G01 X-28.6061 Y20.5123 
G01 X-28.6337 Y20.5324 
G01 X-33.1748 Y23.1273 
G01 X-33.1748 Y8.8022  
G01 X-33.2023 Y8.6289  
G01 X-33.2565 Y8.4619  
G01 X-33.3362 Y8.3055  
G01 X-33.4394 Y8.1635  
G01 X-33.5635 Y8.0394  
G01 X-33.7055 Y7.9362  
G01 X-33.8619 Y7.8565  
G01 X-34.0289 Y7.8023  
G01 X-34.2022 Y7.7748  
G01 X-34.3778 Y7.7748  
G01 X-34.5511 Y7.8023  
G01 X-34.7181 Y7.8565  
G01 X-34.8070 Y7.9018  
G01 X-52.7909 Y7.9018  
G01 X-52.9219 Y7.8143  
G01 X-53.1018 Y7.7398  
G01 X-53.2927 Y7.7018  
G01 X-53.4873 Y7.7018  
G01 X-53.6782 Y7.7398  
G01 X-53.8581 Y7.8143  
G01 X-53.9891 Y7.9018  
G01 X-63.5973 Y7.9018  
G01 X-63.7882 Y7.9398  
G01 X-63.9681 Y8.0143  
G01 X-64.1299 Y8.1224  
G01 X-64.2676 Y8.2601  
G01 X-64.3757 Y8.4219  
G01 X-64.4502 Y8.6018  
G01 X-64.4882 Y8.7927  
G01 X-64.4882 Y15.5218 
G01 X-76.8053 Y15.5218 
G01 X-76.9962 Y15.5598 
G01 X-77.1761 Y15.6343 
G01 X-77.3379 Y15.7424 
G01 X-77.4756 Y15.8801 
G01 X-77.5837 Y16.0419 
G01 X-77.6582 Y16.2218 
G01 X-77.6962 Y16.4127 
G01 X-77.6962 Y16.6073 
G01 X-77.6582 Y16.7982 
G01 X-77.5837 Y16.9781 
G01 X-77.4756 Y17.1399 
G01 X-77.3379 Y17.2776 
G01 X-77.1761 Y17.3857 
G01 X-76.9962 Y17.4602 
G01 X-76.8053 Y17.4982 
G01 X-63.4027 Y17.4982 
G01 X-63.2118 Y17.4602 
G01 X-63.0319 Y17.3857 
G01 X-62.8701 Y17.2776 
G01 X-62.7324 Y17.1399 
G01 X-62.6243 Y16.9781 
G01 X-62.5498 Y16.7982 
G01 X-62.5118 Y16.6073 
G01 X-62.5118 Y9.8782  
G01 X-35.4052 Y9.8782  
G01 X-35.4052 Y24.5158 
G01 X-35.4162 Y24.5279 
G01 X-35.5387 Y24.7148 
G01 X-35.6306 Y24.9186 
G01 X-35.6894 Y25.1342 
G01 X-35.7137 Y25.3564 
G01 X-35.7030 Y25.5796 
G01 X-35.6575 Y25.7985 
G01 X-35.5784 Y26.0075 
G01 X-35.4675 Y26.2015 
G01 X-35.3276 Y26.3759 
G01 X-35.1621 Y26.5262 
G01 X-34.9752 Y26.6487 
G01 X-34.7714 Y26.7406 
G01 X-34.5558 Y26.7994 
G01 X-34.3336 Y26.8237 
G01 X-34.1104 Y26.8130 
G01 X-33.8915 Y26.7675 
G01 X-33.6825 Y26.6883 
G01 X-29.3579 Y24.2172 
G01 X-29.2818 Y26.6143 
G01 X-29.2818 Y26.7036 
G01 X-29.2783 Y26.7260 
G01 X-29.2776 Y26.7486 
G01 X-29.2608 Y26.8362 
G01 X-29.2469 Y26.9244 
G01 X-29.2399 Y26.9459 
G01 X-29.2356 Y26.9681 
G01 X-29.2054 Y27.0521 
G01 X-29.1778 Y27.1369 
G01 X-29.1675 Y27.1571 
G01 X-29.1599 Y27.1784 
G01 X-29.1169 Y27.2566 
G01 X-29.0763 Y27.3361 
G01 X-29.0630 Y27.3544 
G01 X-29.0521 Y27.3742 
G01 X-28.9974 Y27.4447 
G01 X-28.9450 Y27.5169 
G01 X-28.9289 Y27.5329 
G01 X-28.9151 Y27.5508 
G01 X-28.8500 Y27.6119 
G01 X-28.7869 Y27.6750 
G01 X-28.7686 Y27.6883 
G01 X-28.7521 Y27.7038 
G01 X-28.6783 Y27.7539 
G01 X-28.6061 Y27.8063 
G01 X-28.5859 Y27.8166 
G01 X-28.5672 Y27.8293 
G01 X-28.4864 Y27.8673 
G01 X-28.4069 Y27.9078 
G01 X-28.3854 Y27.9148 
G01 X-28.3649 Y27.9244 
G01 X-28.2792 Y27.9493 
G01 X-28.1944 Y27.9769 
G01 X-28.1720 Y27.9804 
G01 X-28.1502 Y27.9867 
G01 X-28.0617 Y27.9979 
G01 X-27.9736 Y28.0118 
G01 X-27.9510 Y28.0118 
G01 X-27.9285 Y28.0147 
G01 X-27.8393 Y28.0118 
G01 X-27.7501 Y28.0118 
G01 X-27.7277 Y28.0083 
G01 X-27.7051 Y28.0076 
G01 X-27.6175 Y27.9908 
G01 X-27.5293 Y27.9769 
G01 X-27.5078 Y27.9699 
G01 X-27.4855 Y27.9656 
G01 X-27.4016 Y27.9354 
G01 X-27.3168 Y27.9078 
G01 X-27.2966 Y27.8975 
G01 X-27.2753 Y27.8899 
G01 X-27.1971 Y27.8469 
G01 X-27.1176 Y27.8063 
G01 X-27.0993 Y27.7930 
G01 X-27.0794 Y27.7821 
G01 X-27.0090 Y27.7274 
G01 X-26.9368 Y27.6750 
G01 X-26.9208 Y27.6589 
G01 X-26.9029 Y27.6451 
G01 X-26.8418 Y27.5800 
G01 X-26.7787 Y27.5169 
G01 X-26.7654 Y27.4986 
G01 X-26.7499 Y27.4821 
G01 X-26.6998 Y27.4083 
G01 X-26.6474 Y27.3361 
G01 X-26.6371 Y27.3159 
G01 X-26.6243 Y27.2972 
G01 X-26.5864 Y27.2164 
G01 X-26.5459 Y27.1369 
G01 X-26.5389 Y27.1154 
G01 X-26.5292 Y27.0949 
G01 X-26.5044 Y27.0092 
G01 X-26.4768 Y26.9244 
G01 X-26.4733 Y26.9020 
G01 X-26.4670 Y26.8803 
G01 X-26.4558 Y26.7917 
G01 X-26.4418 Y26.7036 
G01 X-26.4418 Y26.6810 
G01 X-26.4390 Y26.6585 
G01 X-26.4418 Y26.5693 
G01 X-26.4418 Y22.5508 
G01 X-25.0229 Y21.7400 
G01 X-23.8482 Y21.7400 
G01 X-23.8482 Y22.9573 
G01 X-23.8102 Y23.1482 
G01 X-23.7357 Y23.3281 
G01 X-23.6276 Y23.4899 
G01 X-23.4899 Y23.6276 
G01 X-23.3281 Y23.7357 
G01 X-23.1482 Y23.8102 
G01 X-22.9573 Y23.8482 
G01 X-22.7627 Y23.8482 
G01 X-22.5718 Y23.8102 
G01 X-22.3919 Y23.7357 
G01 X-22.2301 Y23.6276 
G01 X-22.0924 Y23.4899 
G01 X-21.9843 Y23.3281 
G01 X-21.9098 Y23.1482 
G01 X-21.8718 Y22.9573 
G01 X-21.8718 Y21.5622 
G01 X-4.5950 Y21.5622 
G01 X-4.5950 Y39.6518 
G01 X-6.4473 Y39.6518 
G01 X-6.6382 Y39.6898 
G01 X-6.8181 Y39.7643 
G01 X-6.9799 Y39.8724 
G01 X-7.1176 Y40.0101 
G01 X-7.2257 Y40.1719 
G01 X-7.3002 Y40.3518 
G01 X-7.3382 Y40.5427 
G01 X-7.3382 Y40.7373 
G01 X-7.3002 Y40.9282 
G01 X-7.2257 Y41.1081 
G01 X-7.1176 Y41.2699 
G01 X-6.9799 Y41.4076 
G01 X-6.8181 Y41.5157 
G01 X-6.6382 Y41.5902 
G01 X-6.4473 Y41.6282 
G01 X-4.5950 Y41.6282 
G01 X-4.5950 Y50.9548 
G01 X-9.1718 Y50.9548 
G01 X-9.1718 Y48.1627 
G01 X-9.2098 Y47.9718 
G01 X-9.2843 Y47.7919 
G01 X-9.3924 Y47.6301 
G01 X-9.5301 Y47.4924 
G01 X-9.6919 Y47.3843 
G01 X-9.8718 Y47.3098 
G01 X-10.0627 Y47.2718 
G01 X-10.2573 Y47.2718 
G01 X-10.4482 Y47.3098 
G01 X-10.6281 Y47.3843 
G01 X-10.7899 Y47.4924 
G01 X-10.9276 Y47.6301 
G01 X-11.0357 Y47.7919 
G01 X-11.1102 Y47.9718 
G01 X-11.1482 Y48.1627 
G01 X-11.1482 Y51.5530 
G01 X-11.1935 Y51.6419 
G01 X-11.2477 Y51.8089 
G01 X-11.2752 Y51.9822 
G01 X-11.2752 Y52.1578 
G01 X-11.2477 Y52.3311 
G01 X-11.1935 Y52.4981 
G01 X-11.1138 Y52.6545 
G01 X-11.0106 Y52.7965 
G01 X-10.8865 Y52.9206 
G01 X-10.7445 Y53.0238 
G01 X-10.5881 Y53.1035 
G01 X-10.4211 Y53.1577 
G01 X-10.2478 Y53.1852 
G01 X-4.5950 Y53.1852 
G01 X-4.5950 Y67.1600 
G01 X-12.5880 Y67.1600 
G01 X-25.4985 Y67.1600 
G01 X-30.5918 Y67.1600 
G01 X-30.8125 Y67.1950 
G01 X-30.9461 Y67.2384 
G01 X-34.5145 Y67.8331 
G01 X-34.6178 Y67.8495 
G01 X-34.6232 Y67.8512 
G01 X-34.6288 Y67.8522 
G01 X-34.7279 Y67.8852 
G01 X-34.8274 Y67.9176 
G01 X-34.8325 Y67.9202 
G01 X-34.8379 Y67.9219 
G01 X-34.9306 Y67.9702 
G01 X-35.0238 Y68.0176 
G01 X-35.0284 Y68.0210 
G01 X-35.0334 Y68.0236 
G01 X-35.1174 Y68.0856 
G01 X-35.2020 Y68.1471 
G01 X-35.2061 Y68.1512 
G01 X-35.2106 Y68.1545 
G01 X-35.2838 Y68.2289 
G01 X-35.3579 Y68.3030 
G01 X-35.3612 Y68.3076 
G01 X-35.3652 Y68.3116 
G01 X-35.4258 Y68.3965 
G01 X-35.4874 Y68.4812 
G01 X-35.4900 Y68.4863 
G01 X-35.4933 Y68.4909 
G01 X-35.5399 Y68.5843 
G01 X-35.5874 Y68.6776 
G01 X-35.5892 Y68.6830 
G01 X-35.5917 Y68.6881 
G01 X-35.6232 Y68.7876 
G01 X-35.6555 Y68.8872 
G01 X-35.6564 Y68.8928 
G01 X-35.6581 Y68.8982 
G01 X-35.6736 Y69.0015 
G01 X-35.6900 Y69.1048 
G01 X-35.6900 Y69.1105 
G01 X-35.6908 Y69.1161 
G01 X-35.6900 Y69.2207 
G01 X-35.6900 Y74.6920 
G01 X-35.7100 Y74.8182 
G01 X-35.7100 Y77.4978 
G01 X-50.6700 Y77.4978 
G01 X-50.6700 Y70.1821 
G01 X-50.6303 Y70.0864 
G01 X-50.5992 Y69.9298 
G01 X-50.5992 Y69.7702 
G01 X-50.6303 Y69.6136 
G01 X-50.6700 Y69.5179 
G01 X-50.6700 Y67.6421 
G01 X-50.6303 Y67.5464 
G01 X-50.5992 Y67.3898 
G01 X-50.5992 Y67.2302 
G01 X-50.6303 Y67.0736 
G01 X-50.6700 Y66.9779 
G01 X-50.6700 Y65.1021 
G01 X-50.6303 Y65.0064 
G01 X-50.5992 Y64.8498 
G01 X-50.5992 Y64.6902 
G01 X-50.6303 Y64.5336 
G01 X-50.6914 Y64.3861 
G01 X-50.7523 Y64.2951 
G01 X-50.7726 Y64.2326 
G01 X-50.8726 Y64.0362 
G01 X-51.0021 Y63.8580 
G01 X-51.1580 Y63.7021 
G01 X-51.3362 Y63.5726 
G01 X-51.5326 Y63.4726 
G01 X-51.7422 Y63.4045 
G01 X-51.9598 Y63.3700 
G01 X-57.4318 Y63.3700 
G01 X-57.4318 Y49.2482 
G01 X-50.7027 Y49.2482 
G01 X-50.5117 Y49.2102 
G01 X-50.3319 Y49.1357 
G01 X-50.1701 Y49.0276 
G01 X-50.0324 Y48.8899 
G01 X-49.9243 Y48.7281 
G01 X-49.8498 Y48.5482 
G01 X-49.8118 Y48.3573 
G01 X-49.8118 Y44.3527 
G01 X-49.8498 Y44.1618 
G01 X-49.9243 Y43.9819 
G01 X-50.0324 Y43.8201 
G01 X-50.1701 Y43.6824 
G01 X-50.3319 Y43.5743 
G01 X-50.5117 Y43.4998 
G01 X-50.7027 Y43.4618 
G01 X-50.8973 Y43.4618 
G01 X-51.0882 Y43.4998 
G01 X-51.2681 Y43.5743 
G01 X-51.4299 Y43.6824 
G01 X-51.5676 Y43.8201 
G01 X-51.6757 Y43.9819 
G01 X-51.7502 Y44.1618 
G01 X-51.7882 Y44.3527 
G01 X-51.7882 Y47.2718 
G01 X-58.5173 Y47.2718 
G01 X-58.7082 Y47.3098 
G01 X-58.8881 Y47.3843 
G01 X-59.0499 Y47.4924 
G01 X-59.1876 Y47.6301 
G01 X-59.2957 Y47.7919 
G01 X-59.3702 Y47.9718 
G01 X-59.4082 Y48.1627 
G01 X-59.4082 Y63.3700 
G01 X-73.5300 Y63.3700 
G01 X-73.5300 Y60.8498 
G01 X-73.5645 Y60.6322 
G01 X-73.6326 Y60.4226 
G01 X-73.7326 Y60.2262 
G01 X-73.8621 Y60.0480 
G01 X-74.0180 Y59.8921 
G01 X-74.1962 Y59.7626 
G01 X-74.3926 Y59.6626 
G01 X-74.6022 Y59.5945 
G01 X-74.8198 Y59.5600 
G01 X-75.0402 Y59.5600 
G01 X-75.2578 Y59.5945 
G01 X-75.4674 Y59.6626 
G01 X-75.6638 Y59.7626 
G01 X-75.8420 Y59.8921 
G01 X-75.9979 Y60.0480 
G01 X-76.1274 Y60.2262 
G01 X-76.2274 Y60.4226 
G01 X-76.2955 Y60.6322 
G01 X-76.3300 Y60.8498 
G01 X-76.3300 Y64.8802 
G01 X-76.2955 Y65.0978 
G01 X-76.2274 Y65.3074 
G01 X-76.1274 Y65.5038 
G01 X-75.9979 Y65.6820 
G01 X-75.8420 Y65.8379 
G01 X-75.6638 Y65.9674 
G01 X-75.4674 Y66.0674 
G01 X-75.2578 Y66.1355 
G01 X-75.0402 Y66.1700 
G01 X-53.4700 Y66.1700 
G01 X-53.4700 Y66.9779 
G01 X-53.5097 Y67.0736 
G01 X-53.5408 Y67.2302 
G01 X-53.5408 Y67.3898 
G01 X-53.5097 Y67.5464 
G01 X-53.4700 Y67.6421 
G01 X-53.4700 Y69.5179 
G01 X-53.5097 Y69.6136 
G01 X-53.5408 Y69.7702 
G01 X-53.5408 Y69.9298 
G01 X-53.5097 Y70.0864 
G01 X-53.4700 Y70.1821 
G01 X-53.4700 Y78.8502 
G01 X-53.4355 Y79.0678 
G01 X-53.3674 Y79.2774 
G01 X-53.2674 Y79.4738 
G01 X-53.1379 Y79.6520 
G01 X-52.9820 Y79.8079 
G01 X-52.8038 Y79.9374 
G01 X-52.6074 Y80.0374 
G01 X-52.3978 Y80.1055 
G01 X-52.1802 Y80.1400 
G01 X-51.9598 Y80.1400 
G01 X-51.7422 Y80.1055 
G01 X-51.5326 Y80.0374 
G01 X-51.4242 Y79.9822 
G01 X-34.9799 Y79.9822 
G01 X-34.8351 Y80.0560 
G01 X-34.6225 Y80.1250 
G01 X-34.4018 Y80.1600 
G01 X-34.1782 Y80.1600 
G01 X-33.9575 Y80.1250 
G01 X-33.7449 Y80.0560 
G01 X-33.5458 Y79.9545 
G01 X-33.3649 Y79.8231 
G01 X-33.2069 Y79.6651 
G01 X-33.0755 Y79.4842 
G01 X-32.9740 Y79.2851 
G01 X-32.9050 Y79.0725 
G01 X-32.8700 Y78.8518 
G01 X-32.8700 Y74.8182 
G01 X-32.8900 Y74.6920 
G01 X-32.8900 Y70.4010 
G01 X-30.4841 Y70.0000 
G01 X-25.2750 Y70.0000 
G01 X-12.8120 Y70.0000 
G01 X-3.5458 Y70.0000 
G01 X-3.3251 Y69.9650 
G01 X-3.1125 Y69.8960 
G01 X-2.9134 Y69.7945 
G01 X-2.7325 Y69.6631 
G01 X-2.5745 Y69.5051 
G01 X-2.4431 Y69.3242 
G01 X-2.3416 Y69.1251 
G01 X-2.3287 Y69.0854 
G01 X-2.2499 Y69.0281 
G01 X-2.0919 Y68.8701 
G01 X-1.9605 Y68.6892 
G01 X-1.8590 Y68.4901 
G01 X-1.7900 Y68.2775 
G01 X-1.7550 Y68.0568 
G01 X-1.7550 Y10.6832 
G01 X-1.7900 Y10.4625 
G01 X-1.8590 Y10.2499 
G01 X-1.9605 Y10.0508 
G01 X-2.0919 Y9.8699  
G01 X-2.2499 Y9.7119  
G01 X-2.7422 Y9.2197  
G01 X-1.7724 Y8.2499  
G00 Z2.5400  
G00 X-43.7098 Y58.8796 
G01 Z-0.1778 F100   
G01 X-45.1902 Y58.8796 F80    
G01 X-45.3468 Y58.9107 
G01 X-45.4943 Y58.9718 
G01 X-45.5843 Y59.0320 
G01 X-47.0548 Y59.0320 
G01 X-47.1819 Y59.0573 
G01 X-47.3017 Y59.1069 
G01 X-47.4094 Y59.1789 
G01 X-47.5011 Y59.2705 
G01 X-47.5731 Y59.3783 
G01 X-47.6227 Y59.4981 
G01 X-47.6480 Y59.6252 
G01 X-47.6480 Y74.7588 
G01 X-47.6669 Y74.7725 
G01 X-47.7825 Y74.8881 
G01 X-47.8786 Y75.0204 
G01 X-47.9529 Y75.1662 
G01 X-48.0034 Y75.3217 
G01 X-48.0290 Y75.4832 
G01 X-48.0290 Y75.6468 
G01 X-48.0034 Y75.8083 
G01 X-47.9529 Y75.9638 
G01 X-47.8786 Y76.1096 
G01 X-47.7825 Y76.2419 
G01 X-47.6669 Y76.3575 
G01 X-47.5346 Y76.4536 
G01 X-47.3888 Y76.5279 
G01 X-47.2333 Y76.5784 
G01 X-47.0718 Y76.6040 
G01 X-46.9082 Y76.6040 
G01 X-46.7467 Y76.5784 
G01 X-46.5912 Y76.5279 
G01 X-46.4454 Y76.4536 
G01 X-46.3131 Y76.3575 
G01 X-46.1975 Y76.2419 
G01 X-46.1014 Y76.1096 
G01 X-46.0271 Y75.9638 
G01 X-45.9766 Y75.8083 
G01 X-45.9510 Y75.6468 
G01 X-45.9510 Y75.4832 
G01 X-45.9766 Y75.3217 
G01 X-46.0271 Y75.1662 
G01 X-46.1014 Y75.0204 
G01 X-46.1975 Y74.8881 
G01 X-46.3131 Y74.7725 
G01 X-46.3320 Y74.7588 
G01 X-46.3320 Y60.3480 
G01 X-45.5843 Y60.3480 
G01 X-45.4943 Y60.4082 
G01 X-45.3468 Y60.4693 
G01 X-45.1902 Y60.5004 
G01 X-43.7098 Y60.5004 
G01 X-43.5532 Y60.4693 
G01 X-43.4057 Y60.4082 
G01 X-43.2730 Y60.3195 
G01 X-43.1601 Y60.2066 
G01 X-43.0714 Y60.0739 
G01 X-43.0103 Y59.9264 
G01 X-42.9792 Y59.7698 
G01 X-42.9792 Y59.6102 
G01 X-43.0103 Y59.4536 
G01 X-43.0714 Y59.3061 
G01 X-43.1601 Y59.1734 
G01 X-43.2730 Y59.0605 
G01 X-43.4057 Y58.9718 
G01 X-43.5532 Y58.9107 
G01 X-43.7098 Y58.8796 
G00 Z2.5400  
G00 X-43.7098 Y61.4196 
G01 Z-0.1778 F100   
G01 X-45.1902 Y61.4196 F80    
G01 X-45.3468 Y61.4507 
G01 X-45.4943 Y61.5118 
G01 X-45.6270 Y61.6005 
G01 X-45.7399 Y61.7134 
G01 X-45.8286 Y61.8461 
G01 X-45.8897 Y61.9936 
G01 X-45.9208 Y62.1502 
G01 X-45.9208 Y62.3098 
G01 X-45.8897 Y62.4664 
G01 X-45.8286 Y62.6139 
G01 X-45.7399 Y62.7466 
G01 X-45.6270 Y62.8595 
G01 X-45.4943 Y62.9482 
G01 X-45.3468 Y63.0093 
G01 X-45.1902 Y63.0404 
G01 X-43.7098 Y63.0404 
G01 X-43.5532 Y63.0093 
G01 X-43.4057 Y62.9482 
G01 X-43.2730 Y62.8595 
G01 X-43.1601 Y62.7466 
G01 X-43.0714 Y62.6139 
G01 X-43.0103 Y62.4664 
G01 X-42.9792 Y62.3098 
G01 X-42.9792 Y62.1502 
G01 X-43.0103 Y61.9936 
G01 X-43.0714 Y61.8461 
G01 X-43.1601 Y61.7134 
G01 X-43.2730 Y61.6005 
G01 X-43.4057 Y61.5118 
G01 X-43.5532 Y61.4507 
G01 X-43.7098 Y61.4196 
G00 Z2.5400  
G00 X-43.7098 Y63.9596 
G01 Z-0.1778 F100   
G01 X-45.1902 Y63.9596 F80    
G01 X-45.3468 Y63.9907 
G01 X-45.4943 Y64.0518 
G01 X-45.6270 Y64.1405 
G01 X-45.7399 Y64.2534 
G01 X-45.8286 Y64.3861 
G01 X-45.8897 Y64.5336 
G01 X-45.9208 Y64.6902 
G01 X-45.9208 Y64.8498 
G01 X-45.8897 Y65.0064 
G01 X-45.8286 Y65.1539 
G01 X-45.7399 Y65.2866 
G01 X-45.6270 Y65.3995 
G01 X-45.4943 Y65.4882 
G01 X-45.3468 Y65.5493 
G01 X-45.1902 Y65.5804 
G01 X-43.7098 Y65.5804 
G01 X-43.5532 Y65.5493 
G01 X-43.4057 Y65.4882 
G01 X-43.2730 Y65.3995 
G01 X-43.1601 Y65.2866 
G01 X-43.0714 Y65.1539 
G01 X-43.0103 Y65.0064 
G01 X-42.9792 Y64.8498 
G01 X-42.9792 Y64.6902 
G01 X-43.0103 Y64.5336 
G01 X-43.0714 Y64.3861 
G01 X-43.1601 Y64.2534 
G01 X-43.2730 Y64.1405 
G01 X-43.4057 Y64.0518 
G01 X-43.5532 Y63.9907 
G01 X-43.7098 Y63.9596 
G00 Z2.5400  
G00 X-43.7098 Y66.4996 
G01 Z-0.1778 F100   
G01 X-45.1902 Y66.4996 F80    
G01 X-45.3468 Y66.5307 
G01 X-45.4943 Y66.5918 
G01 X-45.6270 Y66.6805 
G01 X-45.7399 Y66.7934 
G01 X-45.8286 Y66.9261 
G01 X-45.8897 Y67.0736 
G01 X-45.9208 Y67.2302 
G01 X-45.9208 Y67.3898 
G01 X-45.8897 Y67.5464 
G01 X-45.8286 Y67.6939 
G01 X-45.7399 Y67.8266 
G01 X-45.6270 Y67.9395 
G01 X-45.4943 Y68.0282 
G01 X-45.3468 Y68.0893 
G01 X-45.1902 Y68.1204 
G01 X-43.7098 Y68.1204 
G01 X-43.5532 Y68.0893 
G01 X-43.4057 Y68.0282 
G01 X-43.3157 Y67.9680 
G01 X-42.6495 Y67.9680 
G01 X-42.5399 Y68.0776 
G01 X-42.3781 Y68.1857 
G01 X-42.1982 Y68.2602 
G01 X-42.0073 Y68.2982 
G01 X-41.8127 Y68.2982 
G01 X-41.6217 Y68.2602 
G01 X-41.4419 Y68.1857 
G01 X-41.2801 Y68.0776 
G01 X-41.1424 Y67.9399 
G01 X-41.0343 Y67.7781 
G01 X-40.9598 Y67.5982 
G01 X-40.9218 Y67.4073 
G01 X-40.9218 Y67.2127 
G01 X-40.9598 Y67.0217 
G01 X-41.0343 Y66.8419 
G01 X-41.1424 Y66.6801 
G01 X-41.2801 Y66.5424 
G01 X-41.4419 Y66.4343 
G01 X-41.6217 Y66.3598 
G01 X-41.8127 Y66.3218 
G01 X-42.0073 Y66.3218 
G01 X-42.1982 Y66.3598 
G01 X-42.3781 Y66.4343 
G01 X-42.5399 Y66.5424 
G01 X-42.6495 Y66.6520 
G01 X-43.3157 Y66.6520 
G01 X-43.4057 Y66.5918 
G01 X-43.5532 Y66.5307 
G01 X-43.7098 Y66.4996 
G00 Z2.5400  
G00 X-51.3298 Y61.4196 
G01 Z-0.1778 F100   
G01 X-52.8102 Y61.4196 F80    
G01 X-52.9668 Y61.4507 
G01 X-53.1143 Y61.5118 
G01 X-53.2470 Y61.6005 
G01 X-53.3599 Y61.7134 
G01 X-53.4486 Y61.8461 
G01 X-53.5097 Y61.9936 
G01 X-53.5408 Y62.1502 
G01 X-53.5408 Y62.3098 
G01 X-53.5097 Y62.4664 
G01 X-53.4486 Y62.6139 
G01 X-53.3599 Y62.7466 
G01 X-53.2470 Y62.8595 
G01 X-53.1143 Y62.9482 
G01 X-52.9668 Y63.0093 
G01 X-52.8102 Y63.0404 
G01 X-51.3298 Y63.0404 
G01 X-51.1732 Y63.0093 
G01 X-51.0257 Y62.9482 
G01 X-50.8930 Y62.8595 
G01 X-50.7801 Y62.7466 
G01 X-50.6914 Y62.6139 
G01 X-50.6303 Y62.4664 
G01 X-50.5992 Y62.3098 
G01 X-50.5992 Y62.1502 
G01 X-50.6303 Y61.9936 
G01 X-50.6914 Y61.8461 
G01 X-50.7801 Y61.7134 
G01 X-50.8930 Y61.6005 
G01 X-51.0257 Y61.5118 
G01 X-51.1732 Y61.4507 
G01 X-51.3298 Y61.4196 
G00 Z2.5400  
G00 X-51.3298 Y56.3396 
G01 Z-0.1778 F100   
G01 X-52.8102 Y56.3396 F80    
G01 X-52.9668 Y56.3707 
G01 X-53.1143 Y56.4318 
G01 X-53.2043 Y56.4920 
G01 X-56.0868 Y56.4920 
G01 X-56.1432 Y56.4543 
G01 X-56.2860 Y56.3952 
G01 X-56.4377 Y56.3650 
G01 X-56.5923 Y56.3650 
G01 X-56.7440 Y56.3952 
G01 X-56.8868 Y56.4543 
G01 X-57.0154 Y56.5403 
G01 X-57.1247 Y56.6496 
G01 X-57.2107 Y56.7782 
G01 X-57.2698 Y56.9210 
G01 X-57.3000 Y57.0727 
G01 X-57.3000 Y57.2273 
G01 X-57.2698 Y57.3790 
G01 X-57.2107 Y57.5218 
G01 X-57.1247 Y57.6504 
G01 X-57.0154 Y57.7597 
G01 X-56.8868 Y57.8457 
G01 X-56.7440 Y57.9048 
G01 X-56.5923 Y57.9350 
G01 X-56.4377 Y57.9350 
G01 X-56.2860 Y57.9048 
G01 X-56.1432 Y57.8457 
G01 X-56.0868 Y57.8080 
G01 X-53.2043 Y57.8080 
G01 X-53.1143 Y57.8682 
G01 X-52.9668 Y57.9293 
G01 X-52.8102 Y57.9604 
G01 X-51.3298 Y57.9604 
G01 X-51.1732 Y57.9293 
G01 X-51.0257 Y57.8682 
G01 X-50.8930 Y57.7795 
G01 X-50.7801 Y57.6666 
G01 X-50.6914 Y57.5339 
G01 X-50.6303 Y57.3864 
G01 X-50.5992 Y57.2298 
G01 X-50.5992 Y57.0702 
G01 X-50.6303 Y56.9136 
G01 X-50.6914 Y56.7661 
G01 X-50.7801 Y56.6334 
G01 X-50.8930 Y56.5205 
G01 X-51.0257 Y56.4318 
G01 X-51.1732 Y56.3707 
G01 X-51.3298 Y56.3396 
G00 Z2.5400  
G00 X-51.3298 Y53.7996 
G01 Z-0.1778 F100   
G01 X-52.8102 Y53.7996 F80    
G01 X-52.9668 Y53.8307 
G01 X-53.1143 Y53.8918 
G01 X-53.2470 Y53.9805 
G01 X-53.3599 Y54.0934 
G01 X-53.4486 Y54.2261 
G01 X-53.5097 Y54.3736 
G01 X-53.5408 Y54.5302 
G01 X-53.5408 Y54.6898 
G01 X-53.5097 Y54.8464 
G01 X-53.4486 Y54.9939 
G01 X-53.3599 Y55.1266 
G01 X-53.2470 Y55.2395 
G01 X-53.1143 Y55.3282 
G01 X-52.9668 Y55.3893 
G01 X-52.8102 Y55.4204 
G01 X-51.3298 Y55.4204 
G01 X-51.1732 Y55.3893 
G01 X-51.0257 Y55.3282 
G01 X-50.8930 Y55.2395 
G01 X-50.7801 Y55.1266 
G01 X-50.6914 Y54.9939 
G01 X-50.6303 Y54.8464 
G01 X-50.5992 Y54.6898 
G01 X-50.5992 Y54.5302 
G01 X-50.6303 Y54.3736 
G01 X-50.6914 Y54.2261 
G01 X-50.7801 Y54.0934 
G01 X-50.8930 Y53.9805 
G01 X-51.0257 Y53.8918 
G01 X-51.1732 Y53.8307 
G01 X-51.3298 Y53.7996 
G00 Z2.5400  
G00 X-51.3298 Y51.2596 
G01 Z-0.1778 F100   
G01 X-52.8102 Y51.2596 F80    
G01 X-52.9668 Y51.2907 
G01 X-53.1143 Y51.3518 
G01 X-53.2470 Y51.4405 
G01 X-53.3599 Y51.5534 
G01 X-53.4486 Y51.6861 
G01 X-53.5097 Y51.8336 
G01 X-53.5408 Y51.9902 
G01 X-53.5408 Y52.1498 
G01 X-53.5097 Y52.3064 
G01 X-53.4486 Y52.4539 
G01 X-53.3599 Y52.5866 
G01 X-53.2470 Y52.6995 
G01 X-53.1143 Y52.7882 
G01 X-52.9668 Y52.8493 
G01 X-52.8102 Y52.8804 
G01 X-51.3298 Y52.8804 
G01 X-51.1732 Y52.8493 
G01 X-51.0257 Y52.7882 
G01 X-51.0177 Y52.7828 
G01 X-48.7711 Y55.0295 
G01 X-48.6795 Y55.1211 
G01 X-48.5717 Y55.1931 
G01 X-48.4519 Y55.2427 
G01 X-48.3248 Y55.2680 
G01 X-45.5843 Y55.2680 
G01 X-45.4943 Y55.3282 
G01 X-45.3468 Y55.3893 
G01 X-45.1902 Y55.4204 
G01 X-43.7098 Y55.4204 
G01 X-43.5532 Y55.3893 
G01 X-43.4057 Y55.3282 
G01 X-43.3157 Y55.2680 
G01 X-42.1826 Y55.2680 
G01 X-40.5161 Y56.9345 
G01 X-40.4245 Y57.0261 
G01 X-40.3167 Y57.0981 
G01 X-40.1969 Y57.1477 
G01 X-40.0698 Y57.1730 
G01 X-37.7376 Y57.1730 
G01 X-37.3411 Y57.5695 
G01 X-37.2495 Y57.6611 
G01 X-37.1417 Y57.7331 
G01 X-37.0219 Y57.7827 
G01 X-36.8948 Y57.8080 
G01 X-32.1724 Y57.8080 
G01 X-32.0625 Y57.9592 
G01 X-31.9242 Y58.0975 
G01 X-31.7661 Y58.2124 
G01 X-31.5918 Y58.3012 
G01 X-31.4059 Y58.3616 
G01 X-31.2128 Y58.3922 
G01 X-31.0172 Y58.3922 
G01 X-30.8241 Y58.3616 
G01 X-30.6382 Y58.3012 
G01 X-30.4639 Y58.2124 
G01 X-30.3058 Y58.0975 
G01 X-30.1675 Y57.9592 
G01 X-30.0526 Y57.8011 
G01 X-29.9638 Y57.6268 
G01 X-29.9034 Y57.4409 
G01 X-29.8728 Y57.2478 
G01 X-29.8728 Y57.0522 
G01 X-29.9034 Y56.8591 
G01 X-29.9638 Y56.6732 
G01 X-30.0526 Y56.4989 
G01 X-30.1675 Y56.3408 
G01 X-30.3058 Y56.2025 
G01 X-30.4639 Y56.0876 
G01 X-30.6382 Y55.9988 
G01 X-30.8241 Y55.9384 
G01 X-31.0172 Y55.9078 
G01 X-31.2128 Y55.9078 
G01 X-31.4059 Y55.9384 
G01 X-31.5918 Y55.9988 
G01 X-31.7661 Y56.0876 
G01 X-31.9242 Y56.2025 
G01 X-32.0625 Y56.3408 
G01 X-32.1724 Y56.4920 
G01 X-36.5574 Y56.4920 
G01 X-37.0455 Y56.0039 
G01 X-37.1533 Y55.9319 
G01 X-37.2731 Y55.8823 
G01 X-37.4002 Y55.8570 
G01 X-39.7324 Y55.8570 
G01 X-41.4905 Y54.0989 
G01 X-41.5983 Y54.0269 
G01 X-41.7181 Y53.9773 
G01 X-41.8452 Y53.9520 
G01 X-43.3157 Y53.9520 
G01 X-43.4057 Y53.8918 
G01 X-43.5532 Y53.8307 
G01 X-43.7098 Y53.7996 
G01 X-45.1902 Y53.7996 
G01 X-45.3468 Y53.8307 
G01 X-45.4943 Y53.8918 
G01 X-45.5843 Y53.9520 
G01 X-47.9874 Y53.9520 
G01 X-50.3805 Y51.5589 
G01 X-50.4883 Y51.4869 
G01 X-50.6081 Y51.4373 
G01 X-50.7352 Y51.4120 
G01 X-50.9357 Y51.4120 
G01 X-51.0257 Y51.3518 
G01 X-51.1732 Y51.2907 
G01 X-51.3298 Y51.2596 
G00 Z2.5400  
G00 X-67.8833 Y56.5785 
G01 Z-0.1778 F100   
G01 X-67.7360 Y56.6769 F80    
G01 X-67.5723 Y56.7447 
G01 X-67.3986 Y56.7793 
G01 X-67.2214 Y56.7793 
G01 X-67.0477 Y56.7447 
G01 X-66.8840 Y56.6769 
G01 X-66.7367 Y56.5785 
G01 X-66.6115 Y56.4533 
G01 X-66.5131 Y56.3060 
G01 X-66.4453 Y56.1423 
G01 X-66.4107 Y55.9686 
G01 X-66.4107 Y55.8999 
G01 X-64.5008 Y53.9900 
G01 X-63.9961 Y53.9900 
G01 X-63.8357 Y54.1504 
G01 X-63.1643 Y54.1504 
G01 X-63.0039 Y53.9900 
G01 X-60.8960 Y53.9900 
G01 X-60.7704 Y53.9650 
G01 X-60.6521 Y53.9160 
G01 X-60.5456 Y53.8449 
G01 X-60.4551 Y53.7544 
G01 X-60.3840 Y53.6479 
G01 X-60.3350 Y53.5296 
G01 X-60.3100 Y53.4040 
G01 X-60.3100 Y48.7561 
G01 X-60.1496 Y48.5957 
G01 X-60.1496 Y47.9243 
G01 X-60.6243 Y47.4496 
G01 X-61.2957 Y47.4496 
G01 X-61.7704 Y47.9243 
G01 X-61.7704 Y48.5957 
G01 X-61.6100 Y48.7561 
G01 X-61.6100 Y52.6900 
G01 X-63.0039 Y52.6900 
G01 X-63.1643 Y52.5296 
G01 X-63.8357 Y52.5296 
G01 X-63.9961 Y52.6900 
G01 X-64.8340 Y52.6900 
G01 X-64.9596 Y52.7150 
G01 X-65.0779 Y52.7640 
G01 X-65.1844 Y52.8351 
G01 X-67.3299 Y54.9807 
G01 X-67.3986 Y54.9807 
G01 X-67.5723 Y55.0153 
G01 X-67.7360 Y55.0831 
G01 X-67.8833 Y55.1815 
G01 X-67.9318 Y55.2300 
G01 X-70.4700 Y55.2300 
G01 X-70.4700 Y53.2760 
G01 X-70.4950 Y53.1504 
G01 X-70.5440 Y53.0321 
G01 X-70.6151 Y52.9256 
G01 X-75.6951 Y47.8456 
G01 X-75.7856 Y47.7551 
G01 X-75.8921 Y47.6840 
G01 X-76.0104 Y47.6350 
G01 X-76.1360 Y47.6100 
G01 X-78.0900 Y47.6100 
G01 X-78.0900 Y33.5161 
G01 X-77.9296 Y33.3557 
G01 X-77.9296 Y32.6843 
G01 X-78.0900 Y32.5239 
G01 X-78.0900 Y27.8760 
G01 X-78.1150 Y27.7504 
G01 X-78.1640 Y27.6321 
G01 X-78.2351 Y27.5256 
G01 X-78.3256 Y27.4351 
G01 X-78.4321 Y27.3640 
G01 X-78.5504 Y27.3150 
G01 X-78.6760 Y27.2900 
G01 X-78.8040 Y27.2900 
G01 X-78.9296 Y27.3150 
G01 X-79.0479 Y27.3640 
G01 X-79.0773 Y27.3836 
G01 X-82.3195 Y27.3836 
G01 X-85.7281 Y23.9750 
G01 X-85.7350 Y23.9404 
G01 X-85.7840 Y23.8221 
G01 X-85.8551 Y23.7156 
G01 X-85.9456 Y23.6251 
G01 X-86.0521 Y23.5540 
G01 X-86.1704 Y23.5050 
G01 X-86.2960 Y23.4800 
G01 X-94.9808 Y23.4800 
G01 X-95.8700 Y22.5908 
G01 X-95.8700 Y9.5480  
G01 X-94.4655 Y9.5480  
G01 X-94.3559 Y9.6576  
G01 X-94.1941 Y9.7657  
G01 X-94.0142 Y9.8402  
G01 X-93.8233 Y9.8782  
G01 X-93.6287 Y9.8782  
G01 X-93.4378 Y9.8402  
G01 X-93.2579 Y9.7657  
G01 X-93.0961 Y9.6576  
G01 X-92.9584 Y9.5199  
G01 X-92.8503 Y9.3581  
G01 X-92.7758 Y9.1782  
G01 X-92.7378 Y8.9873  
G01 X-92.7378 Y8.7927  
G01 X-92.7758 Y8.6018  
G01 X-92.8503 Y8.4219  
G01 X-92.9584 Y8.2601  
G01 X-93.0961 Y8.1224  
G01 X-93.2579 Y8.0143  
G01 X-93.4378 Y7.9398  
G01 X-93.6287 Y7.9018  
G01 X-93.8233 Y7.9018  
G01 X-94.0142 Y7.9398  
G01 X-94.1941 Y8.0143  
G01 X-94.3559 Y8.1224  
G01 X-94.4655 Y8.2320  
G01 X-96.5848 Y8.2320  
G01 X-96.7119 Y8.2573  
G01 X-96.8317 Y8.3069  
G01 X-96.9395 Y8.3789  
G01 X-97.0311 Y8.4705  
G01 X-97.1031 Y8.5783  
G01 X-97.1527 Y8.6981  
G01 X-97.1780 Y8.8252  
G01 X-97.1780 Y8.9548  
G01 X-97.1700 Y8.9950  
G01 X-97.1700 Y22.9240 
G01 X-97.1450 Y23.0496 
G01 X-97.0960 Y23.1679 
G01 X-97.0249 Y23.2744 
G01 X-96.9344 Y23.3649 
G01 X-95.6643 Y24.6349 
G01 X-95.5579 Y24.7060 
G01 X-95.4396 Y24.7550 
G01 X-95.3140 Y24.7800 
G01 X-86.4969 Y24.7800 
G01 X-82.8916 Y28.3852 
G01 X-82.7648 Y28.4585 
G01 X-82.6232 Y28.4964 
G01 X-79.3900 Y28.4964 
G01 X-79.3900 Y32.5239 
G01 X-79.5504 Y32.6843 
G01 X-79.5504 Y33.3557 
G01 X-79.3900 Y33.5161 
G01 X-79.3900 Y48.3240 
G01 X-79.3650 Y48.4496 
G01 X-79.3160 Y48.5679 
G01 X-79.2449 Y48.6744 
G01 X-79.1544 Y48.7649 
G01 X-79.0479 Y48.8360 
G01 X-78.9296 Y48.8850 
G01 X-78.8040 Y48.9100 
G01 X-76.4692 Y48.9100 
G01 X-71.7700 Y53.6092 
G01 X-71.7700 Y55.9440 
G01 X-71.7450 Y56.0696 
G01 X-71.6960 Y56.1879 
G01 X-71.6249 Y56.2944 
G01 X-71.5344 Y56.3849 
G01 X-71.4279 Y56.4560 
G01 X-71.3096 Y56.5050 
G01 X-71.1840 Y56.5300 
G01 X-67.9318 Y56.5300 
G01 X-67.8833 Y56.5785 
G00 Z2.5400  
G00 X-68.2093 Y58.3314 
G01 Z-0.1778 F100   
G01 X-68.2093 Y58.5086 F80    
G01 X-68.1747 Y58.6823 
G01 X-68.1069 Y58.8460 
G01 X-68.0085 Y58.9933 
G01 X-67.8833 Y59.1185 
G01 X-67.7360 Y59.2169 
G01 X-67.5723 Y59.2847 
G01 X-67.3986 Y59.3193 
G01 X-67.2214 Y59.3193 
G01 X-67.0477 Y59.2847 
G01 X-66.8840 Y59.2169 
G01 X-66.7367 Y59.1185 
G01 X-66.6962 Y59.0780 
G01 X-63.9881 Y59.0780 
G01 X-63.8357 Y59.2304 
G01 X-63.1643 Y59.2304 
G01 X-63.0039 Y59.0700 
G01 X-61.6180 Y59.0700 
G01 X-61.6180 Y61.7419 
G01 X-61.7704 Y61.8943 
G01 X-61.7704 Y62.5657 
G01 X-61.2957 Y63.0404 
G01 X-60.6243 Y63.0404 
G01 X-60.1496 Y62.5657 
G01 X-60.1496 Y61.8943 
G01 X-60.3020 Y61.7419 
G01 X-60.3020 Y58.9081 
G01 X-60.1496 Y58.7557 
G01 X-60.1496 Y58.0843 
G01 X-60.6243 Y57.6096 
G01 X-61.2957 Y57.6096 
G01 X-61.4561 Y57.7700 
G01 X-63.0039 Y57.7700 
G01 X-63.1643 Y57.6096 
G01 X-63.8357 Y57.6096 
G01 X-63.9881 Y57.7620 
G01 X-66.6962 Y57.7620 
G01 X-66.7367 Y57.7215 
G01 X-66.8840 Y57.6230 
G01 X-67.0477 Y57.5553 
G01 X-67.2214 Y57.5207 
G01 X-67.3986 Y57.5207 
G01 X-67.5723 Y57.5553 
G01 X-67.7360 Y57.6230 
G01 X-67.8833 Y57.7215 
G01 X-68.0085 Y57.8467 
G01 X-68.1069 Y57.9940 
G01 X-68.1747 Y58.1577 
G01 X-68.2093 Y58.3314 
G00 Z2.5400  
G00 X-75.5033 Y56.5785 
G01 Z-0.1778 F100   
G01 X-75.3560 Y56.6769 F80    
G01 X-75.1923 Y56.7447 
G01 X-75.0186 Y56.7793 
G01 X-74.8414 Y56.7793 
G01 X-74.6677 Y56.7447 
G01 X-74.5040 Y56.6769 
G01 X-74.3567 Y56.5785 
G01 X-74.2315 Y56.4533 
G01 X-74.1330 Y56.3060 
G01 X-74.0653 Y56.1423 
G01 X-74.0307 Y55.9686 
G01 X-74.0307 Y55.7914 
G01 X-74.0653 Y55.6177 
G01 X-74.1330 Y55.4540 
G01 X-74.2315 Y55.3067 
G01 X-74.3567 Y55.1815 
G01 X-74.5040 Y55.0831 
G01 X-74.6677 Y55.0153 
G01 X-74.8414 Y54.9807 
G01 X-75.0186 Y54.9807 
G01 X-75.1923 Y55.0153 
G01 X-75.3560 Y55.0831 
G01 X-75.5033 Y55.1815 
G01 X-75.5518 Y55.2300 
G01 X-81.1750 Y55.2300 
G01 X-81.2152 Y55.2220 
G01 X-81.3448 Y55.2220 
G01 X-81.4719 Y55.2473 
G01 X-81.5917 Y55.2969 
G01 X-81.6994 Y55.3689 
G01 X-81.7911 Y55.4605 
G01 X-81.8631 Y55.5683 
G01 X-81.9127 Y55.6881 
G01 X-81.9380 Y55.8152 
G01 X-81.9380 Y57.9319 
G01 X-82.0904 Y58.0843 
G01 X-82.0904 Y58.7557 
G01 X-81.6157 Y59.2304 
G01 X-81.4002 Y59.2304 
G01 X-80.6680 Y59.9626 
G01 X-80.6680 Y61.7419 
G01 X-80.8204 Y61.8943 
G01 X-80.8204 Y62.5657 
G01 X-80.6680 Y62.7181 
G01 X-80.6680 Y64.2819 
G01 X-80.8204 Y64.4343 
G01 X-80.8204 Y65.1057 
G01 X-80.3457 Y65.5804 
G01 X-79.6743 Y65.5804 
G01 X-79.1996 Y65.1057 
G01 X-79.1996 Y64.4343 
G01 X-79.3520 Y64.2819 
G01 X-79.3520 Y62.7181 
G01 X-79.1996 Y62.5657 
G01 X-79.1996 Y61.8943 
G01 X-79.3520 Y61.7419 
G01 X-79.3520 Y59.6252 
G01 X-79.3773 Y59.4981 
G01 X-79.4269 Y59.3783 
G01 X-79.4989 Y59.2705 
G01 X-79.5905 Y59.1789 
G01 X-80.4696 Y58.2998 
G01 X-80.4696 Y58.0843 
G01 X-80.6220 Y57.9319 
G01 X-80.6220 Y56.5300 
G01 X-75.5518 Y56.5300 
G01 X-75.5033 Y56.5785 
G00 Z2.5400  
G00 X-74.0307 Y54.1191 
G01 Z-0.1778 F100   
G01 X-74.0307 Y52.5609 F80    
G01 X-74.0535 Y52.5057 
G01 X-74.0957 Y52.4635 
G01 X-74.1509 Y52.4407 
G01 X-75.7091 Y52.4407 
G01 X-75.7643 Y52.4635 
G01 X-75.8065 Y52.5057 
G01 X-75.8293 Y52.5609 
G01 X-75.8293 Y52.6900 
G01 X-80.7839 Y52.6900 
G01 X-80.9443 Y52.5296 
G01 X-81.6157 Y52.5296 
G01 X-81.7761 Y52.6900 
G01 X-83.1700 Y52.6900 
G01 X-83.1700 Y48.9100 
G01 X-80.5810 Y48.9100 
G01 X-80.4554 Y48.8850 
G01 X-80.3371 Y48.8360 
G01 X-80.2306 Y48.7649 
G01 X-80.1401 Y48.6744 
G01 X-80.0690 Y48.5679 
G01 X-80.0200 Y48.4496 
G01 X-79.9950 Y48.3240 
G01 X-79.9950 Y29.1460 
G01 X-80.0200 Y29.0204 
G01 X-80.0690 Y28.9021 
G01 X-80.1401 Y28.7956 
G01 X-80.2306 Y28.7051 
G01 X-80.3371 Y28.6340 
G01 X-80.4554 Y28.5850 
G01 X-80.5810 Y28.5600 
G01 X-80.7090 Y28.5600 
G01 X-80.8346 Y28.5850 
G01 X-80.9529 Y28.6340 
G01 X-80.9823 Y28.6536 
G01 X-82.9545 Y28.6536 
G01 X-85.0931 Y26.5150 
G01 X-85.1000 Y26.4804 
G01 X-85.1490 Y26.3621 
G01 X-85.2201 Y26.2556 
G01 X-85.3106 Y26.1651 
G01 X-85.4171 Y26.0940 
G01 X-85.5354 Y26.0450 
G01 X-85.6610 Y26.0200 
G01 X-95.0220 Y26.0200 
G01 X-97.7750 Y23.8176 
G01 X-97.7750 Y7.0080  
G01 X-94.4655 Y7.0080  
G01 X-94.3559 Y7.1176  
G01 X-94.1941 Y7.2257  
G01 X-94.0142 Y7.3002  
G01 X-93.8233 Y7.3382  
G01 X-93.6287 Y7.3382  
G01 X-93.4378 Y7.3002  
G01 X-93.2579 Y7.2257  
G01 X-93.0961 Y7.1176  
G01 X-92.9584 Y6.9799  
G01 X-92.8503 Y6.8181  
G01 X-92.7758 Y6.6382  
G01 X-92.7378 Y6.4473  
G01 X-92.7378 Y6.2527  
G01 X-92.7758 Y6.0617  
G01 X-92.8503 Y5.8819  
G01 X-92.9584 Y5.7201  
G01 X-93.0961 Y5.5824  
G01 X-93.2579 Y5.4743  
G01 X-93.4378 Y5.3998  
G01 X-93.6287 Y5.3618  
G01 X-93.8233 Y5.3618  
G01 X-94.0142 Y5.3998  
G01 X-94.1941 Y5.4743  
G01 X-94.3559 Y5.5824  
G01 X-94.4655 Y5.6920  
G01 X-98.4898 Y5.6920  
G01 X-98.6169 Y5.7173  
G01 X-98.7367 Y5.7669  
G01 X-98.8445 Y5.8389  
G01 X-98.9361 Y5.9305  
G01 X-99.0081 Y6.0383  
G01 X-99.0577 Y6.1581  
G01 X-99.0830 Y6.2852  
G01 X-99.0830 Y6.4148  
G01 X-99.0750 Y6.4550  
G01 X-99.0750 Y24.1021 
G01 X-99.0781 Y24.1382 
G01 X-99.0750 Y24.1660 
G01 X-99.0750 Y24.1940 
G01 X-99.0679 Y24.2295 
G01 X-99.0640 Y24.2654 
G01 X-99.0555 Y24.2921 
G01 X-99.0500 Y24.3196 
G01 X-99.0362 Y24.3530 
G01 X-99.0253 Y24.3875 
G01 X-99.0117 Y24.4120 
G01 X-99.0010 Y24.4379 
G01 X-98.9809 Y24.4679 
G01 X-98.9635 Y24.4996 
G01 X-98.9454 Y24.5211 
G01 X-98.9299 Y24.5444 
G01 X-98.9043 Y24.5699 
G01 X-98.8810 Y24.5976 
G01 X-98.8592 Y24.6151 
G01 X-98.8394 Y24.6349 
G01 X-98.8093 Y24.6550 
G01 X-95.6842 Y27.1551 
G01 X-95.6643 Y27.1749 
G01 X-95.6343 Y27.1950 
G01 X-95.6061 Y27.2176 
G01 X-95.5812 Y27.2305 
G01 X-95.5579 Y27.2460 
G01 X-95.5245 Y27.2599 
G01 X-95.4924 Y27.2765 
G01 X-95.4655 Y27.2843 
G01 X-95.4396 Y27.2950 
G01 X-95.4041 Y27.3021 
G01 X-95.3694 Y27.3121 
G01 X-95.3415 Y27.3145 
G01 X-95.3140 Y27.3200 
G01 X-95.2779 Y27.3200 
G01 X-95.2418 Y27.3231 
G01 X-95.2140 Y27.3200 
G01 X-85.8619 Y27.3200 
G01 X-83.5266 Y29.6552 
G01 X-83.5017 Y29.6696 
G01 X-84.1557 Y29.6696 
G01 X-84.6304 Y30.1443 
G01 X-84.6304 Y30.8157 
G01 X-84.4700 Y30.9761 
G01 X-84.4700 Y32.3700 
G01 X-90.3144 Y32.3700 
G01 X-90.3875 Y32.2694 
G01 X-90.5294 Y32.1275 
G01 X-90.6918 Y32.0095 
G01 X-90.8706 Y31.9184 
G01 X-91.0614 Y31.8564 
G01 X-91.2597 Y31.8250 
G01 X-91.4603 Y31.8250 
G01 X-91.6586 Y31.8564 
G01 X-91.8494 Y31.9184 
G01 X-92.0282 Y32.0095 
G01 X-92.1906 Y32.1275 
G01 X-92.3325 Y32.2694 
G01 X-92.4505 Y32.4318 
G01 X-92.5416 Y32.6106 
G01 X-92.6036 Y32.8014 
G01 X-92.6350 Y32.9997 
G01 X-92.6350 Y33.2003 
G01 X-92.6036 Y33.3986 
G01 X-92.5416 Y33.5894 
G01 X-92.4505 Y33.7682 
G01 X-92.3325 Y33.9306 
G01 X-92.1906 Y34.0725 
G01 X-92.0282 Y34.1905 
G01 X-91.8494 Y34.2816 
G01 X-91.6586 Y34.3436 
G01 X-91.4603 Y34.3750 
G01 X-91.2597 Y34.3750 
G01 X-91.0614 Y34.3436 
G01 X-90.8706 Y34.2816 
G01 X-90.6918 Y34.1905 
G01 X-90.5294 Y34.0725 
G01 X-90.3875 Y33.9306 
G01 X-90.2695 Y33.7682 
G01 X-90.2195 Y33.6700 
G01 X-84.3161 Y33.6700 
G01 X-84.1557 Y33.8304 
G01 X-83.4843 Y33.8304 
G01 X-83.0096 Y33.3557 
G01 X-83.0096 Y32.6843 
G01 X-83.1700 Y32.5239 
G01 X-83.1700 Y30.9761 
G01 X-83.0096 Y30.8157 
G01 X-83.0096 Y30.1443 
G01 X-83.4605 Y29.6934 
G01 X-83.3998 Y29.7285 
G01 X-83.2583 Y29.7664 
G01 X-81.2950 Y29.7664 
G01 X-81.2950 Y47.6100 
G01 X-83.8840 Y47.6100 
G01 X-84.0096 Y47.6350 
G01 X-84.1279 Y47.6840 
G01 X-84.2344 Y47.7551 
G01 X-84.3249 Y47.8456 
G01 X-84.3960 Y47.9521 
G01 X-84.4450 Y48.0704 
G01 X-84.4700 Y48.1960 
G01 X-84.4700 Y55.2300 
G01 X-86.4240 Y55.2300 
G01 X-86.5496 Y55.2550 
G01 X-86.6679 Y55.3040 
G01 X-86.7743 Y55.3751 
G01 X-86.8649 Y55.4656 
G01 X-86.9360 Y55.5721 
G01 X-86.9850 Y55.6904 
G01 X-87.0100 Y55.8160 
G01 X-87.0100 Y57.9239 
G01 X-87.1704 Y58.0843 
G01 X-87.1704 Y58.7557 
G01 X-87.0100 Y58.9161 
G01 X-87.0100 Y61.5800 
G01 X-89.6739 Y61.5800 
G01 X-89.8343 Y61.4196 
G01 X-90.5057 Y61.4196 
G01 X-90.9804 Y61.8943 
G01 X-90.9804 Y62.5657 
G01 X-90.5057 Y63.0404 
G01 X-89.8343 Y63.0404 
G01 X-89.6739 Y62.8800 
G01 X-86.2960 Y62.8800 
G01 X-86.1704 Y62.8550 
G01 X-86.0521 Y62.8060 
G01 X-85.9456 Y62.7349 
G01 X-85.8551 Y62.6444 
G01 X-85.7840 Y62.5379 
G01 X-85.7350 Y62.4196 
G01 X-85.7100 Y62.2940 
G01 X-85.7100 Y58.9161 
G01 X-85.5496 Y58.7557 
G01 X-85.5496 Y58.0843 
G01 X-85.7100 Y57.9239 
G01 X-85.7100 Y56.5300 
G01 X-83.7560 Y56.5300 
G01 X-83.6304 Y56.5050 
G01 X-83.5121 Y56.4560 
G01 X-83.4056 Y56.3849 
G01 X-83.3151 Y56.2944 
G01 X-83.2440 Y56.1879 
G01 X-83.1950 Y56.0696 
G01 X-83.1700 Y55.9440 
G01 X-83.1700 Y53.9900 
G01 X-81.7761 Y53.9900 
G01 X-81.6157 Y54.1504 
G01 X-80.9443 Y54.1504 
G01 X-80.7839 Y53.9900 
G01 X-75.8293 Y53.9900 
G01 X-75.8293 Y54.1191 
G01 X-75.8065 Y54.1743 
G01 X-75.7643 Y54.2165 
G01 X-75.7091 Y54.2393 
G01 X-74.1509 Y54.2393 
G01 X-74.0957 Y54.2165 
G01 X-74.0535 Y54.1743 
G01 X-74.0307 Y54.1191 
G00 Z2.5400  
G00 X-27.5551 Y5.4234  
G01 Z-0.1778 F100   
G01 X-27.5551 Y2.1966  F80    
G01 X-27.5834 Y1.9815  
G01 X-27.6395 Y1.7719  
G01 X-27.7225 Y1.5715  
G01 X-27.8310 Y1.3836  
G01 X-27.9631 Y1.2115  
G01 X-28.1165 Y1.0581  
G01 X-28.2886 Y0.9261  
G01 X-28.4765 Y0.8176  
G01 X-28.6769 Y0.7346  
G01 X-28.8864 Y0.6784  
G01 X-29.1015 Y0.6501  
G01 X-29.3185 Y0.6501  
G01 X-29.5336 Y0.6784  
G01 X-29.7431 Y0.7346  
G01 X-29.9435 Y0.8176  
G01 X-30.1314 Y0.9261  
G01 X-30.3035 Y1.0581  
G01 X-30.4569 Y1.2115  
G01 X-30.5890 Y1.3836  
G01 X-30.6975 Y1.5715  
G01 X-30.7805 Y1.7719  
G01 X-30.8366 Y1.9815  
G01 X-30.8649 Y2.1966  
G01 X-30.8649 Y5.3618  
G01 X-66.1373 Y5.3618  
G01 X-66.3282 Y5.3998  
G01 X-66.5081 Y5.4743  
G01 X-66.6699 Y5.5824  
G01 X-66.8076 Y5.7201  
G01 X-66.9157 Y5.8819  
G01 X-66.9902 Y6.0617  
G01 X-67.0282 Y6.2527  
G01 X-67.0282 Y12.9818 
G01 X-76.8053 Y12.9818 
G01 X-76.9962 Y13.0198 
G01 X-77.1761 Y13.0943 
G01 X-77.3379 Y13.2024 
G01 X-77.4756 Y13.3401 
G01 X-77.5837 Y13.5019 
G01 X-77.6582 Y13.6818 
G01 X-77.6962 Y13.8727 
G01 X-77.6962 Y14.0673 
G01 X-77.6582 Y14.2582 
G01 X-77.5837 Y14.4381 
G01 X-77.4756 Y14.5999 
G01 X-77.3379 Y14.7376 
G01 X-77.1761 Y14.8457 
G01 X-76.9962 Y14.9202 
G01 X-76.8053 Y14.9582 
G01 X-66.7932 Y14.9582 
G01 X-66.6911 Y15.0324 
G01 X-66.5168 Y15.1212 
G01 X-66.3309 Y15.1816 
G01 X-66.1378 Y15.2122 
G01 X-65.9422 Y15.2122 
G01 X-65.7491 Y15.1816 
G01 X-65.5632 Y15.1212 
G01 X-65.3889 Y15.0324 
G01 X-65.2308 Y14.9175 
G01 X-65.0925 Y14.7792 
G01 X-64.9776 Y14.6211 
G01 X-64.8888 Y14.4468 
G01 X-64.8284 Y14.2609 
G01 X-64.7978 Y14.0678 
G01 X-64.7978 Y13.8722 
G01 X-64.8284 Y13.6791 
G01 X-64.8888 Y13.4932 
G01 X-64.9776 Y13.3189 
G01 X-65.0518 Y13.2168 
G01 X-65.0518 Y7.3382  
G01 X-53.7331 Y7.3382  
G01 X-53.7282 Y7.3402  
G01 X-53.5373 Y7.3782  
G01 X-53.3427 Y7.3782  
G01 X-53.1517 Y7.3402  
G01 X-53.1469 Y7.3382  
G01 X-29.1127 Y7.3382  
G01 X-28.9218 Y7.3002  
G01 X-28.7419 Y7.2257  
G01 X-28.5801 Y7.1176  
G01 X-28.4424 Y6.9799  
G01 X-28.3343 Y6.8181  
G01 X-28.2802 Y6.6875  
G01 X-28.1165 Y6.5619  
G01 X-27.9631 Y6.4085  
G01 X-27.8310 Y6.2364  
G01 X-27.7225 Y6.0485  
G01 X-27.6395 Y5.8481  
G01 X-27.5834 Y5.6385  
G01 X-27.5551 Y5.4234  
G00 Z2.5400  
G00 X-43.6396 Y38.8402 
G01 Z-0.1778 F100   
G01 X-43.6396 Y37.3598 F80    
G01 X-43.6707 Y37.2032 
G01 X-43.7318 Y37.0557 
G01 X-43.8205 Y36.9230 
G01 X-43.9334 Y36.8101 
G01 X-44.0661 Y36.7214 
G01 X-44.2136 Y36.6603 
G01 X-44.3702 Y36.6292 
G01 X-44.5298 Y36.6292 
G01 X-44.6864 Y36.6603 
G01 X-44.8339 Y36.7214 
G01 X-44.9666 Y36.8101 
G01 X-45.0795 Y36.9230 
G01 X-45.1682 Y37.0557 
G01 X-45.2293 Y37.2032 
G01 X-45.2604 Y37.3598 
G01 X-45.2604 Y38.8402 
G01 X-45.2293 Y38.9968 
G01 X-45.1682 Y39.1443 
G01 X-45.1080 Y39.2343 
G01 X-45.1080 Y39.5826 
G01 X-45.2592 Y39.6925 
G01 X-45.3975 Y39.8308 
G01 X-45.5124 Y39.9889 
G01 X-45.6012 Y40.1632 
G01 X-45.6616 Y40.3491 
G01 X-45.6922 Y40.5422 
G01 X-45.6922 Y40.7378 
G01 X-45.6616 Y40.9309 
G01 X-45.6012 Y41.1168 
G01 X-45.5124 Y41.2911 
G01 X-45.3975 Y41.4492 
G01 X-45.2592 Y41.5875 
G01 X-45.1011 Y41.7024 
G01 X-44.9268 Y41.7912 
G01 X-44.7409 Y41.8516 
G01 X-44.5478 Y41.8822 
G01 X-44.3522 Y41.8822 
G01 X-44.1591 Y41.8516 
G01 X-43.9732 Y41.7912 
G01 X-43.7989 Y41.7024 
G01 X-43.6408 Y41.5875 
G01 X-43.5025 Y41.4492 
G01 X-43.3876 Y41.2911 
G01 X-43.2988 Y41.1168 
G01 X-43.2384 Y40.9309 
G01 X-43.2078 Y40.7378 
G01 X-43.2078 Y40.5422 
G01 X-43.2384 Y40.3491 
G01 X-43.2988 Y40.1632 
G01 X-43.3876 Y39.9889 
G01 X-43.5025 Y39.8308 
G01 X-43.6408 Y39.6925 
G01 X-43.7920 Y39.5826 
G01 X-43.7920 Y39.2343 
G01 X-43.7318 Y39.1443 
G01 X-43.6707 Y38.9968 
G01 X-43.6396 Y38.8402 
G00 Z2.5400  
G00 X-48.7196 Y31.2202 
G01 Z-0.1778 F100   
G01 X-48.7196 Y29.9652 F80    
G01 X-48.4755 Y29.7211 
G01 X-48.3839 Y29.6295 
G01 X-48.3119 Y29.5217 
G01 X-48.2623 Y29.4019 
G01 X-48.2370 Y29.2748 
G01 X-48.2370 Y25.8224 
G01 X-48.0858 Y25.7125 
G01 X-47.9475 Y25.5742 
G01 X-47.8326 Y25.4161 
G01 X-47.7438 Y25.2418 
G01 X-47.6834 Y25.0559 
G01 X-47.6528 Y24.8628 
G01 X-47.6528 Y24.6672 
G01 X-47.6834 Y24.4741 
G01 X-47.7438 Y24.2882 
G01 X-47.8326 Y24.1139 
G01 X-47.9475 Y23.9558 
G01 X-48.0858 Y23.8175 
G01 X-48.2439 Y23.7026 
G01 X-48.4182 Y23.6138 
G01 X-48.6041 Y23.5534 
G01 X-48.7972 Y23.5228 
G01 X-48.9928 Y23.5228 
G01 X-49.1859 Y23.5534 
G01 X-49.3718 Y23.6138 
G01 X-49.5461 Y23.7026 
G01 X-49.7042 Y23.8175 
G01 X-49.8425 Y23.9558 
G01 X-49.9574 Y24.1139 
G01 X-50.0462 Y24.2882 
G01 X-50.1066 Y24.4741 
G01 X-50.1372 Y24.6672 
G01 X-50.1372 Y24.8628 
G01 X-50.1066 Y25.0559 
G01 X-50.0462 Y25.2418 
G01 X-49.9574 Y25.4161 
G01 X-49.8425 Y25.5742 
G01 X-49.7042 Y25.7125 
G01 X-49.5530 Y25.8224 
G01 X-49.5530 Y28.9374 
G01 X-49.6285 Y29.0129 
G01 X-49.7664 Y29.0403 
G01 X-49.9139 Y29.1014 
G01 X-50.0466 Y29.1901 
G01 X-50.1595 Y29.3030 
G01 X-50.2482 Y29.4357 
G01 X-50.3093 Y29.5832 
G01 X-50.3404 Y29.7398 
G01 X-50.3404 Y31.2202 
G01 X-50.3093 Y31.3768 
G01 X-50.2482 Y31.5243 
G01 X-50.1595 Y31.6570 
G01 X-50.0466 Y31.7699 
G01 X-49.9139 Y31.8586 
G01 X-49.7664 Y31.9197 
G01 X-49.6098 Y31.9508 
G01 X-49.4502 Y31.9508 
G01 X-49.2936 Y31.9197 
G01 X-49.1461 Y31.8586 
G01 X-49.0134 Y31.7699 
G01 X-48.9005 Y31.6570 
G01 X-48.8118 Y31.5243 
G01 X-48.7507 Y31.3768 
G01 X-48.7196 Y31.2202 
G00 Z2.5400  
G00 X-51.2596 Y31.2202 
G01 Z-0.1778 F100   
G01 X-51.2596 Y29.9652 F80    
G01 X-50.3805 Y29.0861 
G01 X-50.2889 Y28.9945 
G01 X-50.2169 Y28.8867 
G01 X-50.1673 Y28.7669 
G01 X-50.1420 Y28.6398 
G01 X-50.1420 Y22.6474 
G01 X-49.9908 Y22.5375 
G01 X-49.8525 Y22.3992 
G01 X-49.7376 Y22.2411 
G01 X-49.6488 Y22.0668 
G01 X-49.5884 Y21.8809 
G01 X-49.5578 Y21.6878 
G01 X-49.5578 Y21.4922 
G01 X-49.5884 Y21.2991 
G01 X-49.6488 Y21.1132 
G01 X-49.7376 Y20.9389 
G01 X-49.8525 Y20.7808 
G01 X-49.9908 Y20.6425 
G01 X-50.1489 Y20.5276 
G01 X-50.3232 Y20.4388 
G01 X-50.5091 Y20.3784 
G01 X-50.7022 Y20.3478 
G01 X-50.8978 Y20.3478 
G01 X-51.0909 Y20.3784 
G01 X-51.2768 Y20.4388 
G01 X-51.4511 Y20.5276 
G01 X-51.6092 Y20.6425 
G01 X-51.7475 Y20.7808 
G01 X-51.8624 Y20.9389 
G01 X-51.9512 Y21.1132 
G01 X-52.0116 Y21.2991 
G01 X-52.0422 Y21.4922 
G01 X-52.0422 Y21.6878 
G01 X-52.0116 Y21.8809 
G01 X-51.9512 Y22.0668 
G01 X-51.8624 Y22.2411 
G01 X-51.7475 Y22.3992 
G01 X-51.6092 Y22.5375 
G01 X-51.4580 Y22.6474 
G01 X-51.4580 Y28.3024 
G01 X-52.1685 Y29.0129 
G01 X-52.3064 Y29.0403 
G01 X-52.4539 Y29.1014 
G01 X-52.5866 Y29.1901 
G01 X-52.6995 Y29.3030 
G01 X-52.7882 Y29.4357 
G01 X-52.8493 Y29.5832 
G01 X-52.8804 Y29.7398 
G01 X-52.8804 Y31.2202 
G01 X-52.8493 Y31.3768 
G01 X-52.7882 Y31.5243 
G01 X-52.6995 Y31.6570 
G01 X-52.5866 Y31.7699 
G01 X-52.4539 Y31.8586 
G01 X-52.3064 Y31.9197 
G01 X-52.1498 Y31.9508 
G01 X-51.9902 Y31.9508 
G01 X-51.8336 Y31.9197 
G01 X-51.6861 Y31.8586 
G01 X-51.5534 Y31.7699 
G01 X-51.4405 Y31.6570 
G01 X-51.3518 Y31.5243 
G01 X-51.2907 Y31.3768 
G01 X-51.2596 Y31.2202 
G00 Z2.5400  
G00 X-46.1796 Y31.2202 
G01 Z-0.1778 F100   
G01 X-46.1796 Y31.0459 F80    
G01 X-46.1143 Y30.9481 
G01 X-46.0398 Y30.7682 
G01 X-46.0018 Y30.5773 
G01 X-46.0018 Y29.1127 
G01 X-46.0398 Y28.9218 
G01 X-46.1143 Y28.7419 
G01 X-46.2224 Y28.5801 
G01 X-46.3601 Y28.4424 
G01 X-46.5219 Y28.3343 
G01 X-46.7018 Y28.2598 
G01 X-46.8927 Y28.2218 
G01 X-47.0873 Y28.2218 
G01 X-47.2782 Y28.2598 
G01 X-47.4581 Y28.3343 
G01 X-47.6199 Y28.4424 
G01 X-47.7576 Y28.5801 
G01 X-47.8657 Y28.7419 
G01 X-47.9402 Y28.9218 
G01 X-47.9782 Y29.1127 
G01 X-47.9782 Y30.5773 
G01 X-47.9402 Y30.7682 
G01 X-47.8657 Y30.9481 
G01 X-47.8004 Y31.0459 
G01 X-47.8004 Y31.2202 
G01 X-47.7693 Y31.3768 
G01 X-47.7082 Y31.5243 
G01 X-47.6195 Y31.6570 
G01 X-47.5066 Y31.7699 
G01 X-47.3739 Y31.8586 
G01 X-47.2264 Y31.9197 
G01 X-47.0698 Y31.9508 
G01 X-46.9102 Y31.9508 
G01 X-46.7536 Y31.9197 
G01 X-46.6061 Y31.8586 
G01 X-46.4734 Y31.7699 
G01 X-46.3605 Y31.6570 
G01 X-46.2718 Y31.5243 
G01 X-46.2107 Y31.3768 
G01 X-46.1796 Y31.2202 
G00 Z2.5400  
G00 X-53.8918 Y29.4357 
G01 Z-0.1778 F100   
G01 X-53.9805 Y29.3030 F80    
G01 X-54.0934 Y29.1901 
G01 X-54.2261 Y29.1014 
G01 X-54.3736 Y29.0403 
G01 X-54.5302 Y29.0092 
G01 X-54.6898 Y29.0092 
G01 X-54.8464 Y29.0403 
G01 X-54.9939 Y29.1014 
G01 X-55.1266 Y29.1901 
G01 X-55.1743 Y29.2378 
G01 X-73.0142 Y29.2378 
G01 X-73.1226 Y29.1826 
G01 X-73.3322 Y29.1145 
G01 X-73.5498 Y29.0800 
G01 X-73.7702 Y29.0800 
G01 X-73.9878 Y29.1145 
G01 X-74.1974 Y29.1826 
G01 X-74.3938 Y29.2826 
G01 X-74.5720 Y29.4121 
G01 X-74.7279 Y29.5680 
G01 X-74.8574 Y29.7462 
G01 X-74.9574 Y29.9426 
G01 X-75.0255 Y30.1522 
G01 X-75.0600 Y30.3698 
G01 X-75.0600 Y30.5902 
G01 X-75.0255 Y30.8078 
G01 X-74.9574 Y31.0174 
G01 X-74.8574 Y31.2138 
G01 X-74.7279 Y31.3920 
G01 X-73.7900 Y32.3299 
G01 X-73.7900 Y41.7800 
G01 X-75.0402 Y41.7800 
G01 X-75.2578 Y41.8145 
G01 X-75.4674 Y41.8826 
G01 X-75.6638 Y41.9826 
G01 X-75.8420 Y42.1121 
G01 X-75.9979 Y42.2680 
G01 X-76.1274 Y42.4462 
G01 X-76.2274 Y42.6426 
G01 X-76.2955 Y42.8522 
G01 X-76.3300 Y43.0698 
G01 X-76.3300 Y43.2902 
G01 X-76.2955 Y43.5078 
G01 X-76.2274 Y43.7174 
G01 X-76.1274 Y43.9138 
G01 X-75.9979 Y44.0920 
G01 X-75.8420 Y44.2479 
G01 X-75.6638 Y44.3774 
G01 X-75.4674 Y44.4774 
G01 X-75.2578 Y44.5455 
G01 X-75.0402 Y44.5800 
G01 X-73.7900 Y44.5800 
G01 X-73.7900 Y48.3702 
G01 X-73.7555 Y48.5878 
G01 X-73.6874 Y48.7974 
G01 X-73.5874 Y48.9938 
G01 X-73.4579 Y49.1720 
G01 X-73.3020 Y49.3279 
G01 X-73.1238 Y49.4574 
G01 X-72.9274 Y49.5574 
G01 X-72.7178 Y49.6255 
G01 X-72.5002 Y49.6600 
G01 X-72.2798 Y49.6600 
G01 X-72.0622 Y49.6255 
G01 X-71.8526 Y49.5574 
G01 X-71.6562 Y49.4574 
G01 X-71.4780 Y49.3279 
G01 X-71.3221 Y49.1720 
G01 X-71.1926 Y48.9938 
G01 X-71.0926 Y48.7974 
G01 X-71.0245 Y48.5878 
G01 X-70.9900 Y48.3702 
G01 X-70.9900 Y31.7222 
G01 X-55.1743 Y31.7222 
G01 X-55.1266 Y31.7699 
G01 X-54.9939 Y31.8586 
G01 X-54.8464 Y31.9197 
G01 X-54.6898 Y31.9508 
G01 X-54.5302 Y31.9508 
G01 X-54.3736 Y31.9197 
G01 X-54.2261 Y31.8586 
G01 X-54.0934 Y31.7699 
G01 X-53.9805 Y31.6570 
G01 X-53.8918 Y31.5243 
G01 X-53.8737 Y31.4805 
G01 X-53.8008 Y31.4275 
G01 X-53.6625 Y31.2892 
G01 X-53.5476 Y31.1311 
G01 X-53.4588 Y30.9568 
G01 X-53.3984 Y30.7709 
G01 X-53.3678 Y30.5778 
G01 X-53.3678 Y30.3822 
G01 X-53.3984 Y30.1891 
G01 X-53.4588 Y30.0032 
G01 X-53.5476 Y29.8289 
G01 X-53.6625 Y29.6708 
G01 X-53.8008 Y29.5325 
G01 X-53.8737 Y29.4795 
G01 X-53.8918 Y29.4357 
G00 Z2.5400  
G00 X-54.5822 Y27.7922 
G01 Z-0.1778 F100   
G01 X-54.5822 Y27.9878 F80    
G01 X-54.5516 Y28.1809 
G01 X-54.4912 Y28.3668 
G01 X-54.4024 Y28.5411 
G01 X-54.2875 Y28.6992 
G01 X-54.1492 Y28.8375 
G01 X-53.9911 Y28.9524 
G01 X-53.8168 Y29.0412 
G01 X-53.6309 Y29.1016 
G01 X-53.4378 Y29.1322 
G01 X-53.2422 Y29.1322 
G01 X-53.0491 Y29.1016 
G01 X-52.8632 Y29.0412 
G01 X-52.6889 Y28.9524 
G01 X-52.5308 Y28.8375 
G01 X-52.3925 Y28.6992 
G01 X-52.2776 Y28.5411 
G01 X-52.1888 Y28.3668 
G01 X-52.1284 Y28.1809 
G01 X-52.0978 Y27.9878 
G01 X-52.0978 Y27.7922 
G01 X-52.1284 Y27.5991 
G01 X-52.1888 Y27.4132 
G01 X-52.2776 Y27.2389 
G01 X-52.3925 Y27.0808 
G01 X-52.5308 Y26.9425 
G01 X-52.6889 Y26.8276 
G01 X-52.8632 Y26.7388 
G01 X-53.0491 Y26.6784 
G01 X-53.2422 Y26.6478 
G01 X-53.4378 Y26.6478 
G01 X-53.6309 Y26.6784 
G01 X-53.8168 Y26.7388 
G01 X-53.9911 Y26.8276 
G01 X-54.1492 Y26.9425 
G01 X-54.2875 Y27.0808 
G01 X-54.4024 Y27.2389 
G01 X-54.4912 Y27.4132 
G01 X-54.5516 Y27.5991 
G01 X-54.5822 Y27.7922 
G00 Z2.5400  
G00 X-54.8100 Y2.4282  
G01 Z-0.1778 F100   
G01 X-54.8100 Y2.6518  F80    
G01 X-54.7750 Y2.8725  
G01 X-54.7060 Y3.0851  
G01 X-54.6045 Y3.2842  
G01 X-54.4731 Y3.4651  
G01 X-54.3151 Y3.6231  
G01 X-54.1342 Y3.7545  
G01 X-53.9351 Y3.8560  
G01 X-53.7225 Y3.9250  
G01 X-53.5018 Y3.9600  
G01 X-53.2782 Y3.9600  
G01 X-53.0575 Y3.9250  
G01 X-52.8449 Y3.8560  
G01 X-52.6458 Y3.7545  
G01 X-52.4649 Y3.6231  
G01 X-52.3069 Y3.4651  
G01 X-52.1755 Y3.2842  
G01 X-52.0740 Y3.0851  
G01 X-52.0050 Y2.8725  
G01 X-51.9700 Y2.6518  
G01 X-51.9700 Y2.4282  
G01 X-52.0050 Y2.2075  
G01 X-52.0740 Y1.9949  
G01 X-52.1755 Y1.7958  
G01 X-52.3069 Y1.6149  
G01 X-52.4649 Y1.4569  
G01 X-52.6458 Y1.3255  
G01 X-52.8449 Y1.2240  
G01 X-53.0575 Y1.1550  
G01 X-53.2782 Y1.1200  
G01 X-53.5018 Y1.1200  
G01 X-53.7225 Y1.1550  
G01 X-53.9351 Y1.2240  
G01 X-54.1342 Y1.3255  
G01 X-54.3151 Y1.4569  
G01 X-54.4731 Y1.6149  
G01 X-54.6045 Y1.7958  
G01 X-54.7060 Y1.9949  
G01 X-54.7750 Y2.2075  
G01 X-54.8100 Y2.4282  
G00 Z2.5400  
G00 X-12.2404 Y37.7643 
G01 Z-0.1778 F100   
G01 X-12.2404 Y38.4357 F80    
G01 X-12.0880 Y38.5881 
G01 X-12.0880 Y40.1519 
G01 X-12.2404 Y40.3043 
G01 X-12.2404 Y40.9757 
G01 X-12.0880 Y41.1281 
G01 X-12.0880 Y45.0620 
G01 X-25.5357 Y45.0620 
G01 X-25.6257 Y45.0018 
G01 X-25.7732 Y44.9407 
G01 X-25.9298 Y44.9096 
G01 X-26.1041 Y44.9096 
G01 X-26.2019 Y44.8443 
G01 X-26.3818 Y44.7698 
G01 X-26.5727 Y44.7318 
G01 X-34.3873 Y44.7318 
G01 X-34.5782 Y44.7698 
G01 X-34.7581 Y44.8443 
G01 X-34.9199 Y44.9524 
G01 X-35.0576 Y45.0901 
G01 X-35.1657 Y45.2519 
G01 X-35.2402 Y45.4318 
G01 X-35.2782 Y45.6227 
G01 X-35.2782 Y45.8173 
G01 X-35.2402 Y46.0082 
G01 X-35.1657 Y46.1881 
G01 X-35.0576 Y46.3499 
G01 X-34.9199 Y46.4876 
G01 X-34.7581 Y46.5957 
G01 X-34.5782 Y46.6702 
G01 X-34.3873 Y46.7082 
G01 X-26.5727 Y46.7082 
G01 X-26.3818 Y46.6702 
G01 X-26.2019 Y46.5957 
G01 X-26.1041 Y46.5304 
G01 X-25.9298 Y46.5304 
G01 X-25.7732 Y46.4993 
G01 X-25.6257 Y46.4382 
G01 X-25.5357 Y46.3780 
G01 X-11.3652 Y46.3780 
G01 X-11.2381 Y46.3527 
G01 X-11.1183 Y46.3031 
G01 X-11.0105 Y46.2311 
G01 X-10.9189 Y46.1395 
G01 X-10.8469 Y46.0317 
G01 X-10.7973 Y45.9119 
G01 X-10.7720 Y45.7848 
G01 X-10.7720 Y41.1281 
G01 X-10.6196 Y40.9757 
G01 X-10.6196 Y40.3043 
G01 X-10.7720 Y40.1519 
G01 X-10.7720 Y38.7580 
G01 X-10.0952 Y38.7580 
G01 X-9.9681 Y38.7327 
G01 X-9.8483 Y38.6831 
G01 X-9.7405 Y38.6111 
G01 X-9.6489 Y38.5194 
G01 X-6.2298 Y35.1004 
G01 X-6.0143 Y35.1004 
G01 X-5.5396 Y34.6257 
G01 X-5.5396 Y33.9543 
G01 X-5.6920 Y33.8019 
G01 X-5.6920 Y32.2381 
G01 X-5.5396 Y32.0857 
G01 X-5.5396 Y31.4143 
G01 X-6.0143 Y30.9396 
G01 X-6.6857 Y30.9396 
G01 X-7.1604 Y31.4143 
G01 X-7.1604 Y32.0857 
G01 X-7.0080 Y32.2381 
G01 X-7.0080 Y33.8019 
G01 X-7.1604 Y33.9543 
G01 X-7.1604 Y34.1698 
G01 X-10.4326 Y37.4420 
G01 X-10.9419 Y37.4420 
G01 X-11.0943 Y37.2896 
G01 X-11.7657 Y37.2896 
G01 X-12.2404 Y37.7643 
G00 Z2.5400  
G00 X-14.7804 Y32.0857 
G01 Z-0.1778 F100   
G01 X-14.3057 Y32.5604 F80    
G01 X-13.6343 Y32.5604 
G01 X-13.1596 Y32.0857 
G01 X-13.1596 Y31.4143 
G01 X-13.6343 Y30.9396 
G01 X-13.8498 Y30.9396 
G01 X-14.4296 Y30.3598 
G01 X-14.4296 Y30.1443 
G01 X-14.9043 Y29.6696 
G01 X-15.5757 Y29.6696 
G01 X-15.7281 Y29.8220 
G01 X-22.8187 Y29.8220 
G01 X-22.8420 Y29.8191 
G01 X-22.8833 Y29.8220 
G01 X-22.9248 Y29.8220 
G01 X-22.9479 Y29.8266 
G01 X-22.9713 Y29.8283 
G01 X-23.0113 Y29.8392 
G01 X-23.0519 Y29.8473 
G01 X-23.0736 Y29.8563 
G01 X-23.0963 Y29.8625 
G01 X-23.1334 Y29.8810 
G01 X-23.1717 Y29.8969 
G01 X-23.1912 Y29.9099 
G01 X-25.6734 Y31.1510 
G01 X-25.7117 Y31.1669 
G01 X-25.7312 Y31.1799 
G01 X-25.7522 Y31.1905 
G01 X-25.7850 Y31.2159 
G01 X-25.8194 Y31.2389 
G01 X-25.8361 Y31.2555 
G01 X-25.8546 Y31.2699 
G01 X-25.8818 Y31.3012 
G01 X-25.9111 Y31.3305 
G01 X-25.9242 Y31.3501 
G01 X-25.9395 Y31.3678 
G01 X-25.9601 Y31.4038 
G01 X-25.9831 Y31.4383 
G01 X-25.9921 Y31.4600 
G01 X-26.0037 Y31.4804 
G01 X-26.0169 Y31.5198 
G01 X-26.0327 Y31.5581 
G01 X-26.0373 Y31.5811 
G01 X-26.0447 Y31.6034 
G01 X-26.0499 Y31.6445 
G01 X-26.0580 Y31.6852 
G01 X-26.0580 Y31.7087 
G01 X-26.0609 Y31.7320 
G01 X-26.0580 Y31.7733 
G01 X-26.0580 Y35.4955 
G01 X-26.0580 Y35.5607 
G01 X-26.0580 Y35.6248 
G01 X-26.0452 Y35.6889 
G01 X-26.0327 Y35.7519 
G01 X-26.0074 Y35.8132 
G01 X-25.9831 Y35.8717 
G01 X-25.9470 Y35.9257 
G01 X-25.9111 Y35.9794 
G01 X-25.8663 Y36.0243 
G01 X-25.8194 Y36.0711 
G01 X-25.7666 Y36.1064 
G01 X-25.7117 Y36.1431 
G01 X-22.2480 Y38.4521 
G01 X-22.2480 Y39.5057 
G01 X-22.3082 Y39.5957 
G01 X-22.3693 Y39.7432 
G01 X-22.4004 Y39.8998 
G01 X-22.4004 Y41.3802 
G01 X-22.3693 Y41.5368 
G01 X-22.3082 Y41.6843 
G01 X-22.2480 Y41.7743 
G01 X-22.2480 Y41.9748 
G01 X-22.2227 Y42.1019 
G01 X-22.1731 Y42.2217 
G01 X-22.1011 Y42.3295 
G01 X-22.0095 Y42.4211 
G01 X-21.1304 Y43.3002 
G01 X-21.1304 Y43.5157 
G01 X-20.6557 Y43.9904 
G01 X-19.9843 Y43.9904 
G01 X-19.5096 Y43.5157 
G01 X-19.5096 Y42.8443 
G01 X-19.9843 Y42.3696 
G01 X-20.1998 Y42.3696 
G01 X-20.8772 Y41.6923 
G01 X-20.8718 Y41.6843 
G01 X-20.8107 Y41.5368 
G01 X-20.7796 Y41.3802 
G01 X-20.7796 Y39.8998 
G01 X-20.8107 Y39.7432 
G01 X-20.8718 Y39.5957 
G01 X-20.9320 Y39.5057 
G01 X-20.9320 Y38.1645 
G01 X-20.9320 Y38.0993 
G01 X-20.9320 Y38.0352 
G01 X-20.9448 Y37.9710 
G01 X-20.9573 Y37.9081 
G01 X-20.9827 Y37.8468 
G01 X-21.0069 Y37.7883 
G01 X-21.0430 Y37.7343 
G01 X-21.0789 Y37.6805 
G01 X-21.1238 Y37.6357 
G01 X-21.1705 Y37.5889 
G01 X-21.2234 Y37.5536 
G01 X-21.2783 Y37.5169 
G01 X-24.7420 Y35.2079 
G01 X-24.7420 Y32.1567 
