(.../pcb-gcode-3.6.0.4/pcb-gcode.ulp)
(Copyright 2005 - 2012 by John Johnson)
(See readme.txt for licensing terms.)
(This file generated from the board:)
(.../ SDR 74HC4052/SDR 74HC4052_Si5351R0.brd)
(Current profile is .../pcb-gcode-3.6.0.4/profiles/mach.pp  )
(This file generated 2/20/2018 11:31 PM)
(Settings from pcb-machine.h)
(  Tool Size)
(0.1000  )
(Z Axis Settings)
(  High     Up        Down     Drill)
(12.7000 	2.5400  	-0.1778 	-1.7200 )
(spindle on time = 3.0000)
(milling depth = -0.2500)
(text depth = -0.1270)
(tool change at 0.0000  0.0000  25.4000 )
(feed rate xy = F80    )
(feed rate z  = F100   )
(Settings from pcb-defaults.h)
(isolate min = 0.1000)
(isolate max = 0.5080)
(isolate step = 0.0800)
(Generated bottom outlines, bottom drill, )
(Unit of measure: mm)
( Tool|       Size       |  Min Sub |  Max Sub |   Count )
( T01 | 0.500mm 0.0197in | 0.0000in | 0.0000in |       0 )
( T02 | 0.600mm 0.0236in | 0.0000in | 0.0000in |       0 )
( T03 | 0.800mm 0.0315in | 0.0000in | 0.0000in |       0 )
( T04 | 0.813mm 0.0320in | 0.0000in | 0.0000in |       0 )
( T05 | 0.991mm 0.0390in | 0.0000in | 0.0000in |       0 )
( T06 | 1.016mm 0.0400in | 0.0000in | 0.0000in |       0 )
( T07 | 1.200mm 0.0472in | 0.0000in | 0.0000in |       0 )
( T08 | 1.300mm 0.0512in | 0.0000in | 0.0000in |       0 )
( T09 | 1.500mm 0.0591in | 0.0000in | 0.0000in |       0 )
( T10 | 2.007mm 0.0790in | 0.0000in | 0.0000in |       0 )
(Metric Mode)
G21
(Absolute Coordinates)
G90
M05
G00 Z25.4000 
G00 X0.0000  Y0.0000  
M06 T01  ; 0.5000  
G01 Z0.0000  F100   
M06 T01  ; 0.5000  
G00 Z2.5400  
M03
G04 P3.000000
G82 X-53.3400 Y16.4900 Z-1.7200 F100   R2.5400  P1.000000
G82 X-53.3400 Y18.9900 
G82 X-53.3900 Y8.6900  
G82 X-53.3900 Y11.4400 
G82 X-53.3900 Y13.9900 
G82 X-53.3900 Y21.5900 
G82 X-53.4400 Y6.3900  
M05
G00 Z25.4000 
M06 T02  ; 0.6000  
G01 Z0.0000  F100   
M06 T02  ; 0.6000  
G00 Z2.5400  
M03
G04 P3.000000
G82 X-36.8300 Y48.2600 Z-1.7200 F100   R2.5400  P1.000000
G82 X-36.8300 Y27.3050 
G82 X-37.4650 Y24.7650 
G82 X-38.1000 Y73.6600 
G82 X-41.9100 Y21.5900 
G82 X-44.4500 Y40.6400 
G82 X-46.9900 Y75.5650 
G82 X-48.8950 Y24.7650 
G82 X-50.8000 Y21.5900 
G82 X-56.5150 Y57.1500 
G82 X-56.5150 Y67.3100 
G82 X-57.1500 Y33.0200 
G82 X-57.1500 Y21.5900 
G82 X-57.7850 Y41.2750 
G82 X-58.4200 Y73.6600 
G82 X-60.3250 Y11.4300 
G82 X-60.3250 Y25.4000 
G82 X-60.9600 Y74.9300 
G82 X-64.7700 Y60.9600 
G82 X-64.7700 Y69.2150 
G82 X-66.0400 Y13.9700 
G82 X-10.1600 Y52.0700 
G82 X-10.1600 Y54.6100 
G82 X-10.1600 Y57.1500 
G82 X-17.7800 Y57.1500 
G82 X-17.7800 Y59.6900 
G82 X-17.7800 Y62.2300 
G82 X-23.4950 Y34.2900 
G82 X-24.1300 Y57.1500 
G82 X-27.9400 Y34.2900 
G82 X-31.1150 Y57.1500 
M05
G00 Z25.4000 
M06 T03  ; 0.8000  
G01 Z0.0000  F100   
M06 T03  ; 0.8000  
G00 Z2.5400  
M03
G04 P3.000000
G82 X-39.3700 Y29.2100 Z-1.7200 F100   R2.5400  P1.000000
G82 X-41.9100 Y48.2600 
G82 X-41.9100 Y67.3100 
G82 X-44.4500 Y71.7550 
G82 X-46.9900 Y29.2100 
G82 X-53.3400 Y27.8900 
G82 X-53.3900 Y2.5400  
G82 X-54.6100 Y43.1800 
G82 X-54.6100 Y68.5800 
G82 X-54.6100 Y71.7550 
G82 X-60.9600 Y35.5600 
G82 X-66.0400 Y35.5600 
G82 X-66.0400 Y35.5600 
G82 X-66.0400 Y13.9700 
G82 X-66.0400 Y13.9700 
G82 X-66.0400 Y13.9700 
G82 X-72.3900 Y31.7500 
G82 X-72.3900 Y38.1000 
G82 X-72.3900 Y16.5100 
G82 X-86.3600 Y38.1000 
M05
G00 Z25.4000 
M06 T04  ; 0.8128  
G01 Z0.0000  F100   
M06 T04  ; 0.8128  
G00 Z2.5400  
M03
G04 P3.000000
G82 X-34.2900 Y33.0200 Z-1.7200 F100   R2.5400  P1.000000
G82 X-34.2900 Y45.7200 
G82 X-34.2900 Y64.7700 
G82 X-34.2900 Y74.9300 
G82 X-34.2900 Y25.4000 
G82 X-34.2900 Y30.4800 
G82 X-38.1000 Y54.6100 
G82 X-38.1000 Y64.7700 
G82 X-39.3700 Y38.1000 
G82 X-39.3700 Y30.4800 
G82 X-41.9100 Y38.1000 
G82 X-41.9100 Y30.4800 
G82 X-44.4500 Y38.1000 
G82 X-44.4500 Y52.0700 
G82 X-44.4500 Y54.6100 
G82 X-44.4500 Y57.1500 
G82 X-44.4500 Y59.6900 
G82 X-44.4500 Y62.2300 
G82 X-44.4500 Y64.7700 
G82 X-44.4500 Y67.3100 
G82 X-44.4500 Y69.8500 
G82 X-44.4500 Y30.4800 
G82 X-45.7200 Y45.0850 
G82 X-45.7200 Y47.6250 
G82 X-46.9900 Y38.1000 
G82 X-46.9900 Y30.4800 
G82 X-49.5300 Y38.1000 
G82 X-49.5300 Y30.4800 
G82 X-50.8000 Y45.0850 
G82 X-50.8000 Y47.6250 
G82 X-52.0700 Y38.1000 
G82 X-52.0700 Y52.0700 
G82 X-52.0700 Y54.6100 
G82 X-52.0700 Y57.1500 
G82 X-52.0700 Y59.6900 
G82 X-52.0700 Y62.2300 
G82 X-52.0700 Y64.7700 
G82 X-52.0700 Y67.3100 
G82 X-52.0700 Y69.8500 
G82 X-52.0700 Y30.4800 
G82 X-54.6100 Y38.1000 
G82 X-54.6100 Y30.4800 
G82 X-60.9600 Y35.5600 
G82 X-60.9600 Y48.2600 
G82 X-60.9600 Y58.4200 
G82 X-60.9600 Y62.2300 
G82 X-60.9600 Y72.3900 
G82 X-60.9600 Y30.4800 
G82 X-6.3500 Y31.7500 
G82 X-6.3500 Y34.2900 
G82 X-6.3500 Y40.6400 
G82 X-63.5000 Y53.3400 
G82 X-63.5000 Y58.4200 
G82 X-63.5000 Y72.3900 
G82 X-67.3100 Y43.1800 
G82 X-67.3100 Y48.2600 
G82 X-68.5800 Y72.3900 
G82 X-71.1200 Y72.3900 
G82 X-72.3900 Y43.1800 
G82 X-72.3900 Y48.2600 
G82 X-73.6600 Y30.4800 
G82 X-74.9300 Y43.1800 
G82 X-76.2000 Y72.3900 
G82 X-78.7400 Y33.0200 
G82 X-80.0100 Y62.2300 
G82 X-80.0100 Y64.7700 
G82 X-80.0100 Y74.9300 
G82 X-81.2800 Y53.3400 
G82 X-81.2800 Y58.4200 
G82 X-83.8200 Y33.0200 
G82 X-83.8200 Y30.4800 
G82 X-85.0900 Y43.1800 
G82 X-86.3600 Y53.3400 
G82 X-86.3600 Y58.4200 
G82 X-90.1700 Y62.2300 
G82 X-10.1600 Y48.2600 
G82 X-11.4300 Y38.1000 
G82 X-11.4300 Y40.6400 
G82 X-13.9700 Y31.7500 
G82 X-13.9700 Y34.2900 
G82 X-15.2400 Y22.8600 
G82 X-15.2400 Y25.4000 
G82 X-15.2400 Y30.4800 
G82 X-16.5100 Y34.2900 
G82 X-17.7800 Y48.2600 
G82 X-19.0500 Y34.2900 
G82 X-19.0500 Y38.1000 
G82 X-19.0500 Y40.6400 
G82 X-20.3200 Y43.1800 
G82 X-20.3200 Y50.8000 
G82 X-21.5900 Y34.2900 
G82 X-21.5900 Y40.6400 
G82 X-21.5900 Y52.0700 
G82 X-21.5900 Y57.1500 
G82 X-22.8600 Y22.8600 
G82 X-24.1300 Y40.6400 
G82 X-25.3867 Y68.5800 
G82 X-25.4133 Y63.5000 
G82 X-26.6700 Y43.1800 
G82 X-26.6700 Y45.7200 
G82 X-26.6700 Y48.2600 
G82 X-27.9400 Y31.7500 
G82 X-27.9400 Y24.1300 
G82 X-30.4800 Y63.5000 
G82 X-30.4800 Y68.5800 
M05
G00 Z25.4000 
M06 T05  ; 0.9906  
G01 Z0.0000  F100   
M06 T05  ; 0.9906  
G00 Z2.5400  
M03
G04 P3.000000
G82 X-67.3100 Y53.3400 Z-1.7200 F100   R2.5400  P1.000000
G82 X-67.3100 Y55.8800 
G82 X-67.3100 Y58.4200 
G82 X-67.3100 Y60.9600 
G82 X-74.9300 Y53.3400 
G82 X-74.9300 Y55.8800 
G82 X-74.9300 Y58.4200 
G82 X-74.9300 Y60.9600 
M05
G00 Z25.4000 
M06 T06  ; 1.0160  
G01 Z0.0000  F100   
M06 T06  ; 1.0160  
G00 Z2.5400  
M03
G04 P3.000000
G82 X-7.6200 Y17.7800 Z-1.7200 F100   R2.5400  P1.000000
G82 X-7.6200 Y20.3200 
G82 X-7.6200 Y22.8600 
G82 X-76.7080 Y3.8100  
G82 X-76.7080 Y6.3500  
G82 X-76.7080 Y8.8900  
G82 X-76.7080 Y11.4300 
G82 X-76.7080 Y13.9700 
G82 X-76.7080 Y16.5100 
G82 X-78.7400 Y19.0500 
G82 X-81.2800 Y19.0500 
G82 X-83.8200 Y19.0500 
G82 X-86.3600 Y19.0500 
G82 X-88.9000 Y19.0500 
G82 X-91.4400 Y19.0500 
G82 X-93.7260 Y3.8100  
G82 X-93.7260 Y6.3500  
G82 X-93.7260 Y8.8900  
G82 X-93.7260 Y11.4300 
G82 X-93.7260 Y13.9700 
G82 X-93.7260 Y16.5100 
M05
G00 Z25.4000 
M06 T07  ; 1.2000  
G01 Z0.0000  F100   
M06 T07  ; 1.2000  
G00 Z2.5400  
M03
G04 P3.000000
G82 X-7.6200 Y6.3500  Z-1.7200 F100   R2.5400  P1.000000
M05
G00 Z25.4000 
M06 T08  ; 1.3000  
G01 Z0.0000  F100   
M06 T08  ; 1.3000  
G00 Z2.5400  
M03
G04 P3.000000
G82 X-4.5212 Y3.2512  Z-1.7200 F100   R2.5400  P1.000000
G82 X-4.5212 Y9.4488  
G82 X-10.7188 Y3.2512  
G82 X-10.7188 Y9.4488  
M05
G00 Z25.4000 
M06 T09  ; 1.5000  
G01 Z0.0000  F100   
M06 T09  ; 1.5000  
G00 Z2.5400  
M03
G04 P3.000000
G82 X-91.3600 Y33.1000 Z-1.7200 F100   R2.5400  P1.000000
G82 X-91.3600 Y35.8000 
G82 X-91.3600 Y38.2000 
G82 X-91.3600 Y40.6000 
G82 X-91.3600 Y43.3000 
G82 X-96.3600 Y33.2000 
G82 X-96.3600 Y38.2000 
G82 X-96.3600 Y43.2000 
M05
G00 Z25.4000 
M06 T10  ; 2.0066  
G01 Z0.0000  F100   
M06 T10  ; 2.0066  
G00 Z2.5400  
M03
G04 P3.000000
G82 X-25.4000 Y3.8100  Z-1.7200 F100   R2.5400  P1.000000
G82 X-29.2100 Y3.8100  
T01 
G00 Z12.7000 
M05
M02
