(.../pcb-gcode-3.6.0.4/pcb-gcode.ulp)
(Copyright 2005 - 2012 by John Johnson)
(See readme.txt for licensing terms.)
(This file generated from the board:)
(.../74145SDRbandCntrlBd/74145SDRbandCntrlBd.brd)
(Current profile is .../pcb-gcode-3.6.0.4/profiles/mach.pp  )
(This file generated 7/29/2018 9:35 PM)
(Settings from pcb-machine.h)
(  Tool Size)
(0.2000  )
(Z Axis Settings)
(  High     Up        Down     Drill)
(12.7000 	2.5400  	-0.1778 	-1.8000 )
(spindle on time = 3.0000)
(milling depth = -0.2500)
(text depth = -0.1270)
(tool change at 0.0000  0.0000  25.4000 )
(feed rate xy = F80    )
(feed rate z  = F100   )
(Settings from pcb-defaults.h)
(isolate min = 0.2000)
(isolate max = 0.5080)
(isolate step = 0.1000)
(Generated bottom outlines, bottom drill, )
(Unit of measure: mm)
(Metric Mode)
G21
(Absolute Coordinates)
G90
G00 X0.0000  Y0.0000  
M03
G04 P3.000000
G00 Z2.5400  
G00 X-22.7790 Y7.1275  
G01 Z-0.1778 F100   
G01 X-22.7790 Y7.1851  F80    
G01 X-22.8240 Y7.3237  
G01 X-22.8552 Y7.5204  
G01 X-22.8552 Y14.0696 
G01 X-22.8240 Y14.2663 
G01 X-22.7625 Y14.4557 
G01 X-22.6721 Y14.6331 
G01 X-22.5550 Y14.7942 
G01 X-22.5321 Y14.8172 
G01 X-22.5135 Y14.9105 
G01 X-22.4411 Y15.0853 
G01 X-22.3360 Y15.2426 
G01 X-22.2022 Y15.3764 
G01 X-22.0449 Y15.4815 
G01 X-21.8701 Y15.5539 
G01 X-21.6846 Y15.5908 
G01 X-21.4954 Y15.5908 
G01 X-21.3099 Y15.5539 
G01 X-21.1351 Y15.4815 
G01 X-20.9778 Y15.3764 
G01 X-20.8440 Y15.2426 
G01 X-20.7389 Y15.0853 
G01 X-20.6665 Y14.9105 
G01 X-20.6479 Y14.8172 
G01 X-20.6250 Y14.7942 
G01 X-20.5079 Y14.6331 
G01 X-20.4175 Y14.4557 
G01 X-20.3560 Y14.2663 
G01 X-20.3248 Y14.0696 
G01 X-20.3248 Y7.5204  
G01 X-20.3560 Y7.3237  
G01 X-20.4010 Y7.1851  
G01 X-20.4010 Y7.1275  
G01 X-20.4417 Y7.0868  
G01 X-20.5079 Y6.9569  
G01 X-20.6250 Y6.7958  
G01 X-20.7658 Y6.6550  
G01 X-20.9269 Y6.5379  
G01 X-21.0568 Y6.4717  
G01 X-21.0975 Y6.4310  
G01 X-21.1551 Y6.4310  
G01 X-21.2937 Y6.3860  
G01 X-21.4904 Y6.3548  
G01 X-21.6896 Y6.3548  
G01 X-21.8863 Y6.3860  
G01 X-22.0249 Y6.4310  
G01 X-22.0825 Y6.4310  
G01 X-22.1232 Y6.4717  
G01 X-22.2531 Y6.5379  
G01 X-22.4142 Y6.6550  
G01 X-22.5550 Y6.7958  
G01 X-22.6721 Y6.9569  
G01 X-22.7383 Y7.0868  
G01 X-22.7790 Y7.1275  
G00 Z2.5400  
G00 X-17.6990 Y7.1275  
G01 Z-0.1778 F100   
G01 X-17.6990 Y7.1851  F80    
G01 X-17.7440 Y7.3237  
G01 X-17.7752 Y7.5204  
G01 X-17.7752 Y14.0696 
G01 X-17.7440 Y14.2663 
G01 X-17.6825 Y14.4557 
G01 X-17.5921 Y14.6331 
G01 X-17.4750 Y14.7942 
G01 X-17.4521 Y14.8172 
G01 X-17.4335 Y14.9105 
G01 X-17.3611 Y15.0853 
G01 X-17.2560 Y15.2426 
G01 X-17.1222 Y15.3764 
G01 X-16.9649 Y15.4815 
G01 X-16.7901 Y15.5539 
G01 X-16.6046 Y15.5908 
G01 X-16.4154 Y15.5908 
G01 X-16.2299 Y15.5539 
G01 X-16.0551 Y15.4815 
G01 X-15.8978 Y15.3764 
G01 X-15.7640 Y15.2426 
G01 X-15.6589 Y15.0853 
G01 X-15.5865 Y14.9105 
G01 X-15.5679 Y14.8172 
G01 X-15.5450 Y14.7942 
G01 X-15.4279 Y14.6331 
G01 X-15.3375 Y14.4557 
G01 X-15.2760 Y14.2663 
G01 X-15.2448 Y14.0696 
G01 X-15.2448 Y7.5204  
G01 X-15.2760 Y7.3237  
G01 X-15.3210 Y7.1851  
G01 X-15.3210 Y7.1275  
G01 X-15.3617 Y7.0868  
G01 X-15.4279 Y6.9569  
G01 X-15.5450 Y6.7958  
G01 X-15.6858 Y6.6550  
G01 X-15.8469 Y6.5379  
G01 X-15.9768 Y6.4717  
G01 X-16.0175 Y6.4310  
G01 X-16.0751 Y6.4310  
G01 X-16.2137 Y6.3860  
G01 X-16.4104 Y6.3548  
G01 X-16.6096 Y6.3548  
G01 X-16.8063 Y6.3860  
G01 X-16.9449 Y6.4310  
G01 X-17.0025 Y6.4310  
G01 X-17.0432 Y6.4717  
G01 X-17.1731 Y6.5379  
G01 X-17.3342 Y6.6550  
G01 X-17.4750 Y6.7958  
G01 X-17.5921 Y6.9569  
G01 X-17.6583 Y7.0868  
G01 X-17.6990 Y7.1275  
G00 Z2.5400  
G00 X-15.1590 Y7.1275  
G01 Z-0.1778 F100   
G01 X-15.1590 Y7.1851  F80    
G01 X-15.2040 Y7.3237  
G01 X-15.2352 Y7.5204  
G01 X-15.2352 Y17.8796 
G01 X-15.2040 Y18.0763 
G01 X-15.1425 Y18.2657 
G01 X-15.0521 Y18.4431 
G01 X-14.9350 Y18.6042 
G01 X-14.7942 Y18.7450 
G01 X-14.6331 Y18.8621 
G01 X-14.4557 Y18.9525 
G01 X-14.2663 Y19.0140 
G01 X-14.0696 Y19.0452 
G01 X-13.8704 Y19.0452 
G01 X-13.6737 Y19.0140 
G01 X-13.4843 Y18.9525 
G01 X-13.3069 Y18.8621 
G01 X-13.1458 Y18.7450 
G01 X-13.0050 Y18.6042 
G01 X-12.8879 Y18.4431 
G01 X-12.7975 Y18.2657 
G01 X-12.7360 Y18.0763 
G01 X-12.7048 Y17.8796 
G01 X-12.7048 Y7.5204  
G01 X-12.7360 Y7.3237  
G01 X-12.7810 Y7.1851  
G01 X-12.7810 Y7.1275  
G01 X-12.8217 Y7.0868  
G01 X-12.8879 Y6.9569  
G01 X-13.0050 Y6.7958  
G01 X-13.1458 Y6.6550  
G01 X-13.3069 Y6.5379  
G01 X-13.4368 Y6.4717  
G01 X-13.4775 Y6.4310  
G01 X-13.5351 Y6.4310  
G01 X-13.6737 Y6.3860  
G01 X-13.8704 Y6.3548  
G01 X-14.0696 Y6.3548  
G01 X-14.2663 Y6.3860  
G01 X-14.4049 Y6.4310  
G01 X-14.4625 Y6.4310  
G01 X-14.5032 Y6.4717  
G01 X-14.6331 Y6.5379  
G01 X-14.7942 Y6.6550  
G01 X-14.9350 Y6.7958  
G01 X-15.0521 Y6.9569  
G01 X-15.1183 Y7.0868  
G01 X-15.1590 Y7.1275  
G00 Z2.5400  
G00 X-10.0790 Y7.1275  
G01 Z-0.1778 F100   
G01 X-10.0790 Y7.1851  F80    
G01 X-10.1240 Y7.3237  
G01 X-10.1552 Y7.5204  
G01 X-10.1552 Y12.7996 
G01 X-10.1240 Y12.9963 
G01 X-10.0625 Y13.1857 
G01 X-9.9721 Y13.3631 
G01 X-9.8550 Y13.5242 
G01 X-9.7142 Y13.6650 
G01 X-9.5531 Y13.7821 
G01 X-9.3757 Y13.8725 
G01 X-9.1863 Y13.9340 
G01 X-8.9896 Y13.9652 
G01 X-3.8052 Y13.9652 
G01 X-3.8052 Y23.2004 
G01 X-3.8828 Y23.3071 
G01 X-3.9950 Y23.5273 
G01 X-4.0713 Y23.7624 
G01 X-4.1100 Y24.0064 
G01 X-4.1100 Y24.2536 
G01 X-4.0713 Y24.4976 
G01 X-3.9950 Y24.7327 
G01 X-3.8828 Y24.9529 
G01 X-3.7375 Y25.1528 
G01 X-3.5628 Y25.3275 
G01 X-3.3629 Y25.4728 
G01 X-3.1427 Y25.5850 
G01 X-2.9076 Y25.6613 
G01 X-2.6636 Y25.7000 
G01 X-2.4164 Y25.7000 
G01 X-2.1724 Y25.6613 
G01 X-1.9373 Y25.5850 
G01 X-1.7171 Y25.4728 
G01 X-1.5172 Y25.3275 
G01 X-1.3425 Y25.1528 
G01 X-1.1972 Y24.9529 
G01 X-1.0850 Y24.7327 
G01 X-1.0087 Y24.4976 
G01 X-0.9700 Y24.2536 
G01 X-0.9700 Y24.0064 
G01 X-1.0087 Y23.7624 
G01 X-1.0850 Y23.5273 
G01 X-1.1972 Y23.3071 
G01 X-1.2748 Y23.2004 
G01 X-1.2748 Y12.6004 
G01 X-1.3060 Y12.4037 
G01 X-1.3675 Y12.2143 
G01 X-1.4579 Y12.0369 
G01 X-1.5750 Y11.8758 
G01 X-1.7158 Y11.7350 
G01 X-1.8769 Y11.6179 
G01 X-2.0543 Y11.5275 
G01 X-2.2437 Y11.4660 
G01 X-2.4404 Y11.4348 
G01 X-7.6248 Y11.4348 
G01 X-7.6248 Y7.5204  
G01 X-7.6560 Y7.3237  
G01 X-7.7010 Y7.1851  
G01 X-7.7010 Y7.1275  
G01 X-7.7417 Y7.0868  
G01 X-7.8079 Y6.9569  
G01 X-7.9250 Y6.7958  
G01 X-8.0658 Y6.6550  
G01 X-8.2269 Y6.5379  
G01 X-8.3568 Y6.4717  
G01 X-8.3975 Y6.4310  
G01 X-8.4551 Y6.4310  
G01 X-8.5937 Y6.3860  
G01 X-8.7904 Y6.3548  
G01 X-8.9896 Y6.3548  
G01 X-9.1863 Y6.3860  
G01 X-9.3249 Y6.4310  
G01 X-9.3825 Y6.4310  
G01 X-9.4232 Y6.4717  
G01 X-9.5531 Y6.5379  
G01 X-9.7142 Y6.6550  
G01 X-9.8550 Y6.7958  
G01 X-9.9721 Y6.9569  
G01 X-10.0383 Y7.0868  
G01 X-10.0790 Y7.1275  
G00 Z2.5400  
G00 X-7.5390 Y7.1275  
G01 Z-0.1778 F100   
G01 X-7.5390 Y7.1851  F80    
G01 X-7.5840 Y7.3237  
G01 X-7.6152 Y7.5204  
G01 X-7.6152 Y7.7196  
G01 X-7.5840 Y7.9163  
G01 X-7.5390 Y8.0549  
G01 X-7.5390 Y8.1125  
G01 X-7.4983 Y8.1532  
G01 X-7.4321 Y8.2831  
G01 X-7.3150 Y8.4442  
G01 X-7.1742 Y8.5850  
G01 X-7.0131 Y8.7021  
G01 X-6.8832 Y8.7683  
G01 X-6.8425 Y8.8090  
G01 X-6.7849 Y8.8090  
G01 X-6.6463 Y8.8540  
G01 X-6.4496 Y8.8852  
G01 X-2.4404 Y8.8852  
G01 X-2.2437 Y8.8540  
G01 X-2.0543 Y8.7925  
G01 X-1.8769 Y8.7021  
G01 X-1.7158 Y8.5850  
G01 X-1.5750 Y8.4442  
G01 X-1.4579 Y8.2831  
G01 X-1.3675 Y8.1057  
G01 X-1.3060 Y7.9163  
G01 X-1.2748 Y7.7196  
G01 X-1.2748 Y2.4404  
G01 X-1.3060 Y2.2437  
G01 X-1.3675 Y2.0543  
G01 X-1.4579 Y1.8769  
G01 X-1.5750 Y1.7158  
G01 X-1.7158 Y1.5750  
G01 X-1.8769 Y1.4579  
G01 X-2.0543 Y1.3675  
G01 X-2.2437 Y1.3060  
G01 X-2.4404 Y1.2748  
G01 X-28.0396 Y1.2748  
G01 X-28.2363 Y1.3060  
G01 X-28.4257 Y1.3675  
G01 X-28.6031 Y1.4579  
G01 X-28.7642 Y1.5750  
G01 X-28.9050 Y1.7158  
G01 X-29.0221 Y1.8769  
G01 X-29.1125 Y2.0543  
G01 X-29.1740 Y2.2437  
G01 X-29.2052 Y2.4404  
G01 X-29.2052 Y6.3548  
G01 X-34.3896 Y6.3548  
G01 X-34.5863 Y6.3860  
G01 X-34.7757 Y6.4475  
G01 X-34.9531 Y6.5379  
G01 X-35.1142 Y6.6550  
G01 X-35.2550 Y6.7958  
G01 X-35.3721 Y6.9569  
G01 X-35.4625 Y7.1343  
G01 X-35.5240 Y7.3237  
G01 X-35.5552 Y7.5204  
G01 X-35.5552 Y12.9588 
G01 X-36.9296 Y12.9588 
G01 X-37.1250 Y12.9977 
G01 X-37.3090 Y13.0739 
G01 X-37.4746 Y13.1845 
G01 X-37.6154 Y13.3254 
G01 X-37.7261 Y13.4910 
G01 X-37.8023 Y13.6750 
G01 X-37.8412 Y13.8704 
G01 X-37.8412 Y25.4996 
G01 X-37.8023 Y25.6950 
G01 X-37.7261 Y25.8790 
G01 X-37.6154 Y26.0446 
G01 X-37.4746 Y26.1854 
G01 X-37.3090 Y26.2961 
G01 X-37.1250 Y26.3723 
G01 X-36.9296 Y26.4112 
G01 X-24.0304 Y26.4112 
G01 X-23.8350 Y26.3723 
G01 X-23.6510 Y26.2961 
G01 X-23.4854 Y26.1854 
G01 X-23.3446 Y26.0446 
G01 X-23.2339 Y25.8790 
G01 X-23.1577 Y25.6950 
G01 X-23.1188 Y25.4996 
G01 X-23.1188 Y21.4904 
G01 X-23.1577 Y21.2950 
G01 X-23.1696 Y21.2662 
G01 X-23.1696 Y20.8350 
G01 X-23.2065 Y20.6495 
G01 X-23.2789 Y20.4747 
G01 X-23.3840 Y20.3174 
G01 X-23.5178 Y20.1836 
G01 X-23.6751 Y20.0785 
G01 X-23.8499 Y20.0061 
G01 X-24.0354 Y19.9692 
G01 X-24.2246 Y19.9692 
G01 X-24.4101 Y20.0061 
G01 X-24.5849 Y20.0785 
G01 X-24.7422 Y20.1836 
G01 X-24.8760 Y20.3174 
G01 X-24.9811 Y20.4747 
G01 X-25.0535 Y20.6495 
G01 X-25.0904 Y20.8350 
G01 X-25.0904 Y21.2662 
G01 X-25.1023 Y21.2950 
G01 X-25.1412 Y21.4904 
G01 X-25.1412 Y24.3888 
G01 X-25.6588 Y24.3888 
G01 X-25.6588 Y21.4904 
G01 X-25.6977 Y21.2950 
G01 X-25.7096 Y21.2662 
G01 X-25.7096 Y20.8350 
G01 X-25.7465 Y20.6495 
G01 X-25.8189 Y20.4747 
G01 X-25.9240 Y20.3174 
G01 X-26.0578 Y20.1836 
G01 X-26.2151 Y20.0785 
G01 X-26.3899 Y20.0061 
G01 X-26.5754 Y19.9692 
G01 X-26.7646 Y19.9692 
G01 X-26.9501 Y20.0061 
G01 X-27.1249 Y20.0785 
G01 X-27.2822 Y20.1836 
G01 X-27.4160 Y20.3174 
G01 X-27.5211 Y20.4747 
G01 X-27.5935 Y20.6495 
G01 X-27.6304 Y20.8350 
G01 X-27.6304 Y21.2662 
G01 X-27.6423 Y21.2950 
G01 X-27.6812 Y21.4904 
G01 X-27.6812 Y24.3888 
G01 X-35.8188 Y24.3888 
G01 X-35.8188 Y14.9812 
G01 X-35.1842 Y14.9812 
G01 X-35.1411 Y15.0853 
G01 X-35.0360 Y15.2426 
G01 X-34.9022 Y15.3764 
G01 X-34.7449 Y15.4815 
G01 X-34.5701 Y15.5539 
G01 X-34.3846 Y15.5908 
G01 X-34.1954 Y15.5908 
G01 X-34.0099 Y15.5539 
G01 X-33.8351 Y15.4815 
G01 X-33.6778 Y15.3764 
G01 X-33.5440 Y15.2426 
G01 X-33.4389 Y15.0853 
G01 X-33.3665 Y14.9105 
G01 X-33.3479 Y14.8172 
G01 X-33.3250 Y14.7942 
G01 X-33.2079 Y14.6331 
G01 X-33.1175 Y14.4557 
G01 X-33.0560 Y14.2663 
G01 X-33.0248 Y14.0696 
G01 X-33.0248 Y8.8852  
G01 X-26.5704 Y8.8852  
G01 X-26.3737 Y8.8540  
G01 X-26.2351 Y8.8090  
G01 X-26.1775 Y8.8090  
G01 X-26.1368 Y8.7683  
G01 X-26.0069 Y8.7021  
G01 X-25.8458 Y8.5850  
G01 X-25.7050 Y8.4442  
G01 X-25.5879 Y8.2831  
G01 X-25.5217 Y8.1532  
G01 X-25.4810 Y8.1125  
G01 X-25.4810 Y8.0549  
G01 X-25.4360 Y7.9163  
G01 X-25.4048 Y7.7196  
G01 X-25.4048 Y7.5204  
G01 X-25.4360 Y7.3237  
G01 X-25.4810 Y7.1851  
G01 X-25.4810 Y7.1275  
G01 X-25.5217 Y7.0868  
G01 X-25.5879 Y6.9569  
G01 X-25.7050 Y6.7958  
G01 X-25.8458 Y6.6550  
G01 X-26.0069 Y6.5379  
G01 X-26.1368 Y6.4717  
G01 X-26.1775 Y6.4310  
G01 X-26.2351 Y6.4310  
G01 X-26.3737 Y6.3860  
G01 X-26.5704 Y6.3548  
G01 X-26.6748 Y6.3548  
G01 X-26.6748 Y3.8052  
G01 X-3.8052 Y3.8052  
G01 X-3.8052 Y6.3548  
G01 X-6.4496 Y6.3548  
G01 X-6.6463 Y6.3860  
G01 X-6.7849 Y6.4310  
G01 X-6.8425 Y6.4310  
G01 X-6.8832 Y6.4717  
G01 X-7.0131 Y6.5379  
G01 X-7.1742 Y6.6550  
G01 X-7.3150 Y6.7958  
G01 X-7.4321 Y6.9569  
G01 X-7.4983 Y7.0868  
G01 X-7.5390 Y7.1275  
G00 Z2.5400  
G00 X-15.5865 Y20.6495 
G01 Z-0.1778 F100   
G01 X-15.6589 Y20.4747 F80    
G01 X-15.7640 Y20.3174 
G01 X-15.8978 Y20.1836 
G01 X-16.0551 Y20.0785 
G01 X-16.2299 Y20.0061 
G01 X-16.4154 Y19.9692 
G01 X-16.6046 Y19.9692 
G01 X-16.7901 Y20.0061 
G01 X-16.9649 Y20.0785 
G01 X-17.1222 Y20.1836 
G01 X-17.2560 Y20.3174 
G01 X-17.3611 Y20.4747 
G01 X-17.4335 Y20.6495 
G01 X-17.4521 Y20.7428 
G01 X-17.4750 Y20.7658 
G01 X-17.5921 Y20.9269 
G01 X-17.6825 Y21.1043 
G01 X-17.7440 Y21.2937 
G01 X-17.7752 Y21.4904 
G01 X-17.7752 Y24.2296 
G01 X-17.7440 Y24.4263 
G01 X-17.6825 Y24.6157 
G01 X-17.5921 Y24.7931 
G01 X-17.4750 Y24.9542 
G01 X-17.3342 Y25.0950 
G01 X-17.1731 Y25.2121 
G01 X-16.9957 Y25.3025 
G01 X-16.8063 Y25.3640 
G01 X-16.6096 Y25.3952 
G01 X-16.4104 Y25.3952 
G01 X-16.2137 Y25.3640 
G01 X-16.0243 Y25.3025 
G01 X-15.8469 Y25.2121 
G01 X-15.6858 Y25.0950 
G01 X-15.5450 Y24.9542 
G01 X-15.4279 Y24.7931 
G01 X-15.3375 Y24.6157 
G01 X-15.2760 Y24.4263 
G01 X-15.2448 Y24.2296 
G01 X-15.2448 Y21.4904 
G01 X-15.2760 Y21.2937 
G01 X-15.3375 Y21.1043 
G01 X-15.4279 Y20.9269 
G01 X-15.5450 Y20.7658 
G01 X-15.5679 Y20.7428 
G01 X-15.5865 Y20.6495 
G00 Z2.5400  
G00 X-18.0896 Y20.8350 
G01 Z-0.1778 F100   
G01 X-18.1265 Y20.6495 F80    
G01 X-18.1989 Y20.4747 
G01 X-18.3040 Y20.3174 
G01 X-18.4378 Y20.1836 
G01 X-18.5951 Y20.0785 
G01 X-18.7699 Y20.0061 
G01 X-18.9554 Y19.9692 
G01 X-19.1446 Y19.9692 
G01 X-19.3301 Y20.0061 
G01 X-19.5049 Y20.0785 
G01 X-19.6622 Y20.1836 
G01 X-19.7960 Y20.3174 
G01 X-19.9011 Y20.4747 
G01 X-19.9735 Y20.6495 
G01 X-20.0104 Y20.8350 
G01 X-20.0104 Y21.2662 
G01 X-20.0223 Y21.2950 
G01 X-20.0612 Y21.4904 
G01 X-20.0612 Y28.0396 
G01 X-20.0223 Y28.2350 
G01 X-19.9461 Y28.4190 
G01 X-19.8354 Y28.5846 
G01 X-19.6946 Y28.7254 
G01 X-19.5290 Y28.8361 
G01 X-19.3450 Y28.9123 
G01 X-19.1496 Y28.9512 
G01 X-11.3304 Y28.9512 
G01 X-11.1350 Y28.9123 
G01 X-10.9510 Y28.8361 
G01 X-10.7854 Y28.7254 
G01 X-10.6446 Y28.5846 
G01 X-10.5339 Y28.4190 
G01 X-10.4577 Y28.2350 
G01 X-10.4188 Y28.0396 
G01 X-10.4188 Y8.2903  
G01 X-10.2410 Y8.1125  
G01 X-10.2410 Y7.1275  
G01 X-10.9375 Y6.4310  
G01 X-11.9225 Y6.4310  
G01 X-12.6190 Y7.1275  
G01 X-12.6190 Y8.1125  
G01 X-12.4412 Y8.2903  
G01 X-12.4412 Y26.9288 
G01 X-18.0388 Y26.9288 
G01 X-18.0388 Y21.4904 
G01 X-18.0777 Y21.2950 
G01 X-18.0896 Y21.2662 
G01 X-18.0896 Y20.8350 
G00 Z2.5400  
G00 X-20.6296 Y20.8350 
G01 Z-0.1778 F100   
G01 X-20.6665 Y20.6495 F80    
G01 X-20.7389 Y20.4747 
G01 X-20.8440 Y20.3174 
G01 X-20.9778 Y20.1836 
G01 X-21.1351 Y20.0785 
G01 X-21.3099 Y20.0061 
G01 X-21.4954 Y19.9692 
G01 X-21.6846 Y19.9692 
G01 X-21.8701 Y20.0061 
G01 X-22.0449 Y20.0785 
G01 X-22.2022 Y20.1836 
G01 X-22.3360 Y20.3174 
G01 X-22.4411 Y20.4747 
G01 X-22.5135 Y20.6495 
G01 X-22.5504 Y20.8350 
G01 X-22.5504 Y21.2662 
G01 X-22.5623 Y21.2950 
G01 X-22.6012 Y21.4904 
G01 X-22.6012 Y31.8496 
G01 X-22.5623 Y32.0450 
G01 X-22.4861 Y32.2290 
G01 X-22.3754 Y32.3946 
G01 X-22.2346 Y32.5354 
G01 X-22.0690 Y32.6461 
G01 X-21.8850 Y32.7223 
G01 X-21.6896 Y32.7612 
G01 X-7.5204 Y32.7612 
G01 X-7.3250 Y32.7223 
G01 X-7.1410 Y32.6461 
G01 X-6.9754 Y32.5354 
G01 X-6.8346 Y32.3946 
G01 X-6.7239 Y32.2290 
G01 X-6.6477 Y32.0450 
G01 X-6.6088 Y31.8496 
G01 X-6.6088 Y18.9859 
G01 X-6.5972 Y18.9775 
G01 X-6.4225 Y18.8028 
G01 X-6.2772 Y18.6029 
G01 X-6.1650 Y18.3827 
G01 X-6.0887 Y18.1476 
G01 X-6.0500 Y17.9036 
G01 X-6.0500 Y17.6564 
G01 X-6.0887 Y17.4124 
G01 X-6.1650 Y17.1773 
G01 X-6.2772 Y16.9571 
G01 X-6.4225 Y16.7572 
G01 X-6.5972 Y16.5825 
G01 X-6.7971 Y16.4372 
G01 X-7.0173 Y16.3250 
G01 X-7.2524 Y16.2487 
G01 X-7.4964 Y16.2100 
G01 X-7.7436 Y16.2100 
G01 X-7.9876 Y16.2487 
G01 X-8.2227 Y16.3250 
G01 X-8.4429 Y16.4372 
G01 X-8.6428 Y16.5825 
G01 X-8.8175 Y16.7572 
G01 X-8.9628 Y16.9571 
G01 X-9.0750 Y17.1773 
G01 X-9.1513 Y17.4124 
G01 X-9.1900 Y17.6564 
G01 X-9.1900 Y17.9036 
G01 X-9.1513 Y18.1476 
G01 X-9.0750 Y18.3827 
G01 X-8.9628 Y18.6029 
G01 X-8.8175 Y18.8028 
G01 X-8.6428 Y18.9775 
G01 X-8.6312 Y18.9859 
G01 X-8.6312 Y30.7388 
G01 X-20.5788 Y30.7388 
G01 X-20.5788 Y21.4904 
G01 X-20.6177 Y21.2950 
G01 X-20.6296 Y21.2662 
G01 X-20.6296 Y20.8350 
G00 Z2.5400  
G00 X-28.2496 Y22.3450 
G01 Z-0.1778 F100   
G01 X-28.2496 Y20.8350 F80    
G01 X-28.2865 Y20.6495 
G01 X-28.3589 Y20.4747 
G01 X-28.4640 Y20.3174 
G01 X-28.5978 Y20.1836 
G01 X-28.7551 Y20.0785 
G01 X-28.9299 Y20.0061 
G01 X-29.1154 Y19.9692 
G01 X-29.3046 Y19.9692 
G01 X-29.4901 Y20.0061 
G01 X-29.6649 Y20.0785 
G01 X-29.8222 Y20.1836 
G01 X-29.9560 Y20.3174 
G01 X-30.0611 Y20.4747 
G01 X-30.1335 Y20.6495 
G01 X-30.1704 Y20.8350 
G01 X-30.1704 Y22.3450 
G01 X-30.1335 Y22.5305 
G01 X-30.0611 Y22.7053 
G01 X-29.9560 Y22.8626 
G01 X-29.8222 Y22.9964 
G01 X-29.6649 Y23.1015 
G01 X-29.4901 Y23.1739 
G01 X-29.3046 Y23.2108 
G01 X-29.1154 Y23.2108 
G01 X-28.9299 Y23.1739 
G01 X-28.7551 Y23.1015 
G01 X-28.5978 Y22.9964 
G01 X-28.4640 Y22.8626 
G01 X-28.3589 Y22.7053 
G01 X-28.2865 Y22.5305 
G01 X-28.2496 Y22.3450 
G00 Z2.5400  
G00 X-30.7896 Y22.3450 
G01 Z-0.1778 F100   
G01 X-30.7896 Y20.8350 F80    
G01 X-30.8265 Y20.6495 
G01 X-30.8989 Y20.4747 
G01 X-31.0040 Y20.3174 
G01 X-31.1378 Y20.1836 
G01 X-31.2951 Y20.0785 
G01 X-31.4699 Y20.0061 
G01 X-31.6554 Y19.9692 
G01 X-31.8446 Y19.9692 
G01 X-32.0301 Y20.0061 
G01 X-32.2049 Y20.0785 
G01 X-32.3622 Y20.1836 
G01 X-32.4960 Y20.3174 
G01 X-32.6011 Y20.4747 
G01 X-32.6735 Y20.6495 
G01 X-32.7104 Y20.8350 
G01 X-32.7104 Y22.3450 
G01 X-32.6735 Y22.5305 
G01 X-32.6011 Y22.7053 
G01 X-32.4960 Y22.8626 
G01 X-32.3622 Y22.9964 
G01 X-32.2049 Y23.1015 
G01 X-32.0301 Y23.1739 
G01 X-31.8446 Y23.2108 
G01 X-31.6554 Y23.2108 
G01 X-31.4699 Y23.1739 
G01 X-31.2951 Y23.1015 
G01 X-31.1378 Y22.9964 
G01 X-31.0040 Y22.8626 
G01 X-30.8989 Y22.7053 
G01 X-30.8265 Y22.5305 
G01 X-30.7896 Y22.3450 
G00 Z2.5400  
G00 X-33.3296 Y22.3450 
G01 Z-0.1778 F100   
G01 X-33.3296 Y20.8350 F80    
G01 X-33.3665 Y20.6495 
G01 X-33.4389 Y20.4747 
G01 X-33.5440 Y20.3174 
G01 X-33.6778 Y20.1836 
G01 X-33.8351 Y20.0785 
G01 X-34.0099 Y20.0061 
G01 X-34.1954 Y19.9692 
G01 X-34.3846 Y19.9692 
G01 X-34.5701 Y20.0061 
G01 X-34.7449 Y20.0785 
G01 X-34.9022 Y20.1836 
G01 X-35.0360 Y20.3174 
G01 X-35.1411 Y20.4747 
G01 X-35.2135 Y20.6495 
G01 X-35.2504 Y20.8350 
G01 X-35.2504 Y22.3450 
G01 X-35.2135 Y22.5305 
G01 X-35.1411 Y22.7053 
G01 X-35.0360 Y22.8626 
G01 X-34.9022 Y22.9964 
G01 X-34.7449 Y23.1015 
G01 X-34.5701 Y23.1739 
G01 X-34.3846 Y23.2108 
G01 X-34.1954 Y23.2108 
G01 X-34.0099 Y23.1739 
G01 X-33.8351 Y23.1015 
G01 X-33.6778 Y22.9964 
G01 X-33.5440 Y22.8626 
G01 X-33.4389 Y22.7053 
G01 X-33.3665 Y22.5305 
G01 X-33.3296 Y22.3450 
G00 Z2.5400  
G00 X-25.7096 Y14.7250 
G01 Z-0.1778 F100   
G01 X-25.7096 Y13.2150 F80    
G01 X-25.7465 Y13.0295 
G01 X-25.8189 Y12.8547 
G01 X-25.9240 Y12.6974 
G01 X-26.0578 Y12.5636 
G01 X-26.2151 Y12.4585 
G01 X-26.3899 Y12.3861 
G01 X-26.5754 Y12.3492 
G01 X-26.7646 Y12.3492 
G01 X-26.9501 Y12.3861 
G01 X-27.1249 Y12.4585 
G01 X-27.2822 Y12.5636 
G01 X-27.4160 Y12.6974 
G01 X-27.5211 Y12.8547 
G01 X-27.5935 Y13.0295 
G01 X-27.6304 Y13.2150 
G01 X-27.6304 Y14.7250 
G01 X-27.5935 Y14.9105 
G01 X-27.5211 Y15.0853 
G01 X-27.4160 Y15.2426 
G01 X-27.2822 Y15.3764 
G01 X-27.1249 Y15.4815 
G01 X-26.9501 Y15.5539 
G01 X-26.7646 Y15.5908 
G01 X-26.5754 Y15.5908 
G01 X-26.3899 Y15.5539 
G01 X-26.2151 Y15.4815 
G01 X-26.0578 Y15.3764 
G01 X-25.9240 Y15.2426 
G01 X-25.8189 Y15.0853 
G01 X-25.7465 Y14.9105 
G01 X-25.7096 Y14.7250 
G00 Z2.5400  
G00 X-28.2496 Y14.7250 
G01 Z-0.1778 F100   
G01 X-28.2496 Y13.2150 F80    
G01 X-28.2865 Y13.0295 
G01 X-28.3589 Y12.8547 
G01 X-28.4640 Y12.6974 
G01 X-28.5978 Y12.5636 
G01 X-28.7551 Y12.4585 
G01 X-28.9299 Y12.3861 
G01 X-29.1154 Y12.3492 
G01 X-29.3046 Y12.3492 
G01 X-29.4901 Y12.3861 
G01 X-29.6649 Y12.4585 
G01 X-29.8222 Y12.5636 
G01 X-29.9560 Y12.6974 
G01 X-30.0611 Y12.8547 
G01 X-30.1335 Y13.0295 
G01 X-30.1704 Y13.2150 
G01 X-30.1704 Y14.7250 
G01 X-30.1335 Y14.9105 
G01 X-30.0611 Y15.0853 
G01 X-29.9560 Y15.2426 
G01 X-29.8222 Y15.3764 
G01 X-29.6649 Y15.4815 
G01 X-29.4901 Y15.5539 
G01 X-29.3046 Y15.5908 
G01 X-29.1154 Y15.5908 
G01 X-28.9299 Y15.5539 
G01 X-28.7551 Y15.4815 
G01 X-28.5978 Y15.3764 
G01 X-28.4640 Y15.2426 
G01 X-28.3589 Y15.0853 
G01 X-28.2865 Y14.9105 
G01 X-28.2496 Y14.7250 
G00 Z2.5400  
G00 X-25.0535 Y14.9105 
G01 Z-0.1778 F100   
G01 X-24.9811 Y15.0853 F80    
G01 X-24.8760 Y15.2426 
G01 X-24.7422 Y15.3764 
G01 X-24.5849 Y15.4815 
G01 X-24.4101 Y15.5539 
G01 X-24.2246 Y15.5908 
G01 X-24.0354 Y15.5908 
G01 X-23.8499 Y15.5539 
G01 X-23.6751 Y15.4815 
G01 X-23.5178 Y15.3764 
G01 X-23.3840 Y15.2426 
G01 X-23.2789 Y15.0853 
G01 X-23.2065 Y14.9105 
G01 X-23.1879 Y14.8172 
G01 X-23.1650 Y14.7942 
G01 X-23.0479 Y14.6331 
G01 X-22.9575 Y14.4557 
G01 X-22.8960 Y14.2663 
G01 X-22.8648 Y14.0696 
G01 X-22.8648 Y7.5204  
G01 X-22.8960 Y7.3237  
G01 X-22.9410 Y7.1851  
G01 X-22.9410 Y7.1275  
G01 X-22.9817 Y7.0868  
G01 X-23.0479 Y6.9569  
G01 X-23.1650 Y6.7958  
G01 X-23.3058 Y6.6550  
G01 X-23.4669 Y6.5379  
G01 X-23.5968 Y6.4717  
G01 X-23.6375 Y6.4310  
G01 X-23.6951 Y6.4310  
G01 X-23.8337 Y6.3860  
G01 X-24.0304 Y6.3548  
G01 X-24.2296 Y6.3548  
G01 X-24.4263 Y6.3860  
G01 X-24.5649 Y6.4310  
G01 X-24.6225 Y6.4310  
G01 X-24.6632 Y6.4717  
G01 X-24.7931 Y6.5379  
G01 X-24.9542 Y6.6550  
G01 X-25.0950 Y6.7958  
G01 X-25.2121 Y6.9569  
G01 X-25.2783 Y7.0868  
G01 X-25.3190 Y7.1275  
G01 X-25.3190 Y7.1851  
G01 X-25.3640 Y7.3237  
G01 X-25.3952 Y7.5204  
G01 X-25.3952 Y14.0696 
G01 X-25.3640 Y14.2663 
G01 X-25.3025 Y14.4557 
G01 X-25.2121 Y14.6331 
G01 X-25.0950 Y14.7942 
G01 X-25.0721 Y14.8172 
G01 X-25.0535 Y14.9105 
G00 Z2.5400  
G00 X-30.7896 Y14.7250 
G01 Z-0.1778 F100   
G01 X-30.7896 Y13.2150 F80    
G01 X-30.8265 Y13.0295 
G01 X-30.8989 Y12.8547 
G01 X-31.0040 Y12.6974 
G01 X-31.1378 Y12.5636 
G01 X-31.2951 Y12.4585 
G01 X-31.4699 Y12.3861 
G01 X-31.6554 Y12.3492 
G01 X-31.8446 Y12.3492 
G01 X-32.0301 Y12.3861 
G01 X-32.2049 Y12.4585 
G01 X-32.3622 Y12.5636 
G01 X-32.4960 Y12.6974 
G01 X-32.6011 Y12.8547 
G01 X-32.6735 Y13.0295 
G01 X-32.7104 Y13.2150 
G01 X-32.7104 Y14.7250 
G01 X-32.6735 Y14.9105 
G01 X-32.6011 Y15.0853 
G01 X-32.4960 Y15.2426 
G01 X-32.3622 Y15.3764 
G01 X-32.2049 Y15.4815 
G01 X-32.0301 Y15.5539 
G01 X-31.8446 Y15.5908 
G01 X-31.6554 Y15.5908 
G01 X-31.4699 Y15.5539 
G01 X-31.2951 Y15.4815 
G01 X-31.1378 Y15.3764 
G01 X-31.0040 Y15.2426 
G01 X-30.8989 Y15.0853 
G01 X-30.8265 Y14.9105 
G01 X-30.7896 Y14.7250 
G00 Z2.5400  
G00 X-19.9735 Y14.9105 
G01 Z-0.1778 F100   
G01 X-19.9011 Y15.0853 F80    
G01 X-19.7960 Y15.2426 
G01 X-19.6622 Y15.3764 
G01 X-19.5049 Y15.4815 
G01 X-19.3301 Y15.5539 
G01 X-19.1446 Y15.5908 
G01 X-18.9554 Y15.5908 
G01 X-18.7699 Y15.5539 
G01 X-18.5951 Y15.4815 
G01 X-18.4378 Y15.3764 
G01 X-18.3040 Y15.2426 
G01 X-18.1989 Y15.0853 
G01 X-18.1265 Y14.9105 
G01 X-18.1079 Y14.8172 
G01 X-18.0850 Y14.7942 
G01 X-17.9679 Y14.6331 
G01 X-17.8775 Y14.4557 
G01 X-17.8160 Y14.2663 
G01 X-17.7848 Y14.0696 
G01 X-17.7848 Y7.5204  
G01 X-17.8160 Y7.3237  
G01 X-17.8610 Y7.1851  
G01 X-17.8610 Y7.1275  
G01 X-17.9017 Y7.0868  
G01 X-17.9679 Y6.9569  
G01 X-18.0850 Y6.7958  
G01 X-18.2258 Y6.6550  
G01 X-18.3869 Y6.5379  
G01 X-18.5168 Y6.4717  
G01 X-18.5575 Y6.4310  
G01 X-18.6151 Y6.4310  
G01 X-18.7537 Y6.3860  
G01 X-18.9504 Y6.3548  
G01 X-19.1496 Y6.3548  
G01 X-19.3463 Y6.3860  
G01 X-19.4849 Y6.4310  
G01 X-19.5425 Y6.4310  
G01 X-19.5832 Y6.4717  
G01 X-19.7131 Y6.5379  
G01 X-19.8742 Y6.6550  
G01 X-20.0150 Y6.7958  
G01 X-20.1321 Y6.9569  
G01 X-20.1983 Y7.0868  
G01 X-20.2390 Y7.1275  
G01 X-20.2390 Y7.1851  
G01 X-20.2840 Y7.3237  
G01 X-20.3152 Y7.5204  
G01 X-20.3152 Y14.0696 
G01 X-20.2840 Y14.2663 
G01 X-20.2225 Y14.4557 
G01 X-20.1321 Y14.6331 
G01 X-20.0150 Y14.7942 
G01 X-19.9921 Y14.8172 
G01 X-19.9735 Y14.9105 
G00 Z2.5400  
G00 X-6.8839 Y6.3310  
G01 Z-0.1778 F100   
G01 X-6.9427 Y6.3898  F80    
G01 X-7.0655 Y6.4524  
G01 X-7.2394 Y6.5787  
G01 X-7.3913 Y6.7306  
G01 X-7.5176 Y6.9045  
G01 X-7.5802 Y7.0273  
G01 X-7.6200 Y7.0671  
G01 X-7.6598 Y7.0273  
G01 X-7.7224 Y6.9045  
G01 X-7.8487 Y6.7306  
G01 X-8.0006 Y6.5787  
G01 X-8.1745 Y6.4524  
G01 X-8.2973 Y6.3898  
G01 X-8.3561 Y6.3310  
G01 X-8.4393 Y6.3310  
G01 X-8.5703 Y6.2884  
G01 X-8.7826 Y6.2548  
G01 X-8.9974 Y6.2548  
G01 X-9.2097 Y6.2884  
G01 X-9.3407 Y6.3310  
G01 X-9.4239 Y6.3310  
G01 X-9.4827 Y6.3898  
G01 X-9.6055 Y6.4524  
G01 X-9.7794 Y6.5787  
G01 X-9.9313 Y6.7306  
G01 X-10.0576 Y6.9045  
G01 X-10.1202 Y7.0273  
G01 X-10.1600 Y7.0671  
G01 X-10.8961 Y6.3310  
G01 X-11.9639 Y6.3310  
G01 X-12.7000 Y7.0671  
G01 X-12.7398 Y7.0273  
G01 X-12.8024 Y6.9045  
G01 X-12.9287 Y6.7306  
G01 X-13.0806 Y6.5787  
G01 X-13.2545 Y6.4524  
G01 X-13.3773 Y6.3898  
G01 X-13.4361 Y6.3310  
G01 X-13.5193 Y6.3310  
G01 X-13.6503 Y6.2884  
G01 X-13.8626 Y6.2548  
G01 X-14.0774 Y6.2548  
G01 X-14.2897 Y6.2884  
G01 X-14.4207 Y6.3310  
G01 X-14.5039 Y6.3310  
G01 X-14.5627 Y6.3898  
G01 X-14.6855 Y6.4524  
G01 X-14.8594 Y6.5787  
G01 X-15.0113 Y6.7306  
G01 X-15.1376 Y6.9045  
G01 X-15.2002 Y7.0273  
G01 X-15.2400 Y7.0671  
G01 X-15.2798 Y7.0273  
G01 X-15.3424 Y6.9045  
G01 X-15.4687 Y6.7306  
G01 X-15.6206 Y6.5787  
G01 X-15.7945 Y6.4524  
G01 X-15.9173 Y6.3898  
G01 X-15.9761 Y6.3310  
G01 X-16.0593 Y6.3310  
G01 X-16.1903 Y6.2884  
G01 X-16.4026 Y6.2548  
G01 X-16.6174 Y6.2548  
G01 X-16.8297 Y6.2884  
G01 X-16.9607 Y6.3310  
G01 X-17.0439 Y6.3310  
G01 X-17.1027 Y6.3898  
G01 X-17.2255 Y6.4524  
G01 X-17.3994 Y6.5787  
G01 X-17.5513 Y6.7306  
G01 X-17.6776 Y6.9045  
G01 X-17.7402 Y7.0273  
G01 X-17.7800 Y7.0671  
G01 X-17.8198 Y7.0273  
G01 X-17.8824 Y6.9045  
G01 X-18.0087 Y6.7306  
G01 X-18.1606 Y6.5787  
G01 X-18.3345 Y6.4524  
G01 X-18.4573 Y6.3898  
G01 X-18.5161 Y6.3310  
G01 X-18.5993 Y6.3310  
G01 X-18.7303 Y6.2884  
G01 X-18.9426 Y6.2548  
G01 X-19.1574 Y6.2548  
G01 X-19.3697 Y6.2884  
G01 X-19.5007 Y6.3310  
G01 X-19.5839 Y6.3310  
G01 X-19.6427 Y6.3898  
G01 X-19.7655 Y6.4524  
G01 X-19.9394 Y6.5787  
G01 X-20.0913 Y6.7306  
G01 X-20.2176 Y6.9045  
G01 X-20.2802 Y7.0273  
G01 X-20.3200 Y7.0671  
G01 X-20.3598 Y7.0273  
G01 X-20.4224 Y6.9045  
G01 X-20.5487 Y6.7306  
G01 X-20.7006 Y6.5787  
G01 X-20.8745 Y6.4524  
G01 X-20.9973 Y6.3898  
G01 X-21.0561 Y6.3310  
G01 X-21.1393 Y6.3310  
G01 X-21.2703 Y6.2884  
G01 X-21.4826 Y6.2548  
G01 X-21.6974 Y6.2548  
G01 X-21.9097 Y6.2884  
G01 X-22.0407 Y6.3310  
G01 X-22.1239 Y6.3310  
G01 X-22.1827 Y6.3898  
G01 X-22.3055 Y6.4524  
G01 X-22.4794 Y6.5787  
G01 X-22.6313 Y6.7306  
G01 X-22.7576 Y6.9045  
G01 X-22.8202 Y7.0273  
G01 X-22.8600 Y7.0671  
G01 X-22.8998 Y7.0273  
G01 X-22.9624 Y6.9045  
G01 X-23.0887 Y6.7306  
G01 X-23.2406 Y6.5787  
G01 X-23.4145 Y6.4524  
G01 X-23.5373 Y6.3898  
G01 X-23.5961 Y6.3310  
G01 X-23.6793 Y6.3310  
G01 X-23.8103 Y6.2884  
G01 X-24.0226 Y6.2548  
G01 X-24.2374 Y6.2548  
G01 X-24.4497 Y6.2884  
G01 X-24.5807 Y6.3310  
G01 X-24.6639 Y6.3310  
G01 X-24.7227 Y6.3898  
G01 X-24.8455 Y6.4524  
G01 X-25.0194 Y6.5787  
G01 X-25.1713 Y6.7306  
G01 X-25.2976 Y6.9045  
G01 X-25.3602 Y7.0273  
G01 X-25.4000 Y7.0671  
G01 X-25.4398 Y7.0273  
G01 X-25.5024 Y6.9045  
G01 X-25.6287 Y6.7306  
G01 X-25.7806 Y6.5787  
G01 X-25.9545 Y6.4524  
G01 X-26.0773 Y6.3898  
G01 X-26.1361 Y6.3310  
G01 X-26.2193 Y6.3310  
G01 X-26.3503 Y6.2884  
G01 X-26.5626 Y6.2548  
G01 X-26.5748 Y6.2548  
G01 X-26.5748 Y3.9052  
G01 X-3.9052 Y3.9052  
G01 X-3.9052 Y6.2548  
G01 X-6.4574 Y6.2548  
G01 X-6.6697 Y6.2884  
G01 X-6.8007 Y6.3310  
G01 X-6.8839 Y6.3310  
G00 Z2.5400  
G00 X-15.4757 Y20.6813 
G01 Z-0.1778 F100   
G01 X-15.5273 Y20.5225 F80    
G01 X-15.6031 Y20.3738 
G01 X-15.7012 Y20.2388 
G01 X-15.8192 Y20.1208 
G01 X-15.9542 Y20.0227 
G01 X-16.1029 Y19.9469 
G01 X-16.2617 Y19.8953 
G01 X-16.4265 Y19.8692 
G01 X-16.5935 Y19.8692 
G01 X-16.7583 Y19.8953 
G01 X-16.9170 Y19.9469 
G01 X-17.0658 Y20.0227 
G01 X-17.2008 Y20.1208 
G01 X-17.3188 Y20.2388 
G01 X-17.4169 Y20.3738 
G01 X-17.4927 Y20.5225 
G01 X-17.5443 Y20.6813 
G01 X-17.5466 Y20.6959 
G01 X-17.5513 Y20.7006 
G01 X-17.6776 Y20.8745 
G01 X-17.7752 Y21.0659 
G01 X-17.8416 Y21.2703 
G01 X-17.8752 Y21.4826 
G01 X-17.8752 Y24.2374 
G01 X-17.8416 Y24.4497 
G01 X-17.7752 Y24.6541 
G01 X-17.6776 Y24.8455 
G01 X-17.5513 Y25.0194 
G01 X-17.3994 Y25.1713 
G01 X-17.2255 Y25.2976 
G01 X-17.0341 Y25.3952 
G01 X-16.8297 Y25.4616 
G01 X-16.6174 Y25.4952 
G01 X-16.4026 Y25.4952 
G01 X-16.1903 Y25.4616 
G01 X-15.9859 Y25.3952 
G01 X-15.7945 Y25.2976 
G01 X-15.6206 Y25.1713 
G01 X-15.4687 Y25.0194 
G01 X-15.3424 Y24.8455 
G01 X-15.2448 Y24.6541 
G01 X-15.1784 Y24.4497 
G01 X-15.1448 Y24.2374 
G01 X-15.1448 Y21.4826 
G01 X-15.1784 Y21.2703 
G01 X-15.2448 Y21.0659 
G01 X-15.3424 Y20.8745 
G01 X-15.4687 Y20.7006 
G01 X-15.4734 Y20.6959 
G01 X-15.4757 Y20.6813 
G00 Z2.5400  
G00 X-20.5296 Y20.8461 
G01 Z-0.1778 F100   
G01 X-20.5557 Y20.6813 F80    
G01 X-20.6073 Y20.5225 
G01 X-20.6831 Y20.3738 
G01 X-20.7812 Y20.2388 
G01 X-20.8992 Y20.1208 
G01 X-21.0342 Y20.0227 
G01 X-21.1829 Y19.9469 
G01 X-21.3417 Y19.8953 
G01 X-21.5065 Y19.8692 
G01 X-21.6735 Y19.8692 
G01 X-21.8383 Y19.8953 
G01 X-21.9971 Y19.9469 
G01 X-22.1458 Y20.0227 
G01 X-22.2808 Y20.1208 
G01 X-22.3988 Y20.2388 
G01 X-22.4969 Y20.3738 
G01 X-22.5727 Y20.5225 
G01 X-22.6243 Y20.6813 
G01 X-22.6504 Y20.8461 
G01 X-22.6504 Y21.2577 
G01 X-22.6738 Y21.3298 
G01 X-22.7012 Y21.5025 
G01 X-22.7012 Y31.8375 
G01 X-22.6738 Y32.0102 
G01 X-22.6198 Y32.1765 
G01 X-22.5404 Y32.3324 
G01 X-22.4376 Y32.4739 
G01 X-22.3139 Y32.5976 
G01 X-22.1724 Y32.7004 
G01 X-22.0166 Y32.7798 
G01 X-21.8502 Y32.8338 
G01 X-21.6775 Y32.8612 
G01 X-7.5325 Y32.8612 
G01 X-7.3598 Y32.8338 
G01 X-7.1934 Y32.7798 
G01 X-7.0376 Y32.7004 
G01 X-6.8961 Y32.5976 
G01 X-6.7724 Y32.4739 
G01 X-6.6696 Y32.3324 
G01 X-6.5902 Y32.1765 
G01 X-6.5362 Y32.0102 
G01 X-6.5088 Y31.8375 
G01 X-6.5088 Y19.0305 
G01 X-6.3617 Y18.8835 
G01 X-6.2285 Y18.7098 
G01 X-6.1190 Y18.5202 
G01 X-6.0352 Y18.3180 
G01 X-5.9786 Y18.1065 
G01 X-5.9500 Y17.8895 
G01 X-5.9500 Y17.6705 
G01 X-5.9786 Y17.4535 
G01 X-6.0352 Y17.2420 
G01 X-6.1190 Y17.0398 
G01 X-6.2285 Y16.8502 
G01 X-6.3617 Y16.6765 
G01 X-6.5165 Y16.5217 
G01 X-6.6902 Y16.3885 
G01 X-6.8798 Y16.2790 
G01 X-7.0820 Y16.1952 
G01 X-7.2935 Y16.1386 
G01 X-7.5105 Y16.1100 
G01 X-7.7295 Y16.1100 
G01 X-7.9465 Y16.1386 
G01 X-8.1580 Y16.1952 
G01 X-8.3602 Y16.2790 
G01 X-8.5498 Y16.3885 
G01 X-8.7235 Y16.5217 
G01 X-8.8783 Y16.6765 
G01 X-9.0115 Y16.8502 
G01 X-9.1210 Y17.0398 
G01 X-9.2048 Y17.2420 
G01 X-9.2614 Y17.4535 
G01 X-9.2900 Y17.6705 
G01 X-9.2900 Y17.8895 
G01 X-9.2614 Y18.1065 
G01 X-9.2048 Y18.3180 
G01 X-9.1210 Y18.5202 
G01 X-9.0115 Y18.7098 
G01 X-8.8783 Y18.8835 
G01 X-8.7312 Y19.0305 
G01 X-8.7312 Y30.6388 
G01 X-20.4788 Y30.6388 
G01 X-20.4788 Y21.5025 
G01 X-20.5062 Y21.3298 
G01 X-20.5296 Y21.2577 
G01 X-20.5296 Y20.8461 
G00 Z2.5400  
G00 X-28.1496 Y22.3339 
G01 Z-0.1778 F100   
G01 X-28.1496 Y20.8461 F80    
G01 X-28.1757 Y20.6813 
G01 X-28.2273 Y20.5225 
G01 X-28.3031 Y20.3738 
G01 X-28.4012 Y20.2388 
G01 X-28.5192 Y20.1208 
G01 X-28.6542 Y20.0227 
G01 X-28.8029 Y19.9469 
G01 X-28.9617 Y19.8953 
G01 X-29.1265 Y19.8692 
G01 X-29.2935 Y19.8692 
G01 X-29.4583 Y19.8953 
G01 X-29.6171 Y19.9469 
G01 X-29.7658 Y20.0227 
G01 X-29.9008 Y20.1208 
G01 X-30.0188 Y20.2388 
G01 X-30.1169 Y20.3738 
G01 X-30.1927 Y20.5225 
G01 X-30.2443 Y20.6813 
G01 X-30.2704 Y20.8461 
G01 X-30.2704 Y22.3339 
G01 X-30.2443 Y22.4987 
G01 X-30.1927 Y22.6575 
G01 X-30.1169 Y22.8062 
G01 X-30.0188 Y22.9412 
G01 X-29.9008 Y23.0592 
G01 X-29.7658 Y23.1573 
G01 X-29.6171 Y23.2331 
G01 X-29.4583 Y23.2847 
G01 X-29.2935 Y23.3108 
G01 X-29.1265 Y23.3108 
G01 X-28.9617 Y23.2847 
G01 X-28.8029 Y23.2331 
G01 X-28.6542 Y23.1573 
G01 X-28.5192 Y23.0592 
G01 X-28.4012 Y22.9412 
G01 X-28.3031 Y22.8062 
G01 X-28.2273 Y22.6575 
G01 X-28.1757 Y22.4987 
G01 X-28.1496 Y22.3339 
G00 Z2.5400  
G00 X-30.6896 Y22.3339 
G01 Z-0.1778 F100   
G01 X-30.6896 Y20.8461 F80    
G01 X-30.7157 Y20.6813 
G01 X-30.7673 Y20.5225 
G01 X-30.8431 Y20.3738 
G01 X-30.9412 Y20.2388 
G01 X-31.0592 Y20.1208 
G01 X-31.1942 Y20.0227 
G01 X-31.3429 Y19.9469 
G01 X-31.5017 Y19.8953 
G01 X-31.6665 Y19.8692 
G01 X-31.8335 Y19.8692 
G01 X-31.9983 Y19.8953 
G01 X-32.1570 Y19.9469 
G01 X-32.3058 Y20.0227 
G01 X-32.4408 Y20.1208 
G01 X-32.5588 Y20.2388 
G01 X-32.6569 Y20.3738 
G01 X-32.7327 Y20.5225 
G01 X-32.7843 Y20.6813 
G01 X-32.8104 Y20.8461 
G01 X-32.8104 Y22.3339 
G01 X-32.7843 Y22.4987 
G01 X-32.7327 Y22.6575 
G01 X-32.6569 Y22.8062 
G01 X-32.5588 Y22.9412 
G01 X-32.4408 Y23.0592 
G01 X-32.3058 Y23.1573 
G01 X-32.1570 Y23.2331 
G01 X-31.9983 Y23.2847 
G01 X-31.8335 Y23.3108 
G01 X-31.6665 Y23.3108 
G01 X-31.5017 Y23.2847 
G01 X-31.3429 Y23.2331 
G01 X-31.1942 Y23.1573 
G01 X-31.0592 Y23.0592 
G01 X-30.9412 Y22.9412 
G01 X-30.8431 Y22.8062 
G01 X-30.7673 Y22.6575 
G01 X-30.7157 Y22.4987 
G01 X-30.6896 Y22.3339 
G00 Z2.5400  
G00 X-33.2296 Y22.3339 
G01 Z-0.1778 F100   
G01 X-33.2296 Y20.8461 F80    
G01 X-33.2557 Y20.6813 
G01 X-33.3073 Y20.5225 
G01 X-33.3831 Y20.3738 
G01 X-33.4812 Y20.2388 
G01 X-33.5992 Y20.1208 
G01 X-33.7342 Y20.0227 
G01 X-33.8829 Y19.9469 
G01 X-34.0417 Y19.8953 
G01 X-34.2065 Y19.8692 
G01 X-34.3735 Y19.8692 
G01 X-34.5383 Y19.8953 
G01 X-34.6971 Y19.9469 
G01 X-34.8458 Y20.0227 
G01 X-34.9808 Y20.1208 
G01 X-35.0988 Y20.2388 
G01 X-35.1969 Y20.3738 
G01 X-35.2727 Y20.5225 
G01 X-35.3243 Y20.6813 
G01 X-35.3504 Y20.8461 
G01 X-35.3504 Y22.3339 
G01 X-35.3243 Y22.4987 
G01 X-35.2727 Y22.6575 
G01 X-35.1969 Y22.8062 
G01 X-35.0988 Y22.9412 
G01 X-34.9808 Y23.0592 
G01 X-34.8458 Y23.1573 
G01 X-34.6971 Y23.2331 
G01 X-34.5383 Y23.2847 
G01 X-34.3735 Y23.3108 
G01 X-34.2065 Y23.3108 
G01 X-34.0417 Y23.2847 
G01 X-33.8829 Y23.2331 
G01 X-33.7342 Y23.1573 
G01 X-33.5992 Y23.0592 
G01 X-33.4812 Y22.9412 
G01 X-33.3831 Y22.8062 
G01 X-33.3073 Y22.6575 
G01 X-33.2557 Y22.4987 
G01 X-33.2296 Y22.3339 
G00 Z2.5400  
G00 X-25.6096 Y14.7139 
G01 Z-0.1778 F100   
G01 X-25.6096 Y13.2261 F80    
G01 X-25.6357 Y13.0613 
G01 X-25.6873 Y12.9025 
G01 X-25.7631 Y12.7538 
G01 X-25.8612 Y12.6188 
G01 X-25.9792 Y12.5008 
G01 X-26.1142 Y12.4027 
G01 X-26.2629 Y12.3269 
G01 X-26.4217 Y12.2753 
G01 X-26.5865 Y12.2492 
G01 X-26.7535 Y12.2492 
G01 X-26.9183 Y12.2753 
G01 X-27.0770 Y12.3269 
G01 X-27.2258 Y12.4027 
G01 X-27.3608 Y12.5008 
G01 X-27.4788 Y12.6188 
G01 X-27.5769 Y12.7538 
G01 X-27.6527 Y12.9025 
G01 X-27.7043 Y13.0613 
G01 X-27.7304 Y13.2261 
G01 X-27.7304 Y14.7139 
G01 X-27.7043 Y14.8787 
G01 X-27.6527 Y15.0375 
G01 X-27.5769 Y15.1862 
G01 X-27.4788 Y15.3212 
G01 X-27.3608 Y15.4392 
G01 X-27.2258 Y15.5373 
G01 X-27.0770 Y15.6131 
G01 X-26.9183 Y15.6647 
G01 X-26.7535 Y15.6908 
G01 X-26.5865 Y15.6908 
G01 X-26.4217 Y15.6647 
G01 X-26.2629 Y15.6131 
G01 X-26.1142 Y15.5373 
G01 X-25.9792 Y15.4392 
G01 X-25.8612 Y15.3212 
G01 X-25.7631 Y15.1862 
G01 X-25.6873 Y15.0375 
G01 X-25.6357 Y14.8787 
G01 X-25.6096 Y14.7139 
G00 Z2.5400  
G00 X-28.1496 Y14.7139 
G01 Z-0.1778 F100   
G01 X-28.1496 Y13.2261 F80    
G01 X-28.1757 Y13.0613 
G01 X-28.2273 Y12.9025 
G01 X-28.3031 Y12.7538 
G01 X-28.4012 Y12.6188 
G01 X-28.5192 Y12.5008 
G01 X-28.6542 Y12.4027 
G01 X-28.8029 Y12.3269 
G01 X-28.9617 Y12.2753 
G01 X-29.1265 Y12.2492 
G01 X-29.2935 Y12.2492 
G01 X-29.4583 Y12.2753 
G01 X-29.6171 Y12.3269 
G01 X-29.7658 Y12.4027 
G01 X-29.9008 Y12.5008 
G01 X-30.0188 Y12.6188 
G01 X-30.1169 Y12.7538 
G01 X-30.1927 Y12.9025 
G01 X-30.2443 Y13.0613 
G01 X-30.2704 Y13.2261 
G01 X-30.2704 Y14.7139 
G01 X-30.2443 Y14.8787 
G01 X-30.1927 Y15.0375 
G01 X-30.1169 Y15.1862 
G01 X-30.0188 Y15.3212 
G01 X-29.9008 Y15.4392 
G01 X-29.7658 Y15.5373 
G01 X-29.6171 Y15.6131 
G01 X-29.4583 Y15.6647 
G01 X-29.2935 Y15.6908 
G01 X-29.1265 Y15.6908 
G01 X-28.9617 Y15.6647 
G01 X-28.8029 Y15.6131 
G01 X-28.6542 Y15.5373 
G01 X-28.5192 Y15.4392 
G01 X-28.4012 Y15.3212 
G01 X-28.3031 Y15.1862 
G01 X-28.2273 Y15.0375 
G01 X-28.1757 Y14.8787 
G01 X-28.1496 Y14.7139 
G00 Z2.5400  
G00 X-30.6896 Y14.7139 
G01 Z-0.1778 F100   
G01 X-30.6896 Y13.2261 F80    
G01 X-30.7157 Y13.0613 
G01 X-30.7673 Y12.9025 
G01 X-30.8431 Y12.7538 
G01 X-30.9412 Y12.6188 
G01 X-31.0592 Y12.5008 
G01 X-31.1942 Y12.4027 
G01 X-31.3429 Y12.3269 
G01 X-31.5017 Y12.2753 
G01 X-31.6665 Y12.2492 
G01 X-31.8335 Y12.2492 
G01 X-31.9983 Y12.2753 
G01 X-32.1570 Y12.3269 
G01 X-32.3058 Y12.4027 
G01 X-32.4408 Y12.5008 
G01 X-32.5588 Y12.6188 
G01 X-32.6569 Y12.7538 
G01 X-32.7327 Y12.9025 
G01 X-32.7843 Y13.0613 
G01 X-32.8104 Y13.2261 
G01 X-32.8104 Y14.7139 
G01 X-32.7843 Y14.8787 
G01 X-32.7327 Y15.0375 
G01 X-32.6569 Y15.1862 
G01 X-32.5588 Y15.3212 
G01 X-32.4408 Y15.4392 
G01 X-32.3058 Y15.5373 
G01 X-32.1570 Y15.6131 
G01 X-31.9983 Y15.6647 
G01 X-31.8335 Y15.6908 
G01 X-31.6665 Y15.6908 
G01 X-31.5017 Y15.6647 
G01 X-31.3429 Y15.6131 
G01 X-31.1942 Y15.5373 
G01 X-31.0592 Y15.4392 
G01 X-30.9412 Y15.3212 
G01 X-30.8431 Y15.1862 
G01 X-30.7673 Y15.0375 
G01 X-30.7157 Y14.8787 
G01 X-30.6896 Y14.7139 
G00 Z2.5400  
G00 X-20.0843 Y14.8787 
G01 Z-0.1778 F100   
G01 X-20.0327 Y15.0375 F80    
G01 X-19.9569 Y15.1862 
G01 X-19.8588 Y15.3212 
G01 X-19.7408 Y15.4392 
G01 X-19.6058 Y15.5373 
G01 X-19.4571 Y15.6131 
G01 X-19.2983 Y15.6647 
G01 X-19.1335 Y15.6908 
G01 X-18.9665 Y15.6908 
G01 X-18.8017 Y15.6647 
G01 X-18.6429 Y15.6131 
G01 X-18.4942 Y15.5373 
G01 X-18.3592 Y15.4392 
G01 X-18.2412 Y15.3212 
G01 X-18.1431 Y15.1862 
G01 X-18.0673 Y15.0375 
G01 X-18.0157 Y14.8787 
G01 X-18.0134 Y14.8641 
G01 X-18.0087 Y14.8594 
G01 X-17.8824 Y14.6855 
G01 X-17.7848 Y14.4941 
G01 X-17.7800 Y14.4792 
G01 X-17.7752 Y14.4941 
G01 X-17.6776 Y14.6855 
G01 X-17.5513 Y14.8594 
G01 X-17.5466 Y14.8641 
G01 X-17.5443 Y14.8787 
G01 X-17.4927 Y15.0375 
G01 X-17.4169 Y15.1862 
G01 X-17.3188 Y15.3212 
G01 X-17.2008 Y15.4392 
G01 X-17.0658 Y15.5373 
G01 X-16.9170 Y15.6131 
G01 X-16.7583 Y15.6647 
G01 X-16.5935 Y15.6908 
G01 X-16.4265 Y15.6908 
G01 X-16.2617 Y15.6647 
G01 X-16.1029 Y15.6131 
G01 X-15.9542 Y15.5373 
G01 X-15.8192 Y15.4392 
G01 X-15.7012 Y15.3212 
G01 X-15.6031 Y15.1862 
G01 X-15.5273 Y15.0375 
G01 X-15.4757 Y14.8787 
G01 X-15.4734 Y14.8641 
G01 X-15.4687 Y14.8594 
G01 X-15.3424 Y14.6855 
G01 X-15.3352 Y14.6714 
G01 X-15.3352 Y17.8874 
G01 X-15.3016 Y18.0997 
G01 X-15.2352 Y18.3041 
G01 X-15.1376 Y18.4955 
G01 X-15.0113 Y18.6694 
G01 X-14.8594 Y18.8213 
G01 X-14.6855 Y18.9476 
G01 X-14.4941 Y19.0452 
G01 X-14.2897 Y19.1116 
G01 X-14.0774 Y19.1452 
G01 X-13.8626 Y19.1452 
G01 X-13.6503 Y19.1116 
G01 X-13.4459 Y19.0452 
G01 X-13.2545 Y18.9476 
G01 X-13.0806 Y18.8213 
G01 X-12.9287 Y18.6694 
G01 X-12.8024 Y18.4955 
G01 X-12.7048 Y18.3041 
G01 X-12.6384 Y18.0997 
G01 X-12.6048 Y17.8874 
G01 X-12.6048 Y8.2681  
G01 X-12.5412 Y8.3317  
G01 X-12.5412 Y26.8288 
G01 X-17.9388 Y26.8288 
G01 X-17.9388 Y21.5025 
G01 X-17.9662 Y21.3298 
G01 X-17.9896 Y21.2577 
G01 X-17.9896 Y20.8461 
G01 X-18.0157 Y20.6813 
G01 X-18.0673 Y20.5225 
G01 X-18.1431 Y20.3738 
G01 X-18.2412 Y20.2388 
G01 X-18.3592 Y20.1208 
G01 X-18.4942 Y20.0227 
G01 X-18.6429 Y19.9469 
G01 X-18.8017 Y19.8953 
G01 X-18.9665 Y19.8692 
G01 X-19.1335 Y19.8692 
G01 X-19.2983 Y19.8953 
G01 X-19.4571 Y19.9469 
G01 X-19.6058 Y20.0227 
G01 X-19.7408 Y20.1208 
G01 X-19.8588 Y20.2388 
G01 X-19.9569 Y20.3738 
G01 X-20.0327 Y20.5225 
G01 X-20.0843 Y20.6813 
G01 X-20.1104 Y20.8461 
G01 X-20.1104 Y21.2577 
G01 X-20.1338 Y21.3298 
G01 X-20.1612 Y21.5025 
G01 X-20.1612 Y28.0275 
G01 X-20.1338 Y28.2002 
G01 X-20.0798 Y28.3666 
G01 X-20.0004 Y28.5224 
G01 X-19.8976 Y28.6639 
G01 X-19.7739 Y28.7876 
G01 X-19.6324 Y28.8904 
G01 X-19.4765 Y28.9698 
G01 X-19.3102 Y29.0238 
G01 X-19.1375 Y29.0512 
G01 X-11.3425 Y29.0512 
G01 X-11.1698 Y29.0238 
G01 X-11.0034 Y28.9698 
G01 X-10.8476 Y28.8904 
G01 X-10.7061 Y28.7876 
G01 X-10.5824 Y28.6639 
G01 X-10.4796 Y28.5224 
G01 X-10.4002 Y28.3666 
G01 X-10.3462 Y28.2002 
G01 X-10.3188 Y28.0275 
G01 X-10.3188 Y8.3317  
G01 X-10.2552 Y8.2681  
G01 X-10.2552 Y12.8074 
G01 X-10.2216 Y13.0197 
G01 X-10.1552 Y13.2241 
G01 X-10.0576 Y13.4155 
G01 X-9.9313 Y13.5894 
G01 X-9.7794 Y13.7413 
G01 X-9.6055 Y13.8676 
G01 X-9.4141 Y13.9652 
G01 X-9.2097 Y14.0316 
G01 X-8.9974 Y14.0652 
G01 X-3.9052 Y14.0652 
G01 X-3.9052 Y23.1659 
G01 X-3.9315 Y23.2002 
G01 X-4.0410 Y23.3898 
G01 X-4.1248 Y23.5920 
G01 X-4.1814 Y23.8035 
G01 X-4.2100 Y24.0205 
G01 X-4.2100 Y24.2395 
G01 X-4.1814 Y24.4565 
G01 X-4.1248 Y24.6680 
G01 X-4.0410 Y24.8702 
G01 X-3.9315 Y25.0598 
G01 X-3.7983 Y25.2335 
G01 X-3.6435 Y25.3883 
G01 X-3.4698 Y25.5215 
G01 X-3.2802 Y25.6310 
G01 X-3.0780 Y25.7148 
G01 X-2.8665 Y25.7714 
G01 X-2.6495 Y25.8000 
G01 X-2.4305 Y25.8000 
G01 X-2.2135 Y25.7714 
G01 X-2.0020 Y25.7148 
G01 X-1.7998 Y25.6310 
G01 X-1.6102 Y25.5215 
G01 X-1.4365 Y25.3883 
G01 X-1.2817 Y25.2335 
G01 X-1.1485 Y25.0598 
G01 X-1.0390 Y24.8702 
G01 X-0.9552 Y24.6680 
G01 X-0.8986 Y24.4565 
G01 X-0.8700 Y24.2395 
G01 X-0.8700 Y24.0205 
G01 X-0.8986 Y23.8035 
G01 X-0.9552 Y23.5920 
G01 X-1.0390 Y23.3898 
G01 X-1.1485 Y23.2002 
G01 X-1.1748 Y23.1659 
G01 X-1.1748 Y12.5926 
G01 X-1.2084 Y12.3803 
G01 X-1.2748 Y12.1759 
G01 X-1.3724 Y11.9845 
G01 X-1.4987 Y11.8106 
G01 X-1.6506 Y11.6587 
G01 X-1.8245 Y11.5324 
G01 X-2.0159 Y11.4348 
G01 X-2.2203 Y11.3684 
G01 X-2.4326 Y11.3348 
G01 X-7.5248 Y11.3348 
G01 X-7.5248 Y8.3214  
G01 X-7.5176 Y8.3355  
G01 X-7.3913 Y8.5094  
G01 X-7.2394 Y8.6613  
G01 X-7.0655 Y8.7876  
G01 X-6.9427 Y8.8502  
G01 X-6.8839 Y8.9090  
G01 X-6.8007 Y8.9090  
G01 X-6.6697 Y8.9516  
G01 X-6.4574 Y8.9852  
G01 X-2.4326 Y8.9852  
G01 X-2.2203 Y8.9516  
G01 X-2.0159 Y8.8852  
G01 X-1.8245 Y8.7876  
G01 X-1.6506 Y8.6613  
G01 X-1.4987 Y8.5094  
G01 X-1.3724 Y8.3355  
G01 X-1.2748 Y8.1441  
G01 X-1.2084 Y7.9397  
G01 X-1.1748 Y7.7274  
G01 X-1.1748 Y2.4326  
G01 X-1.2084 Y2.2203  
G01 X-1.2748 Y2.0159  
G01 X-1.3724 Y1.8245  
G01 X-1.4987 Y1.6506  
G01 X-1.6506 Y1.4987  
G01 X-1.8245 Y1.3724  
G01 X-2.0159 Y1.2748  
G01 X-2.2203 Y1.2084  
G01 X-2.4326 Y1.1748  
G01 X-28.0474 Y1.1748  
G01 X-28.2597 Y1.2084  
G01 X-28.4641 Y1.2748  
G01 X-28.6555 Y1.3724  
G01 X-28.8294 Y1.4987  
G01 X-28.9813 Y1.6506  
G01 X-29.1076 Y1.8245  
G01 X-29.2052 Y2.0159  
G01 X-29.2716 Y2.2203  
G01 X-29.3052 Y2.4326  
G01 X-29.3052 Y6.2548  
G01 X-34.3974 Y6.2548  
G01 X-34.6097 Y6.2884  
G01 X-34.8141 Y6.3548  
G01 X-35.0055 Y6.4524  
G01 X-35.1794 Y6.5787  
G01 X-35.3313 Y6.7306  
G01 X-35.4576 Y6.9045  
G01 X-35.5552 Y7.0959  
G01 X-35.6216 Y7.3003  
G01 X-35.6552 Y7.5126  
G01 X-35.6552 Y12.8588 
G01 X-36.9175 Y12.8588 
G01 X-37.0902 Y12.8862 
G01 X-37.2566 Y12.9402 
G01 X-37.4124 Y13.0196 
G01 X-37.5539 Y13.1224 
G01 X-37.6776 Y13.2461 
G01 X-37.7804 Y13.3876 
G01 X-37.8598 Y13.5434 
G01 X-37.9138 Y13.7098 
G01 X-37.9412 Y13.8825 
G01 X-37.9412 Y25.4875 
G01 X-37.9138 Y25.6602 
G01 X-37.8598 Y25.8266 
G01 X-37.7804 Y25.9824 
G01 X-37.6776 Y26.1239 
G01 X-37.5539 Y26.2476 
G01 X-37.4124 Y26.3504 
G01 X-37.2566 Y26.4298 
G01 X-37.0902 Y26.4838 
G01 X-36.9175 Y26.5112 
G01 X-24.0425 Y26.5112 
G01 X-23.8698 Y26.4838 
G01 X-23.7034 Y26.4298 
G01 X-23.5476 Y26.3504 
G01 X-23.4061 Y26.2476 
G01 X-23.2824 Y26.1239 
G01 X-23.1796 Y25.9824 
G01 X-23.1002 Y25.8266 
G01 X-23.0462 Y25.6602 
G01 X-23.0188 Y25.4875 
G01 X-23.0188 Y21.5025 
G01 X-23.0462 Y21.3298 
G01 X-23.0696 Y21.2577 
G01 X-23.0696 Y20.8461 
G01 X-23.0957 Y20.6813 
G01 X-23.1473 Y20.5225 
G01 X-23.2231 Y20.3738 
G01 X-23.3212 Y20.2388 
G01 X-23.4392 Y20.1208 
G01 X-23.5742 Y20.0227 
G01 X-23.7229 Y19.9469 
G01 X-23.8817 Y19.8953 
G01 X-24.0465 Y19.8692 
G01 X-24.2135 Y19.8692 
G01 X-24.3783 Y19.8953 
G01 X-24.5371 Y19.9469 
G01 X-24.6858 Y20.0227 
G01 X-24.8208 Y20.1208 
G01 X-24.9388 Y20.2388 
G01 X-25.0369 Y20.3738 
G01 X-25.1127 Y20.5225 
G01 X-25.1643 Y20.6813 
G01 X-25.1904 Y20.8461 
G01 X-25.1904 Y21.2577 
G01 X-25.2138 Y21.3298 
G01 X-25.2412 Y21.5025 
G01 X-25.2412 Y24.2888 
G01 X-25.5588 Y24.2888 
G01 X-25.5588 Y21.5025 
G01 X-25.5862 Y21.3298 
G01 X-25.6096 Y21.2577 
G01 X-25.6096 Y20.8461 
G01 X-25.6357 Y20.6813 
G01 X-25.6873 Y20.5225 
G01 X-25.7631 Y20.3738 
G01 X-25.8612 Y20.2388 
G01 X-25.9792 Y20.1208 
G01 X-26.1142 Y20.0227 
G01 X-26.2629 Y19.9469 
G01 X-26.4217 Y19.8953 
G01 X-26.5865 Y19.8692 
G01 X-26.7535 Y19.8692 
G01 X-26.9183 Y19.8953 
G01 X-27.0770 Y19.9469 
G01 X-27.2258 Y20.0227 
G01 X-27.3608 Y20.1208 
G01 X-27.4788 Y20.2388 
G01 X-27.5769 Y20.3738 
G01 X-27.6527 Y20.5225 
G01 X-27.7043 Y20.6813 
G01 X-27.7304 Y20.8461 
G01 X-27.7304 Y21.2577 
G01 X-27.7538 Y21.3298 
G01 X-27.7812 Y21.5025 
G01 X-27.7812 Y24.2888 
G01 X-35.7188 Y24.2888 
G01 X-35.7188 Y15.0812 
G01 X-35.2504 Y15.0812 
G01 X-35.1969 Y15.1862 
G01 X-35.0988 Y15.3212 
G01 X-34.9808 Y15.4392 
G01 X-34.8458 Y15.5373 
G01 X-34.6971 Y15.6131 
G01 X-34.5383 Y15.6647 
G01 X-34.3735 Y15.6908 
G01 X-34.2065 Y15.6908 
G01 X-34.0417 Y15.6647 
G01 X-33.8829 Y15.6131 
G01 X-33.7342 Y15.5373 
G01 X-33.5992 Y15.4392 
G01 X-33.4812 Y15.3212 
G01 X-33.3831 Y15.1862 
G01 X-33.3073 Y15.0375 
G01 X-33.2557 Y14.8787 
G01 X-33.2534 Y14.8641 
G01 X-33.2487 Y14.8594 
G01 X-33.1224 Y14.6855 
G01 X-33.0248 Y14.4941 
G01 X-32.9584 Y14.2897 
G01 X-32.9248 Y14.0774 
G01 X-32.9248 Y8.9852  
G01 X-26.5626 Y8.9852  
G01 X-26.3503 Y8.9516  
G01 X-26.2193 Y8.9090  
G01 X-26.1361 Y8.9090  
G01 X-26.0773 Y8.8502  
G01 X-25.9545 Y8.7876  
G01 X-25.7806 Y8.6613  
G01 X-25.6287 Y8.5094  
G01 X-25.5024 Y8.3355  
G01 X-25.4952 Y8.3214  
G01 X-25.4952 Y14.0774 
G01 X-25.4616 Y14.2897 
G01 X-25.3952 Y14.4941 
G01 X-25.2976 Y14.6855 
G01 X-25.1713 Y14.8594 
G01 X-25.1666 Y14.8641 
G01 X-25.1643 Y14.8787 
G01 X-25.1127 Y15.0375 
G01 X-25.0369 Y15.1862 
G01 X-24.9388 Y15.3212 
G01 X-24.8208 Y15.4392 
G01 X-24.6858 Y15.5373 
G01 X-24.5371 Y15.6131 
G01 X-24.3783 Y15.6647 
G01 X-24.2135 Y15.6908 
G01 X-24.0465 Y15.6908 
G01 X-23.8817 Y15.6647 
G01 X-23.7229 Y15.6131 
G01 X-23.5742 Y15.5373 
G01 X-23.4392 Y15.4392 
G01 X-23.3212 Y15.3212 
G01 X-23.2231 Y15.1862 
G01 X-23.1473 Y15.0375 
G01 X-23.0957 Y14.8787 
G01 X-23.0934 Y14.8641 
G01 X-23.0887 Y14.8594 
G01 X-22.9624 Y14.6855 
G01 X-22.8648 Y14.4941 
G01 X-22.8600 Y14.4792 
G01 X-22.8552 Y14.4941 
G01 X-22.7576 Y14.6855 
G01 X-22.6313 Y14.8594 
G01 X-22.6266 Y14.8641 
G01 X-22.6243 Y14.8787 
G01 X-22.5727 Y15.0375 
G01 X-22.4969 Y15.1862 
G01 X-22.3988 Y15.3212 
G01 X-22.2808 Y15.4392 
G01 X-22.1458 Y15.5373 
G01 X-21.9971 Y15.6131 
G01 X-21.8383 Y15.6647 
G01 X-21.6735 Y15.6908 
G01 X-21.5065 Y15.6908 
G01 X-21.3417 Y15.6647 
G01 X-21.1829 Y15.6131 
G01 X-21.0342 Y15.5373 
G01 X-20.8992 Y15.4392 
G01 X-20.7812 Y15.3212 
G01 X-20.6831 Y15.1862 
G01 X-20.6073 Y15.0375 
G01 X-20.5557 Y14.8787 
G01 X-20.5534 Y14.8641 
G01 X-20.5487 Y14.8594 
G01 X-20.4224 Y14.6855 
G01 X-20.3248 Y14.4941 
G01 X-20.3200 Y14.4792 
G01 X-20.3152 Y14.4941 
G01 X-20.2176 Y14.6855 
G01 X-20.0913 Y14.8594 
G01 X-20.0866 Y14.8641 
G01 X-20.0843 Y14.8787 
G00 Z2.5400  
G00 X-6.9253 Y6.2310  
G01 Z-0.1778 F100   
G01 X-7.0022 Y6.3079  F80    
G01 X-7.1179 Y6.3668  
G01 X-7.3045 Y6.5024  
G01 X-7.4676 Y6.6655  
G01 X-7.6032 Y6.8521  
G01 X-7.6200 Y6.8851  
G01 X-7.6368 Y6.8521  
G01 X-7.7724 Y6.6655  
G01 X-7.9355 Y6.5024  
G01 X-8.1221 Y6.3668  
G01 X-8.2378 Y6.3079  
G01 X-8.3147 Y6.2310  
G01 X-8.4234 Y6.2310  
G01 X-8.5469 Y6.1909  
G01 X-8.7747 Y6.1548  
G01 X-9.0053 Y6.1548  
G01 X-9.2331 Y6.1909  
G01 X-9.3566 Y6.2310  
G01 X-9.4653 Y6.2310  
G01 X-9.5422 Y6.3079  
G01 X-9.6579 Y6.3668  
G01 X-9.8445 Y6.5024  
G01 X-10.0076 Y6.6655  
G01 X-10.1432 Y6.8521  
G01 X-10.1737 Y6.9120  
G01 X-10.8547 Y6.2310  
G01 X-12.0053 Y6.2310  
G01 X-12.6863 Y6.9120  
G01 X-12.7168 Y6.8521  
G01 X-12.8524 Y6.6655  
G01 X-13.0155 Y6.5024  
G01 X-13.2021 Y6.3668  
G01 X-13.3178 Y6.3079  
G01 X-13.3947 Y6.2310  
G01 X-13.5034 Y6.2310  
G01 X-13.6269 Y6.1909  
G01 X-13.8547 Y6.1548  
G01 X-14.0853 Y6.1548  
G01 X-14.3131 Y6.1909  
G01 X-14.4366 Y6.2310  
G01 X-14.5453 Y6.2310  
G01 X-14.6222 Y6.3079  
G01 X-14.7379 Y6.3668  
G01 X-14.9245 Y6.5024  
G01 X-15.0876 Y6.6655  
G01 X-15.2232 Y6.8521  
G01 X-15.2400 Y6.8851  
G01 X-15.2568 Y6.8521  
G01 X-15.3924 Y6.6655  
G01 X-15.5555 Y6.5024  
G01 X-15.7421 Y6.3668  
G01 X-15.8578 Y6.3079  
G01 X-15.9347 Y6.2310  
G01 X-16.0434 Y6.2310  
G01 X-16.1669 Y6.1909  
G01 X-16.3947 Y6.1548  
G01 X-16.6253 Y6.1548  
G01 X-16.8531 Y6.1909  
G01 X-16.9766 Y6.2310  
G01 X-17.0853 Y6.2310  
G01 X-17.1622 Y6.3079  
G01 X-17.2779 Y6.3668  
G01 X-17.4645 Y6.5024  
G01 X-17.6276 Y6.6655  
G01 X-17.7631 Y6.8521  
G01 X-17.7800 Y6.8851  
G01 X-17.7968 Y6.8521  
G01 X-17.9324 Y6.6655  
G01 X-18.0955 Y6.5024  
G01 X-18.2821 Y6.3668  
G01 X-18.3978 Y6.3079  
G01 X-18.4747 Y6.2310  
G01 X-18.5834 Y6.2310  
G01 X-18.7069 Y6.1909  
G01 X-18.9347 Y6.1548  
G01 X-19.1653 Y6.1548  
G01 X-19.3931 Y6.1909  
G01 X-19.5166 Y6.2310  
G01 X-19.6253 Y6.2310  
G01 X-19.7022 Y6.3079  
G01 X-19.8179 Y6.3668  
G01 X-20.0045 Y6.5024  
G01 X-20.1676 Y6.6655  
G01 X-20.3032 Y6.8521  
G01 X-20.3200 Y6.8851  
G01 X-20.3368 Y6.8521  
G01 X-20.4724 Y6.6655  
G01 X-20.6355 Y6.5024  
G01 X-20.8221 Y6.3668  
G01 X-20.9378 Y6.3079  
G01 X-21.0147 Y6.2310  
G01 X-21.1234 Y6.2310  
G01 X-21.2469 Y6.1909  
G01 X-21.4747 Y6.1548  
G01 X-21.7053 Y6.1548  
G01 X-21.9331 Y6.1909  
G01 X-22.0566 Y6.2310  
G01 X-22.1653 Y6.2310  
G01 X-22.2422 Y6.3079  
G01 X-22.3579 Y6.3668  
G01 X-22.5445 Y6.5024  
G01 X-22.7076 Y6.6655  
G01 X-22.8432 Y6.8521  
G01 X-22.8600 Y6.8851  
G01 X-22.8768 Y6.8521  
G01 X-23.0124 Y6.6655  
G01 X-23.1755 Y6.5024  
G01 X-23.3621 Y6.3668  
G01 X-23.4778 Y6.3079  
G01 X-23.5547 Y6.2310  
G01 X-23.6634 Y6.2310  
G01 X-23.7869 Y6.1909  
G01 X-24.0147 Y6.1548  
G01 X-24.2453 Y6.1548  
G01 X-24.4731 Y6.1909  
G01 X-24.5966 Y6.2310  
G01 X-24.7053 Y6.2310  
G01 X-24.7822 Y6.3079  
G01 X-24.8979 Y6.3668  
G01 X-25.0845 Y6.5024  
G01 X-25.2476 Y6.6655  
G01 X-25.3832 Y6.8521  
G01 X-25.4000 Y6.8851  
G01 X-25.4168 Y6.8521  
G01 X-25.5524 Y6.6655  
G01 X-25.7155 Y6.5024  
G01 X-25.9021 Y6.3668  
G01 X-26.0178 Y6.3079  
G01 X-26.0947 Y6.2310  
G01 X-26.2034 Y6.2310  
G01 X-26.3269 Y6.1909  
G01 X-26.4748 Y6.1675  
G01 X-26.4748 Y4.0052  
G01 X-4.0052 Y4.0052  
G01 X-4.0052 Y6.1548  
G01 X-6.4653 Y6.1548  
G01 X-6.6931 Y6.1909  
G01 X-6.8166 Y6.2310  
G01 X-6.9253 Y6.2310  
G00 Z2.5400  
G00 X-17.5854 Y15.0758 
G01 Z-0.1778 F100   
G01 X-17.5025 Y15.2386 F80    
G01 X-17.3951 Y15.3863 
G01 X-17.2659 Y15.5155 
G01 X-17.1182 Y15.6229 
G01 X-16.9554 Y15.7058 
G01 X-16.7817 Y15.7622 
G01 X-16.6013 Y15.7908 
G01 X-16.4187 Y15.7908 
G01 X-16.2383 Y15.7622 
G01 X-16.0646 Y15.7058 
G01 X-15.9018 Y15.6229 
G01 X-15.7541 Y15.5155 
G01 X-15.6249 Y15.3863 
G01 X-15.5175 Y15.2386 
G01 X-15.4352 Y15.0770 
G01 X-15.4352 Y17.8953 
G01 X-15.3991 Y18.1231 
G01 X-15.3279 Y18.3424 
G01 X-15.2232 Y18.5479 
G01 X-15.0876 Y18.7345 
G01 X-14.9245 Y18.8976 
G01 X-14.7379 Y19.0332 
G01 X-14.5324 Y19.1379 
G01 X-14.3131 Y19.2091 
G01 X-14.0853 Y19.2452 
G01 X-13.8547 Y19.2452 
G01 X-13.6269 Y19.2091 
G01 X-13.4076 Y19.1379 
G01 X-13.2021 Y19.0332 
G01 X-13.0155 Y18.8976 
G01 X-12.8524 Y18.7345 
G01 X-12.7168 Y18.5479 
G01 X-12.6412 Y18.3995 
G01 X-12.6412 Y26.7288 
G01 X-17.8388 Y26.7288 
G01 X-17.8388 Y24.7494 
G01 X-17.7631 Y24.8979 
G01 X-17.6276 Y25.0845 
G01 X-17.4645 Y25.2476 
G01 X-17.2779 Y25.3832 
G01 X-17.0724 Y25.4879 
G01 X-16.8531 Y25.5591 
G01 X-16.6253 Y25.5952 
G01 X-16.3947 Y25.5952 
G01 X-16.1669 Y25.5591 
G01 X-15.9476 Y25.4879 
G01 X-15.7421 Y25.3832 
G01 X-15.5555 Y25.2476 
G01 X-15.3924 Y25.0845 
G01 X-15.2568 Y24.8979 
G01 X-15.1521 Y24.6924 
G01 X-15.0809 Y24.4731 
G01 X-15.0448 Y24.2453 
G01 X-15.0448 Y21.4747 
G01 X-15.0809 Y21.2469 
G01 X-15.1521 Y21.0276 
G01 X-15.2568 Y20.8221 
G01 X-15.3798 Y20.6528 
G01 X-15.4346 Y20.4842 
G01 X-15.5175 Y20.3214 
G01 X-15.6249 Y20.1737 
G01 X-15.7541 Y20.0445 
G01 X-15.9018 Y19.9371 
G01 X-16.0646 Y19.8542 
G01 X-16.2383 Y19.7978 
G01 X-16.4187 Y19.7692 
G01 X-16.6013 Y19.7692 
G01 X-16.7817 Y19.7978 
G01 X-16.9554 Y19.8542 
G01 X-17.1182 Y19.9371 
G01 X-17.2659 Y20.0445 
G01 X-17.3951 Y20.1737 
G01 X-17.5025 Y20.3214 
G01 X-17.5854 Y20.4842 
G01 X-17.6402 Y20.6528 
G01 X-17.7631 Y20.8221 
G01 X-17.8679 Y21.0276 
G01 X-17.8896 Y21.0945 
G01 X-17.8896 Y20.8383 
G01 X-17.9182 Y20.6579 
G01 X-17.9746 Y20.4842 
G01 X-18.0575 Y20.3214 
G01 X-18.1649 Y20.1737 
G01 X-18.2941 Y20.0445 
G01 X-18.4418 Y19.9371 
G01 X-18.6046 Y19.8542 
G01 X-18.7783 Y19.7978 
G01 X-18.9587 Y19.7692 
G01 X-19.1413 Y19.7692 
G01 X-19.3217 Y19.7978 
G01 X-19.4954 Y19.8542 
G01 X-19.6582 Y19.9371 
G01 X-19.8059 Y20.0445 
G01 X-19.9351 Y20.1737 
G01 X-20.0425 Y20.3214 
G01 X-20.1254 Y20.4842 
G01 X-20.1818 Y20.6579 
G01 X-20.2104 Y20.8383 
G01 X-20.2104 Y21.2418 
G01 X-20.2314 Y21.3064 
G01 X-20.2612 Y21.4947 
G01 X-20.2612 Y28.0353 
G01 X-20.2314 Y28.2236 
G01 X-20.1725 Y28.4049 
G01 X-20.0859 Y28.5748 
G01 X-19.9739 Y28.7290 
G01 X-19.8390 Y28.8639 
G01 X-19.6848 Y28.9759 
G01 X-19.5149 Y29.0625 
G01 X-19.3336 Y29.1214 
G01 X-19.1453 Y29.1512 
G01 X-11.3347 Y29.1512 
G01 X-11.1464 Y29.1214 
G01 X-10.9651 Y29.0625 
G01 X-10.7952 Y28.9759 
G01 X-10.6410 Y28.8639 
G01 X-10.5061 Y28.7290 
G01 X-10.3941 Y28.5748 
G01 X-10.3075 Y28.4049 
G01 X-10.2486 Y28.2236 
G01 X-10.2188 Y28.0353 
G01 X-10.2188 Y13.3194 
G01 X-10.1432 Y13.4679 
G01 X-10.0076 Y13.6545 
G01 X-9.8445 Y13.8176 
G01 X-9.6579 Y13.9532 
G01 X-9.4524 Y14.0579 
G01 X-9.2331 Y14.1291 
G01 X-9.0053 Y14.1652 
G01 X-4.0052 Y14.1652 
G01 X-4.0052 Y23.1319 
G01 X-4.0149 Y23.1445 
G01 X-4.1309 Y23.3455 
G01 X-4.2197 Y23.5598 
G01 X-4.2797 Y23.7839 
G01 X-4.3100 Y24.0140 
G01 X-4.3100 Y24.2460 
G01 X-4.2797 Y24.4761 
G01 X-4.2197 Y24.7002 
G01 X-4.1309 Y24.9145 
G01 X-4.0149 Y25.1155 
G01 X-3.8736 Y25.2995 
G01 X-3.7095 Y25.4636 
G01 X-3.5255 Y25.6049 
G01 X-3.3245 Y25.7209 
G01 X-3.1102 Y25.8097 
G01 X-2.8861 Y25.8697 
G01 X-2.6560 Y25.9000 
G01 X-2.4240 Y25.9000 
G01 X-2.1939 Y25.8697 
G01 X-1.9698 Y25.8097 
G01 X-1.7555 Y25.7209 
G01 X-1.5545 Y25.6049 
G01 X-1.3705 Y25.4636 
G01 X-1.2064 Y25.2995 
G01 X-1.0651 Y25.1155 
G01 X-0.9491 Y24.9145 
G01 X-0.8603 Y24.7002 
G01 X-0.8003 Y24.4761 
G01 X-0.7700 Y24.2460 
G01 X-0.7700 Y24.0140 
G01 X-0.8003 Y23.7839 
G01 X-0.8603 Y23.5598 
G01 X-0.9491 Y23.3455 
G01 X-1.0651 Y23.1445 
G01 X-1.0748 Y23.1319 
G01 X-1.0748 Y12.5847 
G01 X-1.1109 Y12.3569 
G01 X-1.1821 Y12.1376 
G01 X-1.2868 Y11.9321 
G01 X-1.4224 Y11.7455 
G01 X-1.5855 Y11.5824 
G01 X-1.7721 Y11.4468 
G01 X-1.9776 Y11.3421 
G01 X-2.1969 Y11.2709 
G01 X-2.4247 Y11.2348 
G01 X-7.4248 Y11.2348 
G01 X-7.4248 Y8.6173  
G01 X-7.3045 Y8.7376  
G01 X-7.1179 Y8.8732  
G01 X-7.0022 Y8.9321  
G01 X-6.9253 Y9.0090  
G01 X-6.8166 Y9.0090  
G01 X-6.6931 Y9.0491  
G01 X-6.4653 Y9.0852  
G01 X-2.4247 Y9.0852  
G01 X-2.1969 Y9.0491  
G01 X-1.9776 Y8.9779  
G01 X-1.7721 Y8.8732  
G01 X-1.5855 Y8.7376  
G01 X-1.4224 Y8.5745  
G01 X-1.2868 Y8.3879  
G01 X-1.1821 Y8.1824  
G01 X-1.1109 Y7.9631  
G01 X-1.0748 Y7.7353  
G01 X-1.0748 Y2.4247  
G01 X-1.1109 Y2.1969  
G01 X-1.1821 Y1.9776  
G01 X-1.2868 Y1.7721  
G01 X-1.4224 Y1.5855  
G01 X-1.5855 Y1.4224  
G01 X-1.7721 Y1.2868  
G01 X-1.9776 Y1.1821  
G01 X-2.1969 Y1.1109  
G01 X-2.4247 Y1.0748  
G01 X-28.0553 Y1.0748  
G01 X-28.2831 Y1.1109  
G01 X-28.5024 Y1.1821  
G01 X-28.7079 Y1.2868  
G01 X-28.8945 Y1.4224  
G01 X-29.0576 Y1.5855  
G01 X-29.1932 Y1.7721  
G01 X-29.2979 Y1.9776  
G01 X-29.3691 Y2.1969  
G01 X-29.4052 Y2.4247  
G01 X-29.4052 Y6.1548  
G01 X-34.4053 Y6.1548  
G01 X-34.6331 Y6.1909  
G01 X-34.8524 Y6.2621  
G01 X-35.0579 Y6.3668  
G01 X-35.2445 Y6.5024  
G01 X-35.4076 Y6.6655  
G01 X-35.5432 Y6.8521  
G01 X-35.6478 Y7.0576  
G01 X-35.7191 Y7.2769  
G01 X-35.7552 Y7.5047  
G01 X-35.7552 Y12.7588 
G01 X-36.9253 Y12.7588 
G01 X-37.1136 Y12.7886 
G01 X-37.2949 Y12.8475 
G01 X-37.4648 Y12.9341 
G01 X-37.6190 Y13.0461 
G01 X-37.7538 Y13.1810 
G01 X-37.8659 Y13.3352 
G01 X-37.9525 Y13.5051 
G01 X-38.0114 Y13.6864 
G01 X-38.0412 Y13.8747 
G01 X-38.0412 Y25.4953 
G01 X-38.0114 Y25.6836 
G01 X-37.9525 Y25.8649 
G01 X-37.8659 Y26.0348 
G01 X-37.7538 Y26.1890 
G01 X-37.6190 Y26.3239 
G01 X-37.4648 Y26.4359 
G01 X-37.2949 Y26.5225 
G01 X-37.1136 Y26.5814 
G01 X-36.9253 Y26.6112 
G01 X-24.0347 Y26.6112 
G01 X-23.8464 Y26.5814 
G01 X-23.6651 Y26.5225 
G01 X-23.4952 Y26.4359 
G01 X-23.3410 Y26.3239 
G01 X-23.2061 Y26.1890 
G01 X-23.0941 Y26.0348 
G01 X-23.0075 Y25.8649 
G01 X-22.9486 Y25.6836 
G01 X-22.9188 Y25.4953 
G01 X-22.9188 Y21.4947 
G01 X-22.9486 Y21.3064 
G01 X-22.9696 Y21.2418 
G01 X-22.9696 Y20.8383 
G01 X-22.9982 Y20.6579 
G01 X-23.0546 Y20.4842 
G01 X-23.1375 Y20.3214 
G01 X-23.2449 Y20.1737 
G01 X-23.3741 Y20.0445 
G01 X-23.5218 Y19.9371 
G01 X-23.6846 Y19.8542 
G01 X-23.8583 Y19.7978 
G01 X-24.0387 Y19.7692 
G01 X-24.2213 Y19.7692 
G01 X-24.4017 Y19.7978 
G01 X-24.5754 Y19.8542 
G01 X-24.7382 Y19.9371 
G01 X-24.8859 Y20.0445 
G01 X-25.0151 Y20.1737 
G01 X-25.1225 Y20.3214 
G01 X-25.2054 Y20.4842 
G01 X-25.2618 Y20.6579 
G01 X-25.2904 Y20.8383 
G01 X-25.2904 Y21.2418 
G01 X-25.3114 Y21.3064 
G01 X-25.3412 Y21.4947 
G01 X-25.3412 Y24.1888 
G01 X-25.4588 Y24.1888 
G01 X-25.4588 Y21.4947 
G01 X-25.4886 Y21.3064 
G01 X-25.5096 Y21.2418 
G01 X-25.5096 Y20.8383 
G01 X-25.5382 Y20.6579 
G01 X-25.5946 Y20.4842 
G01 X-25.6775 Y20.3214 
G01 X-25.7849 Y20.1737 
G01 X-25.9140 Y20.0445 
G01 X-26.0618 Y19.9371 
G01 X-26.2246 Y19.8542 
G01 X-26.3983 Y19.7978 
G01 X-26.5787 Y19.7692 
G01 X-26.7613 Y19.7692 
G01 X-26.9417 Y19.7978 
G01 X-27.1154 Y19.8542 
G01 X-27.2782 Y19.9371 
G01 X-27.4259 Y20.0445 
G01 X-27.5551 Y20.1737 
G01 X-27.6625 Y20.3214 
G01 X-27.7454 Y20.4842 
G01 X-27.8018 Y20.6579 
G01 X-27.8304 Y20.8383 
G01 X-27.8304 Y21.2418 
G01 X-27.8514 Y21.3064 
G01 X-27.8812 Y21.4947 
G01 X-27.8812 Y24.1888 
G01 X-35.6188 Y24.1888 
G01 X-35.6188 Y15.1812 
G01 X-35.3117 Y15.1812 
G01 X-35.2825 Y15.2386 
G01 X-35.1751 Y15.3863 
G01 X-35.0459 Y15.5155 
G01 X-34.8982 Y15.6229 
G01 X-34.7354 Y15.7058 
G01 X-34.5617 Y15.7622 
G01 X-34.3813 Y15.7908 
G01 X-34.1987 Y15.7908 
G01 X-34.0183 Y15.7622 
G01 X-33.8446 Y15.7058 
G01 X-33.6818 Y15.6229 
G01 X-33.5341 Y15.5155 
G01 X-33.4049 Y15.3863 
G01 X-33.2975 Y15.2386 
G01 X-33.2146 Y15.0758 
G01 X-33.1598 Y14.9072 
G01 X-33.0368 Y14.7379 
G01 X-32.9321 Y14.5324 
G01 X-32.9104 Y14.4655 
G01 X-32.9104 Y14.7217 
G01 X-32.8818 Y14.9021 
G01 X-32.8254 Y15.0758 
G01 X-32.7425 Y15.2386 
G01 X-32.6351 Y15.3863 
G01 X-32.5059 Y15.5155 
G01 X-32.3582 Y15.6229 
G01 X-32.1954 Y15.7058 
G01 X-32.0217 Y15.7622 
G01 X-31.8413 Y15.7908 
G01 X-31.6587 Y15.7908 
G01 X-31.4783 Y15.7622 
G01 X-31.3046 Y15.7058 
G01 X-31.1418 Y15.6229 
G01 X-30.9941 Y15.5155 
G01 X-30.8649 Y15.3863 
G01 X-30.7575 Y15.2386 
G01 X-30.6746 Y15.0758 
G01 X-30.6182 Y14.9021 
G01 X-30.5896 Y14.7217 
G01 X-30.5896 Y13.2183 
G01 X-30.6182 Y13.0379 
G01 X-30.6746 Y12.8642 
G01 X-30.7575 Y12.7014 
G01 X-30.8649 Y12.5537 
G01 X-30.9941 Y12.4245 
G01 X-31.1418 Y12.3171 
G01 X-31.3046 Y12.2342 
G01 X-31.4783 Y12.1778 
G01 X-31.6587 Y12.1492 
G01 X-31.8413 Y12.1492 
G01 X-32.0217 Y12.1778 
G01 X-32.1954 Y12.2342 
G01 X-32.3582 Y12.3171 
G01 X-32.5059 Y12.4245 
G01 X-32.6351 Y12.5537 
G01 X-32.7425 Y12.7014 
G01 X-32.8248 Y12.8630 
G01 X-32.8248 Y9.0852  
G01 X-26.5547 Y9.0852  
G01 X-26.3269 Y9.0491  
G01 X-26.2034 Y9.0090  
G01 X-26.0947 Y9.0090  
G01 X-26.0178 Y8.9321  
G01 X-25.9021 Y8.8732  
G01 X-25.7155 Y8.7376  
G01 X-25.5952 Y8.6173  
G01 X-25.5952 Y12.8630 
G01 X-25.6775 Y12.7014 
G01 X-25.7849 Y12.5537 
G01 X-25.9140 Y12.4245 
G01 X-26.0618 Y12.3171 
G01 X-26.2246 Y12.2342 
G01 X-26.3983 Y12.1778 
G01 X-26.5787 Y12.1492 
G01 X-26.7613 Y12.1492 
G01 X-26.9417 Y12.1778 
G01 X-27.1154 Y12.2342 
G01 X-27.2782 Y12.3171 
G01 X-27.4259 Y12.4245 
G01 X-27.5551 Y12.5537 
G01 X-27.6625 Y12.7014 
G01 X-27.7454 Y12.8642 
G01 X-27.8018 Y13.0379 
G01 X-27.8304 Y13.2183 
G01 X-27.8304 Y14.7217 
G01 X-27.8018 Y14.9021 
G01 X-27.7454 Y15.0758 
G01 X-27.6625 Y15.2386 
G01 X-27.5551 Y15.3863 
G01 X-27.4259 Y15.5155 
G01 X-27.2782 Y15.6229 
G01 X-27.1154 Y15.7058 
G01 X-26.9417 Y15.7622 
G01 X-26.7613 Y15.7908 
G01 X-26.5787 Y15.7908 
G01 X-26.3983 Y15.7622 
G01 X-26.2246 Y15.7058 
G01 X-26.0618 Y15.6229 
G01 X-25.9140 Y15.5155 
G01 X-25.7849 Y15.3863 
G01 X-25.6775 Y15.2386 
G01 X-25.5946 Y15.0758 
G01 X-25.5382 Y14.9021 
G01 X-25.5096 Y14.7217 
G01 X-25.5096 Y14.4655 
G01 X-25.4879 Y14.5324 
G01 X-25.3832 Y14.7379 
G01 X-25.2602 Y14.9072 
G01 X-25.2054 Y15.0758 
G01 X-25.1225 Y15.2386 
G01 X-25.0151 Y15.3863 
G01 X-24.8859 Y15.5155 
G01 X-24.7382 Y15.6229 
G01 X-24.5754 Y15.7058 
G01 X-24.4017 Y15.7622 
G01 X-24.2213 Y15.7908 
G01 X-24.0387 Y15.7908 
G01 X-23.8583 Y15.7622 
G01 X-23.6846 Y15.7058 
G01 X-23.5218 Y15.6229 
G01 X-23.3741 Y15.5155 
G01 X-23.2449 Y15.3863 
G01 X-23.1375 Y15.2386 
G01 X-23.0546 Y15.0758 
G01 X-22.9998 Y14.9072 
G01 X-22.8768 Y14.7379 
G01 X-22.8600 Y14.7049 
G01 X-22.8432 Y14.7379 
G01 X-22.7202 Y14.9072 
G01 X-22.6654 Y15.0758 
G01 X-22.5825 Y15.2386 
G01 X-22.4751 Y15.3863 
G01 X-22.3459 Y15.5155 
G01 X-22.1982 Y15.6229 
G01 X-22.0354 Y15.7058 
G01 X-21.8617 Y15.7622 
G01 X-21.6813 Y15.7908 
G01 X-21.4987 Y15.7908 
G01 X-21.3183 Y15.7622 
G01 X-21.1446 Y15.7058 
G01 X-20.9818 Y15.6229 
G01 X-20.8341 Y15.5155 
G01 X-20.7049 Y15.3863 
G01 X-20.5975 Y15.2386 
G01 X-20.5146 Y15.0758 
G01 X-20.4598 Y14.9072 
G01 X-20.3368 Y14.7379 
G01 X-20.3200 Y14.7049 
G01 X-20.3032 Y14.7379 
G01 X-20.1802 Y14.9072 
G01 X-20.1254 Y15.0758 
G01 X-20.0425 Y15.2386 
G01 X-19.9351 Y15.3863 
G01 X-19.8059 Y15.5155 
G01 X-19.6582 Y15.6229 
G01 X-19.4954 Y15.7058 
G01 X-19.3217 Y15.7622 
G01 X-19.1413 Y15.7908 
G01 X-18.9587 Y15.7908 
G01 X-18.7783 Y15.7622 
G01 X-18.6046 Y15.7058 
G01 X-18.4418 Y15.6229 
G01 X-18.2941 Y15.5155 
G01 X-18.1649 Y15.3863 
G01 X-18.0575 Y15.2386 
G01 X-17.9746 Y15.0758 
G01 X-17.9198 Y14.9072 
G01 X-17.7968 Y14.7379 
G01 X-17.7800 Y14.7049 
G01 X-17.7631 Y14.7379 
G01 X-17.6402 Y14.9072 
G01 X-17.5854 Y15.0758 
G00 Z2.5400  
G00 X-28.0496 Y14.7217 
G01 Z-0.1778 F100   
G01 X-28.0496 Y13.2183 F80    
G01 X-28.0782 Y13.0379 
G01 X-28.1346 Y12.8642 
G01 X-28.2175 Y12.7014 
G01 X-28.3249 Y12.5537 
G01 X-28.4541 Y12.4245 
G01 X-28.6018 Y12.3171 
G01 X-28.7646 Y12.2342 
G01 X-28.9383 Y12.1778 
G01 X-29.1187 Y12.1492 
G01 X-29.3013 Y12.1492 
G01 X-29.4817 Y12.1778 
G01 X-29.6554 Y12.2342 
G01 X-29.8182 Y12.3171 
G01 X-29.9659 Y12.4245 
G01 X-30.0951 Y12.5537 
G01 X-30.2025 Y12.7014 
G01 X-30.2854 Y12.8642 
G01 X-30.3418 Y13.0379 
G01 X-30.3704 Y13.2183 
G01 X-30.3704 Y14.7217 
G01 X-30.3418 Y14.9021 
G01 X-30.2854 Y15.0758 
G01 X-30.2025 Y15.2386 
G01 X-30.0951 Y15.3863 
G01 X-29.9659 Y15.5155 
G01 X-29.8182 Y15.6229 
G01 X-29.6554 Y15.7058 
G01 X-29.4817 Y15.7622 
G01 X-29.3013 Y15.7908 
G01 X-29.1187 Y15.7908 
G01 X-28.9383 Y15.7622 
G01 X-28.7646 Y15.7058 
G01 X-28.6018 Y15.6229 
G01 X-28.4541 Y15.5155 
G01 X-28.3249 Y15.3863 
G01 X-28.2175 Y15.2386 
G01 X-28.1346 Y15.0758 
G01 X-28.0782 Y14.9021 
G01 X-28.0496 Y14.7217 
G00 Z2.5400  
G00 X-33.1296 Y22.3417 
G01 Z-0.1778 F100   
G01 X-33.1296 Y20.8383 F80    
G01 X-33.1582 Y20.6579 
G01 X-33.2146 Y20.4842 
G01 X-33.2975 Y20.3214 
G01 X-33.4049 Y20.1737 
G01 X-33.5341 Y20.0445 
G01 X-33.6818 Y19.9371 
G01 X-33.8446 Y19.8542 
G01 X-34.0183 Y19.7978 
G01 X-34.1987 Y19.7692 
G01 X-34.3813 Y19.7692 
G01 X-34.5617 Y19.7978 
G01 X-34.7354 Y19.8542 
G01 X-34.8982 Y19.9371 
G01 X-35.0459 Y20.0445 
G01 X-35.1751 Y20.1737 
G01 X-35.2825 Y20.3214 
G01 X-35.3654 Y20.4842 
G01 X-35.4218 Y20.6579 
G01 X-35.4504 Y20.8383 
G01 X-35.4504 Y22.3417 
G01 X-35.4218 Y22.5221 
G01 X-35.3654 Y22.6958 
G01 X-35.2825 Y22.8586 
G01 X-35.1751 Y23.0063 
G01 X-35.0459 Y23.1355 
G01 X-34.8982 Y23.2429 
G01 X-34.7354 Y23.3258 
G01 X-34.5617 Y23.3822 
G01 X-34.3813 Y23.4108 
G01 X-34.1987 Y23.4108 
G01 X-34.0183 Y23.3822 
G01 X-33.8446 Y23.3258 
G01 X-33.6818 Y23.2429 
G01 X-33.5341 Y23.1355 
G01 X-33.4049 Y23.0063 
G01 X-33.2975 Y22.8586 
G01 X-33.2146 Y22.6958 
G01 X-33.1582 Y22.5221 
G01 X-33.1296 Y22.3417 
G00 Z2.5400  
G00 X-30.5896 Y22.3417 
G01 Z-0.1778 F100   
G01 X-30.5896 Y20.8383 F80    
G01 X-30.6182 Y20.6579 
G01 X-30.6746 Y20.4842 
G01 X-30.7575 Y20.3214 
G01 X-30.8649 Y20.1737 
G01 X-30.9941 Y20.0445 
G01 X-31.1418 Y19.9371 
G01 X-31.3046 Y19.8542 
G01 X-31.4783 Y19.7978 
G01 X-31.6587 Y19.7692 
G01 X-31.8413 Y19.7692 
G01 X-32.0217 Y19.7978 
G01 X-32.1954 Y19.8542 
G01 X-32.3582 Y19.9371 
G01 X-32.5059 Y20.0445 
G01 X-32.6351 Y20.1737 
G01 X-32.7425 Y20.3214 
G01 X-32.8254 Y20.4842 
G01 X-32.8818 Y20.6579 
G01 X-32.9104 Y20.8383 
G01 X-32.9104 Y22.3417 
G01 X-32.8818 Y22.5221 
G01 X-32.8254 Y22.6958 
G01 X-32.7425 Y22.8586 
G01 X-32.6351 Y23.0063 
G01 X-32.5059 Y23.1355 
G01 X-32.3582 Y23.2429 
G01 X-32.1954 Y23.3258 
G01 X-32.0217 Y23.3822 
G01 X-31.8413 Y23.4108 
G01 X-31.6587 Y23.4108 
G01 X-31.4783 Y23.3822 
G01 X-31.3046 Y23.3258 
G01 X-31.1418 Y23.2429 
G01 X-30.9941 Y23.1355 
G01 X-30.8649 Y23.0063 
G01 X-30.7575 Y22.8586 
G01 X-30.6746 Y22.6958 
G01 X-30.6182 Y22.5221 
G01 X-30.5896 Y22.3417 
G00 Z2.5400  
G00 X-28.0496 Y22.3417 
G01 Z-0.1778 F100   
G01 X-28.0496 Y20.8383 F80    
G01 X-28.0782 Y20.6579 
G01 X-28.1346 Y20.4842 
G01 X-28.2175 Y20.3214 
G01 X-28.3249 Y20.1737 
G01 X-28.4541 Y20.0445 
G01 X-28.6018 Y19.9371 
G01 X-28.7646 Y19.8542 
G01 X-28.9383 Y19.7978 
G01 X-29.1187 Y19.7692 
G01 X-29.3013 Y19.7692 
G01 X-29.4817 Y19.7978 
G01 X-29.6554 Y19.8542 
G01 X-29.8182 Y19.9371 
G01 X-29.9659 Y20.0445 
G01 X-30.0951 Y20.1737 
G01 X-30.2025 Y20.3214 
G01 X-30.2854 Y20.4842 
G01 X-30.3418 Y20.6579 
G01 X-30.3704 Y20.8383 
G01 X-30.3704 Y22.3417 
G01 X-30.3418 Y22.5221 
G01 X-30.2854 Y22.6958 
G01 X-30.2025 Y22.8586 
G01 X-30.0951 Y23.0063 
G01 X-29.9659 Y23.1355 
G01 X-29.8182 Y23.2429 
G01 X-29.6554 Y23.3258 
G01 X-29.4817 Y23.3822 
G01 X-29.3013 Y23.4108 
G01 X-29.1187 Y23.4108 
G01 X-28.9383 Y23.3822 
G01 X-28.7646 Y23.3258 
G01 X-28.6018 Y23.2429 
G01 X-28.4541 Y23.1355 
G01 X-28.3249 Y23.0063 
G01 X-28.2175 Y22.8586 
G01 X-28.1346 Y22.6958 
G01 X-28.0782 Y22.5221 
G01 X-28.0496 Y22.3417 
G00 Z2.5400  
G00 X-20.4296 Y20.8383 
G01 Z-0.1778 F100   
G01 X-20.4582 Y20.6579 F80    
G01 X-20.5146 Y20.4842 
G01 X-20.5975 Y20.3214 
G01 X-20.7049 Y20.1737 
G01 X-20.8341 Y20.0445 
G01 X-20.9818 Y19.9371 
G01 X-21.1446 Y19.8542 
G01 X-21.3183 Y19.7978 
G01 X-21.4987 Y19.7692 
G01 X-21.6813 Y19.7692 
G01 X-21.8617 Y19.7978 
G01 X-22.0354 Y19.8542 
G01 X-22.1982 Y19.9371 
G01 X-22.3459 Y20.0445 
G01 X-22.4751 Y20.1737 
G01 X-22.5825 Y20.3214 
G01 X-22.6654 Y20.4842 
G01 X-22.7218 Y20.6579 
G01 X-22.7504 Y20.8383 
G01 X-22.7504 Y21.2418 
G01 X-22.7714 Y21.3064 
G01 X-22.8012 Y21.4947 
G01 X-22.8012 Y31.8453 
G01 X-22.7714 Y32.0336 
G01 X-22.7125 Y32.2149 
G01 X-22.6259 Y32.3848 
G01 X-22.5139 Y32.5390 
G01 X-22.3790 Y32.6739 
G01 X-22.2248 Y32.7859 
G01 X-22.0549 Y32.8725 
G01 X-21.8736 Y32.9314 
G01 X-21.6853 Y32.9612 
G01 X-7.5247 Y32.9612 
G01 X-7.3364 Y32.9314 
G01 X-7.1551 Y32.8725 
G01 X-6.9852 Y32.7859 
G01 X-6.8310 Y32.6739 
G01 X-6.6961 Y32.5390 
G01 X-6.5841 Y32.3848 
G01 X-6.4975 Y32.2149 
G01 X-6.4386 Y32.0336 
G01 X-6.4088 Y31.8453 
G01 X-6.4088 Y19.0720 
G01 X-6.2864 Y18.9495 
G01 X-6.1451 Y18.7655 
G01 X-6.0291 Y18.5645 
G01 X-5.9403 Y18.3502 
G01 X-5.8803 Y18.1260 
G01 X-5.8500 Y17.8960 
G01 X-5.8500 Y17.6640 
G01 X-5.8803 Y17.4339 
G01 X-5.9403 Y17.2098 
G01 X-6.0291 Y16.9955 
G01 X-6.1451 Y16.7945 
G01 X-6.2864 Y16.6105 
G01 X-6.4505 Y16.4464 
G01 X-6.6345 Y16.3051 
G01 X-6.8355 Y16.1891 
G01 X-7.0498 Y16.1003 
G01 X-7.2739 Y16.0403 
G01 X-7.5040 Y16.0100 
G01 X-7.7360 Y16.0100 
G01 X-7.9661 Y16.0403 
G01 X-8.1902 Y16.1003 
G01 X-8.4045 Y16.1891 
G01 X-8.6055 Y16.3051 
G01 X-8.7895 Y16.4464 
G01 X-8.9536 Y16.6105 
G01 X-9.0949 Y16.7945 
G01 X-9.2109 Y16.9955 
G01 X-9.2997 Y17.2098 
G01 X-9.3597 Y17.4339 
G01 X-9.3900 Y17.6640 
G01 X-9.3900 Y17.8960 
G01 X-9.3597 Y18.1260 
G01 X-9.2997 Y18.3502 
G01 X-9.2109 Y18.5645 
G01 X-9.0949 Y18.7655 
G01 X-8.9536 Y18.9495 
G01 X-8.8312 Y19.0720 
G01 X-8.8312 Y30.5388 
G01 X-20.3788 Y30.5388 
G01 X-20.3788 Y21.4947 
G01 X-20.4086 Y21.3064 
G01 X-20.4296 Y21.2418 
G01 X-20.4296 Y20.8383 
G00 Z2.5400  
G00 X-6.9668 Y6.1310  
G01 Z-0.1778 F100   
G01 X-7.0618 Y6.2260  F80    
G01 X-7.1703 Y6.2813  
G01 X-7.3697 Y6.4261  
G01 X-7.5439 Y6.6003  
G01 X-7.6200 Y6.7051  
G01 X-7.6961 Y6.6003  
G01 X-7.8703 Y6.4261  
G01 X-8.0697 Y6.2813  
G01 X-8.1782 Y6.2260  
G01 X-8.2732 Y6.1310  
G01 X-8.4076 Y6.1310  
G01 X-8.5235 Y6.0933  
G01 X-8.7668 Y6.0548  
G01 X-9.0132 Y6.0548  
G01 X-9.2565 Y6.0933  
G01 X-9.3724 Y6.1310  
G01 X-9.5068 Y6.1310  
G01 X-9.6018 Y6.2260  
G01 X-9.7103 Y6.2813  
G01 X-9.9097 Y6.4261  
G01 X-10.0839 Y6.6003  
G01 X-10.1933 Y6.7510  
G01 X-10.8132 Y6.1310  
G01 X-12.0468 Y6.1310  
G01 X-12.6667 Y6.7510  
G01 X-12.7761 Y6.6003  
G01 X-12.9503 Y6.4261  
G01 X-13.1497 Y6.2813  
G01 X-13.2582 Y6.2260  
G01 X-13.3532 Y6.1310  
G01 X-13.4876 Y6.1310  
G01 X-13.6035 Y6.0933  
G01 X-13.8468 Y6.0548  
G01 X-14.0932 Y6.0548  
G01 X-14.3365 Y6.0933  
G01 X-14.4524 Y6.1310  
G01 X-14.5868 Y6.1310  
G01 X-14.6818 Y6.2260  
G01 X-14.7903 Y6.2813  
G01 X-14.9897 Y6.4261  
G01 X-15.1639 Y6.6003  
G01 X-15.2400 Y6.7051  
G01 X-15.3161 Y6.6003  
G01 X-15.4903 Y6.4261  
G01 X-15.6897 Y6.2813  
G01 X-15.7982 Y6.2260  
G01 X-15.8932 Y6.1310  
G01 X-16.0276 Y6.1310  
G01 X-16.1435 Y6.0933  
G01 X-16.3868 Y6.0548  
G01 X-16.6332 Y6.0548  
G01 X-16.8765 Y6.0933  
G01 X-16.9924 Y6.1310  
G01 X-17.1268 Y6.1310  
G01 X-17.2218 Y6.2260  
G01 X-17.3303 Y6.2813  
G01 X-17.5297 Y6.4261  
G01 X-17.7039 Y6.6003  
G01 X-17.7800 Y6.7051  
G01 X-17.8561 Y6.6003  
G01 X-18.0303 Y6.4261  
G01 X-18.2297 Y6.2813  
G01 X-18.3382 Y6.2260  
G01 X-18.4332 Y6.1310  
G01 X-18.5676 Y6.1310  
G01 X-18.6835 Y6.0933  
G01 X-18.9268 Y6.0548  
G01 X-19.1732 Y6.0548  
G01 X-19.4165 Y6.0933  
G01 X-19.5324 Y6.1310  
G01 X-19.6668 Y6.1310  
G01 X-19.7618 Y6.2260  
G01 X-19.8703 Y6.2813  
G01 X-20.0697 Y6.4261  
G01 X-20.2439 Y6.6003  
G01 X-20.3200 Y6.7051  
G01 X-20.3961 Y6.6003  
G01 X-20.5703 Y6.4261  
G01 X-20.7697 Y6.2813  
G01 X-20.8782 Y6.2260  
G01 X-20.9732 Y6.1310  
G01 X-21.1076 Y6.1310  
G01 X-21.2235 Y6.0933  
G01 X-21.4668 Y6.0548  
G01 X-21.7132 Y6.0548  
G01 X-21.9565 Y6.0933  
G01 X-22.0724 Y6.1310  
G01 X-22.2068 Y6.1310  
G01 X-22.3018 Y6.2260  
G01 X-22.4103 Y6.2813  
G01 X-22.6097 Y6.4261  
G01 X-22.7839 Y6.6003  
G01 X-22.8600 Y6.7051  
G01 X-22.9361 Y6.6003  
G01 X-23.1103 Y6.4261  
G01 X-23.3097 Y6.2813  
G01 X-23.4182 Y6.2260  
G01 X-23.5132 Y6.1310  
G01 X-23.6476 Y6.1310  
G01 X-23.7635 Y6.0933  
G01 X-24.0068 Y6.0548  
G01 X-24.2532 Y6.0548  
G01 X-24.4965 Y6.0933  
G01 X-24.6124 Y6.1310  
G01 X-24.7468 Y6.1310  
G01 X-24.8418 Y6.2260  
G01 X-24.9503 Y6.2813  
G01 X-25.1497 Y6.4261  
G01 X-25.3239 Y6.6003  
G01 X-25.4000 Y6.7051  
G01 X-25.4761 Y6.6003  
G01 X-25.6503 Y6.4261  
G01 X-25.8497 Y6.2813  
G01 X-25.9582 Y6.2260  
G01 X-26.0532 Y6.1310  
G01 X-26.1876 Y6.1310  
G01 X-26.3035 Y6.0933  
G01 X-26.3748 Y6.0820  
G01 X-26.3748 Y4.1052  
G01 X-4.1052 Y4.1052  
G01 X-4.1052 Y6.0548  
G01 X-6.4732 Y6.0548  
G01 X-6.7165 Y6.0933  
G01 X-6.8324 Y6.1310  
G01 X-6.9668 Y6.1310  
G00 Z2.5400  
G00 X-17.6781 Y15.1142 
G01 Z-0.1778 F100   
G01 X-17.5880 Y15.2910 F80    
G01 X-17.4714 Y15.4515 
G01 X-17.3311 Y15.5918 
G01 X-17.1706 Y15.7084 
G01 X-16.9938 Y15.7985 
G01 X-16.8051 Y15.8598 
G01 X-16.6092 Y15.8908 
G01 X-16.4108 Y15.8908 
G01 X-16.2149 Y15.8598 
G01 X-16.0262 Y15.7985 
G01 X-15.8494 Y15.7084 
G01 X-15.6889 Y15.5918 
G01 X-15.5486 Y15.4515 
G01 X-15.5352 Y15.4330 
G01 X-15.5352 Y17.9032 
G01 X-15.4967 Y18.1465 
G01 X-15.4205 Y18.3808 
G01 X-15.3087 Y18.6003 
G01 X-15.1639 Y18.7997 
G01 X-14.9897 Y18.9739 
G01 X-14.7903 Y19.1187 
G01 X-14.5708 Y19.2305 
G01 X-14.3365 Y19.3067 
G01 X-14.0932 Y19.3452 
G01 X-13.8468 Y19.3452 
G01 X-13.6035 Y19.3067 
G01 X-13.3692 Y19.2305 
G01 X-13.1497 Y19.1187 
G01 X-12.9503 Y18.9739 
G01 X-12.7761 Y18.7997 
G01 X-12.7412 Y18.7516 
G01 X-12.7412 Y26.6288 
G01 X-17.7388 Y26.6288 
G01 X-17.7388 Y25.1016 
G01 X-17.7039 Y25.1497 
G01 X-17.5297 Y25.3239 
G01 X-17.3303 Y25.4687 
G01 X-17.1108 Y25.5805 
G01 X-16.8765 Y25.6567 
G01 X-16.6332 Y25.6952 
G01 X-16.3868 Y25.6952 
G01 X-16.1435 Y25.6567 
G01 X-15.9092 Y25.5805 
G01 X-15.6897 Y25.4687 
G01 X-15.4903 Y25.3239 
G01 X-15.3161 Y25.1497 
G01 X-15.1713 Y24.9503 
G01 X-15.0595 Y24.7308 
G01 X-14.9833 Y24.4965 
G01 X-14.9448 Y24.2532 
G01 X-14.9448 Y21.4668 
G01 X-14.9833 Y21.2235 
G01 X-15.0595 Y20.9892 
G01 X-15.1713 Y20.7697 
G01 X-15.2896 Y20.6069 
G01 X-15.3419 Y20.4458 
G01 X-15.4320 Y20.2690 
G01 X-15.5486 Y20.1085 
G01 X-15.6889 Y19.9682 
G01 X-15.8494 Y19.8516 
G01 X-16.0262 Y19.7615 
G01 X-16.2149 Y19.7002 
G01 X-16.4108 Y19.6692 
G01 X-16.6092 Y19.6692 
G01 X-16.8051 Y19.7002 
G01 X-16.9938 Y19.7615 
G01 X-17.1706 Y19.8516 
G01 X-17.3311 Y19.9682 
G01 X-17.4714 Y20.1085 
G01 X-17.5880 Y20.2690 
G01 X-17.6781 Y20.4458 
G01 X-17.7304 Y20.6069 
G01 X-17.8081 Y20.7138 
G01 X-17.8206 Y20.6345 
G01 X-17.8819 Y20.4458 
G01 X-17.9720 Y20.2690 
G01 X-18.0886 Y20.1085 
G01 X-18.2289 Y19.9682 
G01 X-18.3894 Y19.8516 
G01 X-18.5662 Y19.7615 
G01 X-18.7549 Y19.7002 
G01 X-18.9508 Y19.6692 
G01 X-19.1492 Y19.6692 
G01 X-19.3451 Y19.7002 
G01 X-19.5338 Y19.7615 
G01 X-19.7106 Y19.8516 
G01 X-19.8711 Y19.9682 
G01 X-20.0114 Y20.1085 
G01 X-20.1280 Y20.2690 
G01 X-20.2181 Y20.4458 
G01 X-20.2794 Y20.6345 
G01 X-20.3104 Y20.8304 
G01 X-20.3104 Y21.2260 
G01 X-20.3200 Y21.2555 
G01 X-20.3296 Y21.2260 
G01 X-20.3296 Y20.8304 
G01 X-20.3606 Y20.6345 
G01 X-20.4219 Y20.4458 
G01 X-20.5120 Y20.2690 
G01 X-20.6286 Y20.1085 
G01 X-20.7689 Y19.9682 
G01 X-20.9294 Y19.8516 
G01 X-21.1062 Y19.7615 
G01 X-21.2949 Y19.7002 
G01 X-21.4908 Y19.6692 
G01 X-21.6892 Y19.6692 
G01 X-21.8851 Y19.7002 
G01 X-22.0738 Y19.7615 
G01 X-22.2506 Y19.8516 
G01 X-22.4111 Y19.9682 
G01 X-22.5514 Y20.1085 
G01 X-22.6680 Y20.2690 
G01 X-22.7581 Y20.4458 
G01 X-22.8194 Y20.6345 
G01 X-22.8504 Y20.8304 
G01 X-22.8504 Y21.2260 
G01 X-22.8600 Y21.2555 
G01 X-22.8696 Y21.2260 
G01 X-22.8696 Y20.8304 
G01 X-22.9006 Y20.6345 
G01 X-22.9619 Y20.4458 
G01 X-23.0520 Y20.2690 
G01 X-23.1686 Y20.1085 
G01 X-23.3089 Y19.9682 
G01 X-23.4694 Y19.8516 
G01 X-23.6462 Y19.7615 
G01 X-23.8349 Y19.7002 
G01 X-24.0308 Y19.6692 
G01 X-24.2292 Y19.6692 
G01 X-24.4251 Y19.7002 
G01 X-24.6138 Y19.7615 
G01 X-24.7906 Y19.8516 
G01 X-24.9511 Y19.9682 
G01 X-25.0914 Y20.1085 
G01 X-25.2080 Y20.2690 
G01 X-25.2981 Y20.4458 
G01 X-25.3594 Y20.6345 
G01 X-25.3904 Y20.8304 
G01 X-25.3904 Y21.2260 
G01 X-25.4000 Y21.2555 
G01 X-25.4096 Y21.2260 
G01 X-25.4096 Y20.8304 
G01 X-25.4406 Y20.6345 
G01 X-25.5019 Y20.4458 
G01 X-25.5920 Y20.2690 
G01 X-25.7086 Y20.1085 
G01 X-25.8489 Y19.9682 
G01 X-26.0094 Y19.8516 
G01 X-26.1862 Y19.7615 
G01 X-26.3749 Y19.7002 
G01 X-26.5708 Y19.6692 
G01 X-26.7692 Y19.6692 
G01 X-26.9651 Y19.7002 
G01 X-27.1538 Y19.7615 
G01 X-27.3306 Y19.8516 
G01 X-27.4911 Y19.9682 
G01 X-27.6314 Y20.1085 
G01 X-27.7480 Y20.2690 
G01 X-27.8381 Y20.4458 
G01 X-27.8994 Y20.6345 
G01 X-27.9304 Y20.8304 
G01 X-27.9304 Y21.2260 
G01 X-27.9489 Y21.2830 
G01 X-27.9496 Y21.2873 
G01 X-27.9496 Y20.8304 
G01 X-27.9806 Y20.6345 
G01 X-28.0419 Y20.4458 
G01 X-28.1320 Y20.2690 
G01 X-28.2486 Y20.1085 
G01 X-28.3889 Y19.9682 
G01 X-28.5494 Y19.8516 
G01 X-28.7262 Y19.7615 
G01 X-28.9149 Y19.7002 
G01 X-29.1108 Y19.6692 
G01 X-29.3092 Y19.6692 
G01 X-29.5051 Y19.7002 
G01 X-29.6938 Y19.7615 
G01 X-29.8706 Y19.8516 
G01 X-30.0311 Y19.9682 
G01 X-30.1714 Y20.1085 
G01 X-30.2880 Y20.2690 
G01 X-30.3781 Y20.4458 
G01 X-30.4394 Y20.6345 
G01 X-30.4704 Y20.8304 
G01 X-30.4704 Y22.3496 
G01 X-30.4394 Y22.5455 
G01 X-30.3781 Y22.7342 
G01 X-30.2880 Y22.9110 
G01 X-30.1714 Y23.0715 
G01 X-30.0311 Y23.2118 
G01 X-29.8706 Y23.3284 
G01 X-29.6938 Y23.4185 
G01 X-29.5051 Y23.4798 
G01 X-29.3092 Y23.5108 
G01 X-29.1108 Y23.5108 
G01 X-28.9149 Y23.4798 
G01 X-28.7262 Y23.4185 
G01 X-28.5494 Y23.3284 
G01 X-28.3889 Y23.2118 
G01 X-28.2486 Y23.0715 
G01 X-28.1320 Y22.9110 
G01 X-28.0419 Y22.7342 
G01 X-27.9812 Y22.5473 
G01 X-27.9812 Y24.0888 
G01 X-35.5188 Y24.0888 
G01 X-35.5188 Y22.5473 
G01 X-35.4581 Y22.7342 
G01 X-35.3680 Y22.9110 
G01 X-35.2514 Y23.0715 
G01 X-35.1111 Y23.2118 
G01 X-34.9506 Y23.3284 
G01 X-34.7738 Y23.4185 
G01 X-34.5851 Y23.4798 
G01 X-34.3892 Y23.5108 
G01 X-34.1908 Y23.5108 
G01 X-33.9949 Y23.4798 
G01 X-33.8062 Y23.4185 
G01 X-33.6294 Y23.3284 
G01 X-33.4689 Y23.2118 
G01 X-33.3286 Y23.0715 
G01 X-33.2120 Y22.9110 
G01 X-33.1219 Y22.7342 
G01 X-33.0606 Y22.5455 
G01 X-33.0296 Y22.3496 
G01 X-33.0296 Y20.8304 
G01 X-33.0606 Y20.6345 
G01 X-33.1219 Y20.4458 
G01 X-33.2120 Y20.2690 
G01 X-33.3286 Y20.1085 
G01 X-33.4689 Y19.9682 
G01 X-33.6294 Y19.8516 
G01 X-33.8062 Y19.7615 
G01 X-33.9949 Y19.7002 
G01 X-34.1908 Y19.6692 
G01 X-34.3892 Y19.6692 
G01 X-34.5851 Y19.7002 
G01 X-34.7738 Y19.7615 
G01 X-34.9506 Y19.8516 
G01 X-35.1111 Y19.9682 
G01 X-35.2514 Y20.1085 
G01 X-35.3680 Y20.2690 
G01 X-35.4581 Y20.4458 
G01 X-35.5188 Y20.6327 
G01 X-35.5188 Y15.2812 
G01 X-35.3730 Y15.2812 
G01 X-35.3680 Y15.2910 
G01 X-35.2514 Y15.4515 
G01 X-35.1111 Y15.5918 
G01 X-34.9506 Y15.7084 
G01 X-34.7738 Y15.7985 
G01 X-34.5851 Y15.8598 
G01 X-34.3892 Y15.8908 
G01 X-34.1908 Y15.8908 
G01 X-33.9949 Y15.8598 
G01 X-33.8062 Y15.7985 
G01 X-33.6294 Y15.7084 
G01 X-33.4689 Y15.5918 
G01 X-33.3286 Y15.4515 
G01 X-33.2120 Y15.2910 
G01 X-33.1219 Y15.1142 
G01 X-33.0696 Y14.9531 
G01 X-32.9919 Y14.8462 
G01 X-32.9794 Y14.9255 
G01 X-32.9181 Y15.1142 
G01 X-32.8280 Y15.2910 
G01 X-32.7114 Y15.4515 
G01 X-32.5711 Y15.5918 
G01 X-32.4106 Y15.7084 
G01 X-32.2338 Y15.7985 
G01 X-32.0451 Y15.8598 
G01 X-31.8492 Y15.8908 
G01 X-31.6508 Y15.8908 
G01 X-31.4549 Y15.8598 
G01 X-31.2662 Y15.7985 
G01 X-31.0894 Y15.7084 
G01 X-30.9289 Y15.5918 
G01 X-30.7886 Y15.4515 
G01 X-30.6720 Y15.2910 
G01 X-30.5819 Y15.1142 
G01 X-30.5206 Y14.9255 
G01 X-30.4896 Y14.7296 
G01 X-30.4896 Y13.2104 
G01 X-30.5206 Y13.0145 
G01 X-30.5819 Y12.8258 
G01 X-30.6720 Y12.6490 
G01 X-30.7886 Y12.4885 
G01 X-30.9289 Y12.3482 
G01 X-31.0894 Y12.2316 
G01 X-31.2662 Y12.1415 
G01 X-31.4549 Y12.0802 
G01 X-31.6508 Y12.0492 
G01 X-31.8492 Y12.0492 
G01 X-32.0451 Y12.0802 
G01 X-32.2338 Y12.1415 
G01 X-32.4106 Y12.2316 
G01 X-32.5711 Y12.3482 
G01 X-32.7114 Y12.4885 
G01 X-32.7248 Y12.5070 
G01 X-32.7248 Y9.1852  
G01 X-26.5468 Y9.1852  
G01 X-26.3035 Y9.1467  
G01 X-26.1876 Y9.1090  
G01 X-26.0532 Y9.1090  
G01 X-25.9582 Y9.0140  
G01 X-25.8497 Y8.9587  
G01 X-25.6952 Y8.8465  
G01 X-25.6952 Y12.5070 
G01 X-25.7086 Y12.4885 
G01 X-25.8489 Y12.3482 
G01 X-26.0094 Y12.2316 
G01 X-26.1862 Y12.1415 
G01 X-26.3749 Y12.0802 
G01 X-26.5708 Y12.0492 
G01 X-26.7692 Y12.0492 
G01 X-26.9651 Y12.0802 
G01 X-27.1538 Y12.1415 
G01 X-27.3306 Y12.2316 
G01 X-27.4911 Y12.3482 
G01 X-27.6314 Y12.4885 
G01 X-27.7480 Y12.6490 
G01 X-27.8381 Y12.8258 
G01 X-27.8994 Y13.0145 
G01 X-27.9304 Y13.2104 
G01 X-27.9304 Y14.7296 
G01 X-27.8994 Y14.9255 
G01 X-27.8381 Y15.1142 
G01 X-27.7480 Y15.2910 
G01 X-27.6314 Y15.4515 
G01 X-27.4911 Y15.5918 
G01 X-27.3306 Y15.7084 
G01 X-27.1538 Y15.7985 
G01 X-26.9651 Y15.8598 
G01 X-26.7692 Y15.8908 
G01 X-26.5708 Y15.8908 
G01 X-26.3749 Y15.8598 
G01 X-26.1862 Y15.7985 
G01 X-26.0094 Y15.7084 
G01 X-25.8489 Y15.5918 
G01 X-25.7086 Y15.4515 
G01 X-25.5920 Y15.2910 
G01 X-25.5019 Y15.1142 
G01 X-25.4406 Y14.9255 
G01 X-25.4281 Y14.8462 
G01 X-25.3504 Y14.9531 
G01 X-25.2981 Y15.1142 
G01 X-25.2080 Y15.2910 
G01 X-25.0914 Y15.4515 
G01 X-24.9511 Y15.5918 
G01 X-24.7906 Y15.7084 
G01 X-24.6138 Y15.7985 
G01 X-24.4251 Y15.8598 
G01 X-24.2292 Y15.8908 
G01 X-24.0308 Y15.8908 
G01 X-23.8349 Y15.8598 
G01 X-23.6462 Y15.7985 
G01 X-23.4694 Y15.7084 
G01 X-23.3089 Y15.5918 
G01 X-23.1686 Y15.4515 
G01 X-23.0520 Y15.2910 
G01 X-22.9619 Y15.1142 
G01 X-22.9096 Y14.9531 
G01 X-22.8600 Y14.8849 
G01 X-22.8104 Y14.9531 
G01 X-22.7581 Y15.1142 
G01 X-22.6680 Y15.2910 
G01 X-22.5514 Y15.4515 
G01 X-22.4111 Y15.5918 
G01 X-22.2506 Y15.7084 
G01 X-22.0738 Y15.7985 
G01 X-21.8851 Y15.8598 
G01 X-21.6892 Y15.8908 
G01 X-21.4908 Y15.8908 
G01 X-21.2949 Y15.8598 
G01 X-21.1062 Y15.7985 
G01 X-20.9294 Y15.7084 
G01 X-20.7689 Y15.5918 
G01 X-20.6286 Y15.4515 
G01 X-20.5120 Y15.2910 
G01 X-20.4219 Y15.1142 
G01 X-20.3696 Y14.9531 
G01 X-20.3200 Y14.8849 
G01 X-20.2704 Y14.9531 
G01 X-20.2181 Y15.1142 
G01 X-20.1280 Y15.2910 
G01 X-20.0114 Y15.4515 
G01 X-19.8711 Y15.5918 
G01 X-19.7106 Y15.7084 
G01 X-19.5338 Y15.7985 
G01 X-19.3451 Y15.8598 
G01 X-19.1492 Y15.8908 
G01 X-18.9508 Y15.8908 
G01 X-18.7549 Y15.8598 
G01 X-18.5662 Y15.7985 
G01 X-18.3894 Y15.7084 
G01 X-18.2289 Y15.5918 
G01 X-18.0886 Y15.4515 
G01 X-17.9720 Y15.2910 
G01 X-17.8819 Y15.1142 
G01 X-17.8296 Y14.9531 
G01 X-17.7800 Y14.8849 
G01 X-17.7304 Y14.9531 
G01 X-17.6781 Y15.1142 
G00 Z2.5400  
G00 X-27.9496 Y14.7296 
G01 Z-0.1778 F100   
G01 X-27.9496 Y13.2104 F80    
G01 X-27.9806 Y13.0145 
G01 X-28.0419 Y12.8258 
G01 X-28.1320 Y12.6490 
G01 X-28.2486 Y12.4885 
G01 X-28.3889 Y12.3482 
G01 X-28.5494 Y12.2316 
G01 X-28.7262 Y12.1415 
G01 X-28.9149 Y12.0802 
G01 X-29.1108 Y12.0492 
G01 X-29.3092 Y12.0492 
G01 X-29.5051 Y12.0802 
G01 X-29.6938 Y12.1415 
G01 X-29.8706 Y12.2316 
G01 X-30.0311 Y12.3482 
G01 X-30.1714 Y12.4885 
G01 X-30.2880 Y12.6490 
G01 X-30.3781 Y12.8258 
G01 X-30.4394 Y13.0145 
G01 X-30.4704 Y13.2104 
G01 X-30.4704 Y14.7296 
G01 X-30.4394 Y14.9255 
G01 X-30.3781 Y15.1142 
G01 X-30.2880 Y15.2910 
G01 X-30.1714 Y15.4515 
G01 X-30.0311 Y15.5918 
G01 X-29.8706 Y15.7084 
G01 X-29.6938 Y15.7985 
G01 X-29.5051 Y15.8598 
G01 X-29.3092 Y15.8908 
G01 X-29.1108 Y15.8908 
G01 X-28.9149 Y15.8598 
G01 X-28.7262 Y15.7985 
G01 X-28.5494 Y15.7084 
G01 X-28.3889 Y15.5918 
G01 X-28.2486 Y15.4515 
G01 X-28.1320 Y15.2910 
G01 X-28.0419 Y15.1142 
G01 X-27.9806 Y14.9255 
G01 X-27.9496 Y14.7296 
G00 Z2.5400  
G00 X-30.4896 Y22.3496 
G01 Z-0.1778 F100   
G01 X-30.4896 Y20.8304 F80    
G01 X-30.5206 Y20.6345 
G01 X-30.5819 Y20.4458 
G01 X-30.6720 Y20.2690 
G01 X-30.7886 Y20.1085 
G01 X-30.9289 Y19.9682 
G01 X-31.0894 Y19.8516 
G01 X-31.2662 Y19.7615 
G01 X-31.4549 Y19.7002 
G01 X-31.6508 Y19.6692 
G01 X-31.8492 Y19.6692 
G01 X-32.0451 Y19.7002 
G01 X-32.2338 Y19.7615 
G01 X-32.4106 Y19.8516 
G01 X-32.5711 Y19.9682 
G01 X-32.7114 Y20.1085 
G01 X-32.8280 Y20.2690 
G01 X-32.9181 Y20.4458 
G01 X-32.9794 Y20.6345 
G01 X-33.0104 Y20.8304 
G01 X-33.0104 Y22.3496 
G01 X-32.9794 Y22.5455 
G01 X-32.9181 Y22.7342 
G01 X-32.8280 Y22.9110 
G01 X-32.7114 Y23.0715 
G01 X-32.5711 Y23.2118 
G01 X-32.4106 Y23.3284 
G01 X-32.2338 Y23.4185 
G01 X-32.0451 Y23.4798 
G01 X-31.8492 Y23.5108 
G01 X-31.6508 Y23.5108 
G01 X-31.4549 Y23.4798 
G01 X-31.2662 Y23.4185 
G01 X-31.0894 Y23.3284 
G01 X-30.9289 Y23.2118 
G01 X-30.7886 Y23.0715 
G01 X-30.6720 Y22.9110 
G01 X-30.5819 Y22.7342 
G01 X-30.5206 Y22.5455 
G01 X-30.4896 Y22.3496 
G00 Z2.5400  
G00 X-10.0839 Y13.7197 
G01 Z-0.1778 F100   
G01 X-9.9097 Y13.8939 F80    
G01 X-9.7103 Y14.0387 
G01 X-9.4908 Y14.1505 
G01 X-9.2565 Y14.2267 
G01 X-9.0132 Y14.2652 
G01 X-4.1052 Y14.2652 
G01 X-4.1052 Y23.1010 
G01 X-4.2207 Y23.3011 
G01 X-4.3146 Y23.5276 
G01 X-4.3780 Y23.7644 
G01 X-4.4100 Y24.0074 
G01 X-4.4100 Y24.2526 
G01 X-4.3780 Y24.4956 
G01 X-4.3146 Y24.7324 
G01 X-4.2207 Y24.9589 
G01 X-4.0982 Y25.1711 
G01 X-3.9490 Y25.3656 
G01 X-3.7756 Y25.5390 
G01 X-3.5811 Y25.6882 
G01 X-3.3689 Y25.8107 
G01 X-3.1424 Y25.9046 
G01 X-2.9056 Y25.9680 
G01 X-2.6626 Y26.0000 
G01 X-2.4174 Y26.0000 
G01 X-2.1744 Y25.9680 
G01 X-1.9376 Y25.9046 
G01 X-1.7111 Y25.8107 
G01 X-1.4989 Y25.6882 
G01 X-1.3044 Y25.5390 
G01 X-1.1310 Y25.3656 
G01 X-0.9818 Y25.1711 
G01 X-0.8593 Y24.9589 
G01 X-0.7654 Y24.7324 
G01 X-0.7020 Y24.4956 
G01 X-0.6700 Y24.2526 
G01 X-0.6700 Y24.0074 
G01 X-0.7020 Y23.7644 
G01 X-0.7654 Y23.5276 
G01 X-0.8593 Y23.3011 
G01 X-0.9748 Y23.1010 
G01 X-0.9748 Y12.5768 
G01 X-1.0133 Y12.3335 
G01 X-1.0895 Y12.0992 
G01 X-1.2013 Y11.8797 
G01 X-1.3461 Y11.6803 
G01 X-1.5203 Y11.5061 
G01 X-1.7197 Y11.3613 
G01 X-1.9392 Y11.2495 
G01 X-2.1735 Y11.1733 
G01 X-2.4168 Y11.1348 
G01 X-7.3248 Y11.1348 
G01 X-7.3248 Y8.8465  
G01 X-7.1703 Y8.9587  
G01 X-7.0618 Y9.0140  
G01 X-6.9668 Y9.1090  
G01 X-6.8324 Y9.1090  
G01 X-6.7165 Y9.1467  
G01 X-6.4732 Y9.1852  
G01 X-2.4168 Y9.1852  
G01 X-2.1735 Y9.1467  
G01 X-1.9392 Y9.0705  
G01 X-1.7197 Y8.9587  
G01 X-1.5203 Y8.8139  
G01 X-1.3461 Y8.6397  
G01 X-1.2013 Y8.4403  
G01 X-1.0895 Y8.2208  
G01 X-1.0133 Y7.9865  
G01 X-0.9748 Y7.7432  
G01 X-0.9748 Y2.4168  
G01 X-1.0133 Y2.1735  
G01 X-1.0895 Y1.9392  
G01 X-1.2013 Y1.7197  
G01 X-1.3461 Y1.5203  
G01 X-1.5203 Y1.3461  
G01 X-1.7197 Y1.2013  
G01 X-1.9392 Y1.0895  
G01 X-2.1735 Y1.0133  
G01 X-2.4168 Y0.9748  
G01 X-28.0632 Y0.9748  
G01 X-28.3065 Y1.0133  
G01 X-28.5408 Y1.0895  
G01 X-28.7603 Y1.2013  
G01 X-28.9597 Y1.3461  
G01 X-29.1339 Y1.5203  
G01 X-29.2787 Y1.7197  
G01 X-29.3905 Y1.9392  
G01 X-29.4667 Y2.1735  
G01 X-29.5052 Y2.4168  
G01 X-29.5052 Y6.0548  
G01 X-34.4132 Y6.0548  
G01 X-34.6565 Y6.0933  
G01 X-34.8908 Y6.1695  
G01 X-35.1103 Y6.2813  
G01 X-35.3097 Y6.4261  
G01 X-35.4839 Y6.6003  
G01 X-35.6287 Y6.7997  
G01 X-35.7405 Y7.0192  
G01 X-35.8167 Y7.2535  
G01 X-35.8552 Y7.4968  
G01 X-35.8552 Y12.6588 
G01 X-36.9332 Y12.6588 
G01 X-37.1370 Y12.6911 
G01 X-37.3333 Y12.7549 
G01 X-37.5172 Y12.8486 
G01 X-37.6842 Y12.9699 
G01 X-37.8301 Y13.1158 
G01 X-37.9514 Y13.2828 
G01 X-38.0451 Y13.4667 
G01 X-38.1089 Y13.6630 
G01 X-38.1412 Y13.8668 
G01 X-38.1412 Y25.5032 
G01 X-38.1089 Y25.7070 
G01 X-38.0451 Y25.9033 
G01 X-37.9514 Y26.0872 
G01 X-37.8301 Y26.2542 
G01 X-37.6842 Y26.4001 
G01 X-37.5172 Y26.5214 
G01 X-37.3333 Y26.6151 
G01 X-37.1370 Y26.6789 
G01 X-36.9332 Y26.7112 
G01 X-24.0268 Y26.7112 
G01 X-23.8230 Y26.6789 
G01 X-23.6267 Y26.6151 
G01 X-23.4428 Y26.5214 
G01 X-23.2758 Y26.4001 
G01 X-23.1299 Y26.2542 
G01 X-23.0086 Y26.0872 
G01 X-22.9149 Y25.9033 
G01 X-22.9012 Y25.8613 
G01 X-22.9012 Y31.8532 
G01 X-22.8689 Y32.0570 
G01 X-22.8051 Y32.2533 
G01 X-22.7114 Y32.4372 
G01 X-22.5901 Y32.6042 
G01 X-22.4442 Y32.7501 
G01 X-22.2772 Y32.8714 
G01 X-22.0933 Y32.9651 
G01 X-21.8970 Y33.0289 
G01 X-21.6932 Y33.0612 
G01 X-7.5168 Y33.0612 
G01 X-7.3130 Y33.0289 
G01 X-7.1167 Y32.9651 
G01 X-6.9328 Y32.8714 
G01 X-6.7658 Y32.7501 
G01 X-6.6199 Y32.6042 
G01 X-6.4986 Y32.4372 
G01 X-6.4049 Y32.2533 
G01 X-6.3411 Y32.0570 
G01 X-6.3088 Y31.8532 
G01 X-6.3088 Y19.1134 
G01 X-6.2110 Y19.0156 
G01 X-6.0618 Y18.8211 
G01 X-5.9393 Y18.6089 
G01 X-5.8454 Y18.3824 
G01 X-5.7820 Y18.1456 
G01 X-5.7500 Y17.9026 
G01 X-5.7500 Y17.6574 
G01 X-5.7820 Y17.4144 
G01 X-5.8454 Y17.1776 
G01 X-5.9393 Y16.9511 
G01 X-6.0618 Y16.7389 
G01 X-6.2110 Y16.5444 
G01 X-6.3844 Y16.3710 
G01 X-6.5789 Y16.2218 
G01 X-6.7911 Y16.0993 
G01 X-7.0176 Y16.0054 
G01 X-7.2544 Y15.9420 
G01 X-7.4974 Y15.9100 
G01 X-7.7426 Y15.9100 
G01 X-7.9856 Y15.9420 
G01 X-8.2224 Y16.0054 
G01 X-8.4489 Y16.0993 
G01 X-8.6611 Y16.2218 
G01 X-8.8556 Y16.3710 
G01 X-9.0290 Y16.5444 
G01 X-9.1782 Y16.7389 
G01 X-9.3007 Y16.9511 
G01 X-9.3946 Y17.1776 
G01 X-9.4580 Y17.4144 
G01 X-9.4900 Y17.6574 
G01 X-9.4900 Y17.9026 
G01 X-9.4580 Y18.1456 
G01 X-9.3946 Y18.3824 
G01 X-9.3007 Y18.6089 
G01 X-9.1782 Y18.8211 
G01 X-9.0290 Y19.0156 
G01 X-8.9312 Y19.1134 
G01 X-8.9312 Y30.4388 
G01 X-20.2788 Y30.4388 
G01 X-20.2788 Y28.4013 
G01 X-20.2651 Y28.4433 
G01 X-20.1714 Y28.6272 
G01 X-20.0501 Y28.7942 
G01 X-19.9042 Y28.9401 
G01 X-19.7372 Y29.0614 
G01 X-19.5533 Y29.1551 
G01 X-19.3570 Y29.2189 
G01 X-19.1532 Y29.2512 
G01 X-11.3268 Y29.2512 
G01 X-11.1230 Y29.2189 
G01 X-10.9267 Y29.1551 
G01 X-10.7428 Y29.0614 
G01 X-10.5758 Y28.9401 
G01 X-10.4299 Y28.7942 
G01 X-10.3086 Y28.6272 
G01 X-10.2149 Y28.4433 
G01 X-10.1511 Y28.2470 
G01 X-10.1188 Y28.0432 
G01 X-10.1188 Y13.6716 
G01 X-10.0839 Y13.7197 
G00 Z2.5400  
G00 X-12.8412 Y26.5288 
G01 Z-0.1778 F100   
G01 X-17.6388 Y26.5288 F80    
G01 X-17.6388 Y25.3561 
G01 X-17.6103 Y25.3846 
G01 X-17.4371 Y25.5175 
G01 X-17.2481 Y25.6267 
G01 X-17.0464 Y25.7102 
G01 X-16.8356 Y25.7667 
G01 X-16.6191 Y25.7952 
G01 X-16.4009 Y25.7952 
G01 X-16.1844 Y25.7667 
G01 X-15.9736 Y25.7102 
G01 X-15.7719 Y25.6267 
G01 X-15.5829 Y25.5175 
G01 X-15.4097 Y25.3846 
G01 X-15.2553 Y25.2303 
G01 X-15.1225 Y25.0571 
G01 X-15.0133 Y24.8681 
G01 X-14.9298 Y24.6664 
G01 X-14.8733 Y24.4556 
G01 X-14.8448 Y24.2391 
G01 X-14.8448 Y21.4809 
G01 X-14.8733 Y21.2644 
G01 X-14.9298 Y21.0536 
G01 X-15.0133 Y20.8519 
G01 X-15.1225 Y20.6629 
G01 X-15.1984 Y20.5639 
G01 X-15.2493 Y20.4074 
G01 X-15.3465 Y20.2166 
G01 X-15.4723 Y20.0434 
G01 X-15.6238 Y19.8919 
G01 X-15.7970 Y19.7661 
G01 X-15.9878 Y19.6689 
G01 X-16.1914 Y19.6027 
G01 X-16.4029 Y19.5692 
G01 X-16.6171 Y19.5692 
G01 X-16.8286 Y19.6027 
G01 X-17.0322 Y19.6689 
G01 X-17.2230 Y19.7661 
G01 X-17.3962 Y19.8919 
G01 X-17.5477 Y20.0434 
G01 X-17.6735 Y20.2166 
G01 X-17.7707 Y20.4074 
G01 X-17.7800 Y20.4359 
G01 X-17.7893 Y20.4074 
G01 X-17.8865 Y20.2166 
G01 X-18.0123 Y20.0434 
G01 X-18.1638 Y19.8919 
G01 X-18.3370 Y19.7661 
G01 X-18.5278 Y19.6689 
G01 X-18.7314 Y19.6027 
G01 X-18.9429 Y19.5692 
G01 X-19.1571 Y19.5692 
G01 X-19.3686 Y19.6027 
G01 X-19.5722 Y19.6689 
G01 X-19.7630 Y19.7661 
G01 X-19.9362 Y19.8919 
G01 X-20.0877 Y20.0434 
G01 X-20.2135 Y20.2166 
G01 X-20.3107 Y20.4074 
G01 X-20.3200 Y20.4359 
G01 X-20.3293 Y20.4074 
G01 X-20.4265 Y20.2166 
G01 X-20.5523 Y20.0434 
G01 X-20.7038 Y19.8919 
G01 X-20.8770 Y19.7661 
G01 X-21.0678 Y19.6689 
G01 X-21.2714 Y19.6027 
G01 X-21.4829 Y19.5692 
G01 X-21.6971 Y19.5692 
G01 X-21.9086 Y19.6027 
G01 X-22.1122 Y19.6689 
G01 X-22.3030 Y19.7661 
G01 X-22.4762 Y19.8919 
G01 X-22.6277 Y20.0434 
G01 X-22.7535 Y20.2166 
G01 X-22.8507 Y20.4074 
G01 X-22.8600 Y20.4359 
G01 X-22.8693 Y20.4074 
G01 X-22.9665 Y20.2166 
G01 X-23.0923 Y20.0434 
G01 X-23.2438 Y19.8919 
G01 X-23.4170 Y19.7661 
G01 X-23.6078 Y19.6689 
G01 X-23.8114 Y19.6027 
G01 X-24.0229 Y19.5692 
G01 X-24.2371 Y19.5692 
G01 X-24.4486 Y19.6027 
G01 X-24.6522 Y19.6689 
G01 X-24.8430 Y19.7661 
G01 X-25.0162 Y19.8919 
G01 X-25.1677 Y20.0434 
G01 X-25.2935 Y20.2166 
G01 X-25.3907 Y20.4074 
G01 X-25.4000 Y20.4359 
G01 X-25.4093 Y20.4074 
G01 X-25.5065 Y20.2166 
G01 X-25.6323 Y20.0434 
G01 X-25.7838 Y19.8919 
G01 X-25.9570 Y19.7661 
G01 X-26.1478 Y19.6689 
G01 X-26.3514 Y19.6027 
G01 X-26.5629 Y19.5692 
G01 X-26.7771 Y19.5692 
G01 X-26.9886 Y19.6027 
G01 X-27.1922 Y19.6689 
G01 X-27.3830 Y19.7661 
G01 X-27.5562 Y19.8919 
G01 X-27.7077 Y20.0434 
G01 X-27.8335 Y20.2166 
G01 X-27.9307 Y20.4074 
G01 X-27.9400 Y20.4359 
G01 X-27.9493 Y20.4074 
G01 X-28.0465 Y20.2166 
G01 X-28.1723 Y20.0434 
G01 X-28.3238 Y19.8919 
G01 X-28.4970 Y19.7661 
G01 X-28.6878 Y19.6689 
G01 X-28.8914 Y19.6027 
G01 X-29.1029 Y19.5692 
G01 X-29.3171 Y19.5692 
G01 X-29.5286 Y19.6027 
G01 X-29.7322 Y19.6689 
G01 X-29.9230 Y19.7661 
G01 X-30.0962 Y19.8919 
G01 X-30.2477 Y20.0434 
G01 X-30.3735 Y20.2166 
G01 X-30.4707 Y20.4074 
G01 X-30.4800 Y20.4359 
G01 X-30.4893 Y20.4074 
G01 X-30.5865 Y20.2166 
G01 X-30.7123 Y20.0434 
G01 X-30.8638 Y19.8919 
G01 X-31.0370 Y19.7661 
G01 X-31.2278 Y19.6689 
G01 X-31.4314 Y19.6027 
G01 X-31.6429 Y19.5692 
G01 X-31.8571 Y19.5692 
G01 X-32.0686 Y19.6027 
G01 X-32.2722 Y19.6689 
G01 X-32.4630 Y19.7661 
G01 X-32.6362 Y19.8919 
G01 X-32.7877 Y20.0434 
G01 X-32.9135 Y20.2166 
G01 X-33.0107 Y20.4074 
G01 X-33.0200 Y20.4359 
G01 X-33.0293 Y20.4074 
G01 X-33.1265 Y20.2166 
G01 X-33.2523 Y20.0434 
G01 X-33.4038 Y19.8919 
G01 X-33.5770 Y19.7661 
G01 X-33.7678 Y19.6689 
G01 X-33.9714 Y19.6027 
G01 X-34.1829 Y19.5692 
G01 X-34.3971 Y19.5692 
G01 X-34.6086 Y19.6027 
G01 X-34.8122 Y19.6689 
G01 X-35.0030 Y19.7661 
G01 X-35.1762 Y19.8919 
G01 X-35.3277 Y20.0434 
G01 X-35.4188 Y20.1688 
G01 X-35.4188 Y15.3912 
G01 X-35.3277 Y15.5166 
G01 X-35.1762 Y15.6681 
G01 X-35.0030 Y15.7939 
G01 X-34.8122 Y15.8911 
G01 X-34.6086 Y15.9573 
G01 X-34.3971 Y15.9908 
G01 X-34.1829 Y15.9908 
G01 X-33.9714 Y15.9573 
G01 X-33.7678 Y15.8911 
G01 X-33.5770 Y15.7939 
G01 X-33.4038 Y15.6681 
G01 X-33.2523 Y15.5166 
G01 X-33.1265 Y15.3434 
G01 X-33.0293 Y15.1526 
G01 X-33.0200 Y15.1241 
G01 X-33.0107 Y15.1526 
G01 X-32.9135 Y15.3434 
G01 X-32.7877 Y15.5166 
G01 X-32.6362 Y15.6681 
G01 X-32.4630 Y15.7939 
G01 X-32.2722 Y15.8911 
G01 X-32.0686 Y15.9573 
G01 X-31.8571 Y15.9908 
G01 X-31.6429 Y15.9908 
G01 X-31.4314 Y15.9573 
G01 X-31.2278 Y15.8911 
G01 X-31.0370 Y15.7939 
G01 X-30.8638 Y15.6681 
G01 X-30.7123 Y15.5166 
G01 X-30.5865 Y15.3434 
G01 X-30.4893 Y15.1526 
G01 X-30.4800 Y15.1241 
G01 X-30.4707 Y15.1526 
G01 X-30.3735 Y15.3434 
G01 X-30.2477 Y15.5166 
G01 X-30.0962 Y15.6681 
G01 X-29.9230 Y15.7939 
G01 X-29.7322 Y15.8911 
G01 X-29.5286 Y15.9573 
G01 X-29.3171 Y15.9908 
G01 X-29.1029 Y15.9908 
G01 X-28.8914 Y15.9573 
G01 X-28.6878 Y15.8911 
G01 X-28.4970 Y15.7939 
G01 X-28.3238 Y15.6681 
G01 X-28.1723 Y15.5166 
G01 X-28.0465 Y15.3434 
G01 X-27.9493 Y15.1526 
G01 X-27.9400 Y15.1241 
G01 X-27.9307 Y15.1526 
G01 X-27.8335 Y15.3434 
G01 X-27.7077 Y15.5166 
G01 X-27.5562 Y15.6681 
G01 X-27.3830 Y15.7939 
G01 X-27.1922 Y15.8911 
G01 X-26.9886 Y15.9573 
G01 X-26.7771 Y15.9908 
G01 X-26.5629 Y15.9908 
G01 X-26.3514 Y15.9573 
G01 X-26.1478 Y15.8911 
G01 X-25.9570 Y15.7939 
G01 X-25.7838 Y15.6681 
G01 X-25.6323 Y15.5166 
G01 X-25.5065 Y15.3434 
G01 X-25.4093 Y15.1526 
G01 X-25.4000 Y15.1241 
G01 X-25.3907 Y15.1526 
G01 X-25.2935 Y15.3434 
G01 X-25.1677 Y15.5166 
G01 X-25.0162 Y15.6681 
G01 X-24.8430 Y15.7939 
G01 X-24.6522 Y15.8911 
G01 X-24.4486 Y15.9573 
G01 X-24.2371 Y15.9908 
G01 X-24.0229 Y15.9908 
G01 X-23.8114 Y15.9573 
G01 X-23.6078 Y15.8911 
G01 X-23.4170 Y15.7939 
G01 X-23.2438 Y15.6681 
G01 X-23.0923 Y15.5166 
G01 X-22.9665 Y15.3434 
G01 X-22.8693 Y15.1526 
G01 X-22.8600 Y15.1241 
G01 X-22.8507 Y15.1526 
G01 X-22.7535 Y15.3434 
G01 X-22.6277 Y15.5166 
G01 X-22.4762 Y15.6681 
G01 X-22.3030 Y15.7939 
G01 X-22.1122 Y15.8911 
G01 X-21.9086 Y15.9573 
G01 X-21.6971 Y15.9908 
G01 X-21.4829 Y15.9908 
G01 X-21.2714 Y15.9573 
G01 X-21.0678 Y15.8911 
G01 X-20.8770 Y15.7939 
G01 X-20.7038 Y15.6681 
G01 X-20.5523 Y15.5166 
G01 X-20.4265 Y15.3434 
G01 X-20.3293 Y15.1526 
G01 X-20.3200 Y15.1241 
G01 X-20.3107 Y15.1526 
G01 X-20.2135 Y15.3434 
G01 X-20.0877 Y15.5166 
G01 X-19.9362 Y15.6681 
G01 X-19.7630 Y15.7939 
G01 X-19.5722 Y15.8911 
G01 X-19.3686 Y15.9573 
G01 X-19.1571 Y15.9908 
G01 X-18.9429 Y15.9908 
G01 X-18.7314 Y15.9573 
G01 X-18.5278 Y15.8911 
G01 X-18.3370 Y15.7939 
G01 X-18.1638 Y15.6681 
G01 X-18.0123 Y15.5166 
G01 X-17.8865 Y15.3434 
G01 X-17.7893 Y15.1526 
G01 X-17.7800 Y15.1241 
G01 X-17.7707 Y15.1526 
G01 X-17.6735 Y15.3434 
G01 X-17.5477 Y15.5166 
G01 X-17.3962 Y15.6681 
G01 X-17.2230 Y15.7939 
G01 X-17.0322 Y15.8911 
G01 X-16.8286 Y15.9573 
G01 X-16.6171 Y15.9908 
G01 X-16.4029 Y15.9908 
G01 X-16.1914 Y15.9573 
G01 X-15.9878 Y15.8911 
G01 X-15.7970 Y15.7939 
G01 X-15.6352 Y15.6764 
G01 X-15.6352 Y17.8891 
G01 X-15.6067 Y18.1056 
G01 X-15.5502 Y18.3164 
G01 X-15.4667 Y18.5181 
G01 X-15.3575 Y18.7071 
G01 X-15.2246 Y18.8803 
G01 X-15.0703 Y19.0346 
G01 X-14.8971 Y19.1675 
G01 X-14.7081 Y19.2767 
G01 X-14.5064 Y19.3602 
G01 X-14.2956 Y19.4167 
G01 X-14.0791 Y19.4452 
G01 X-13.8609 Y19.4452 
G01 X-13.6444 Y19.4167 
G01 X-13.4336 Y19.3602 
G01 X-13.2319 Y19.2767 
G01 X-13.0429 Y19.1675 
G01 X-12.8697 Y19.0346 
G01 X-12.8412 Y19.0061 
G01 X-12.8412 Y26.5288 
G00 Z2.5400  
G00 X-30.4893 Y12.7874 
G01 Z-0.1778 F100   
G01 X-30.5865 Y12.5966 F80    
G01 X-30.7123 Y12.4234 
G01 X-30.8638 Y12.2719 
G01 X-31.0370 Y12.1461 
G01 X-31.2278 Y12.0489 
G01 X-31.4314 Y11.9827 
G01 X-31.6429 Y11.9492 
G01 X-31.8571 Y11.9492 
G01 X-32.0686 Y11.9827 
G01 X-32.2722 Y12.0489 
G01 X-32.4630 Y12.1461 
G01 X-32.6248 Y12.2636 
G01 X-32.6248 Y9.2852  
G01 X-26.5609 Y9.2852  
G01 X-26.3444 Y9.2567  
G01 X-26.1664 Y9.2090  
G01 X-26.0118 Y9.2090  
G01 X-25.9025 Y9.0997  
G01 X-25.7952 Y9.0377  
G01 X-25.7952 Y12.2636 
G01 X-25.9570 Y12.1461 
G01 X-26.1478 Y12.0489 
G01 X-26.3514 Y11.9827 
G01 X-26.5629 Y11.9492 
G01 X-26.7771 Y11.9492 
G01 X-26.9886 Y11.9827 
G01 X-27.1922 Y12.0489 
G01 X-27.3830 Y12.1461 
G01 X-27.5562 Y12.2719 
G01 X-27.7077 Y12.4234 
G01 X-27.8335 Y12.5966 
G01 X-27.9307 Y12.7874 
G01 X-27.9400 Y12.8159 
G01 X-27.9493 Y12.7874 
G01 X-28.0465 Y12.5966 
G01 X-28.1723 Y12.4234 
G01 X-28.3238 Y12.2719 
G01 X-28.4970 Y12.1461 
G01 X-28.6878 Y12.0489 
G01 X-28.8914 Y11.9827 
G01 X-29.1029 Y11.9492 
G01 X-29.3171 Y11.9492 
G01 X-29.5286 Y11.9827 
G01 X-29.7322 Y12.0489 
G01 X-29.9230 Y12.1461 
G01 X-30.0962 Y12.2719 
G01 X-30.2477 Y12.4234 
G01 X-30.3735 Y12.5966 
G01 X-30.4707 Y12.7874 
G01 X-30.4800 Y12.8159 
G01 X-30.4893 Y12.7874 
G00 Z2.5400  
G00 X-35.4188 Y23.9888 
G01 Z-0.1778 F100   
G01 X-35.4188 Y23.0112 F80    
G01 X-35.3277 Y23.1366 
G01 X-35.1762 Y23.2881 
G01 X-35.0030 Y23.4139 
G01 X-34.8122 Y23.5111 
G01 X-34.6086 Y23.5773 
G01 X-34.3971 Y23.6108 
G01 X-34.1829 Y23.6108 
G01 X-33.9714 Y23.5773 
G01 X-33.7678 Y23.5111 
G01 X-33.5770 Y23.4139 
G01 X-33.4038 Y23.2881 
G01 X-33.2523 Y23.1366 
G01 X-33.1265 Y22.9634 
G01 X-33.0293 Y22.7726 
G01 X-33.0200 Y22.7441 
G01 X-33.0107 Y22.7726 
G01 X-32.9135 Y22.9634 
G01 X-32.7877 Y23.1366 
G01 X-32.6362 Y23.2881 
G01 X-32.4630 Y23.4139 
G01 X-32.2722 Y23.5111 
G01 X-32.0686 Y23.5773 
G01 X-31.8571 Y23.6108 
G01 X-31.6429 Y23.6108 
G01 X-31.4314 Y23.5773 
G01 X-31.2278 Y23.5111 
G01 X-31.0370 Y23.4139 
G01 X-30.8638 Y23.2881 
G01 X-30.7123 Y23.1366 
G01 X-30.5865 Y22.9634 
G01 X-30.4893 Y22.7726 
G01 X-30.4800 Y22.7441 
G01 X-30.4707 Y22.7726 
G01 X-30.3735 Y22.9634 
G01 X-30.2477 Y23.1366 
G01 X-30.0962 Y23.2881 
G01 X-29.9230 Y23.4139 
G01 X-29.7322 Y23.5111 
G01 X-29.5286 Y23.5773 
G01 X-29.3171 Y23.6108 
G01 X-29.1029 Y23.6108 
G01 X-28.8914 Y23.5773 
G01 X-28.6878 Y23.5111 
G01 X-28.4970 Y23.4139 
G01 X-28.3238 Y23.2881 
G01 X-28.1723 Y23.1366 
G01 X-28.0812 Y23.0112 
G01 X-28.0812 Y23.9888 
G01 X-35.4188 Y23.9888 
G00 Z2.5400  
G00 X-7.0082 Y6.0310  
G01 Z-0.1778 F100   
G01 X-7.1175 Y6.1403  F80    
G01 X-7.2771 Y6.2325  
G01 X-7.4503 Y6.3654  
G01 X-7.6046 Y6.5197  
G01 X-7.6200 Y6.5397  
G01 X-7.6354 Y6.5197  
G01 X-7.7897 Y6.3654  
G01 X-7.9629 Y6.2325  
G01 X-8.1225 Y6.1403  
G01 X-8.2318 Y6.0310  
G01 X-8.3864 Y6.0310  
G01 X-8.5644 Y5.9833  
G01 X-8.7809 Y5.9548  
G01 X-8.9991 Y5.9548  
G01 X-9.2156 Y5.9833  
G01 X-9.3936 Y6.0310  
G01 X-9.5482 Y6.0310  
G01 X-9.6575 Y6.1403  
G01 X-9.8171 Y6.2325  
G01 X-9.9903 Y6.3654  
G01 X-10.1446 Y6.5197  
G01 X-10.2048 Y6.5981  
G01 X-10.7718 Y6.0310  
G01 X-12.0882 Y6.0310  
G01 X-12.6552 Y6.5981  
G01 X-12.7154 Y6.5197  
G01 X-12.8697 Y6.3654  
G01 X-13.0429 Y6.2325  
G01 X-13.2025 Y6.1403  
G01 X-13.3118 Y6.0310  
G01 X-13.4664 Y6.0310  
G01 X-13.6444 Y5.9833  
G01 X-13.8609 Y5.9548  
G01 X-14.0791 Y5.9548  
G01 X-14.2956 Y5.9833  
G01 X-14.4736 Y6.0310  
G01 X-14.6282 Y6.0310  
G01 X-14.7375 Y6.1403  
G01 X-14.8971 Y6.2325  
G01 X-15.0703 Y6.3654  
G01 X-15.2246 Y6.5197  
G01 X-15.2400 Y6.5397  
G01 X-15.2553 Y6.5197  
G01 X-15.4097 Y6.3654  
G01 X-15.5829 Y6.2325  
G01 X-15.7425 Y6.1403  
G01 X-15.8518 Y6.0310  
G01 X-16.0064 Y6.0310  
G01 X-16.1844 Y5.9833  
G01 X-16.4009 Y5.9548  
G01 X-16.6191 Y5.9548  
G01 X-16.8356 Y5.9833  
G01 X-17.0136 Y6.0310  
G01 X-17.1682 Y6.0310  
G01 X-17.2775 Y6.1403  
G01 X-17.4371 Y6.2325  
G01 X-17.6103 Y6.3654  
G01 X-17.7646 Y6.5197  
G01 X-17.7800 Y6.5397  
G01 X-17.7953 Y6.5197  
G01 X-17.9497 Y6.3654  
G01 X-18.1229 Y6.2325  
G01 X-18.2825 Y6.1403  
G01 X-18.3918 Y6.0310  
G01 X-18.5464 Y6.0310  
G01 X-18.7244 Y5.9833  
G01 X-18.9409 Y5.9548  
G01 X-19.1591 Y5.9548  
G01 X-19.3756 Y5.9833  
G01 X-19.5536 Y6.0310  
G01 X-19.7082 Y6.0310  
G01 X-19.8175 Y6.1403  
G01 X-19.9771 Y6.2325  
G01 X-20.1503 Y6.3654  
G01 X-20.3046 Y6.5197  
G01 X-20.3200 Y6.5397  
G01 X-20.3354 Y6.5197  
G01 X-20.4897 Y6.3654  
G01 X-20.6629 Y6.2325  
G01 X-20.8225 Y6.1403  
G01 X-20.9318 Y6.0310  
G01 X-21.0864 Y6.0310  
G01 X-21.2644 Y5.9833  
G01 X-21.4809 Y5.9548  
G01 X-21.6991 Y5.9548  
G01 X-21.9156 Y5.9833  
G01 X-22.0936 Y6.0310  
G01 X-22.2482 Y6.0310  
G01 X-22.3575 Y6.1403  
G01 X-22.5171 Y6.2325  
G01 X-22.6903 Y6.3654  
G01 X-22.8446 Y6.5197  
G01 X-22.8600 Y6.5397  
G01 X-22.8754 Y6.5197  
G01 X-23.0297 Y6.3654  
G01 X-23.2029 Y6.2325  
G01 X-23.3625 Y6.1403  
G01 X-23.4718 Y6.0310  
G01 X-23.6264 Y6.0310  
